% 
OFront End Cap
(POSTED USING AFL HAAS MILL POST FOR CATIA)
(1 INCH CARBIDE INSERT TOOL)
(T7: 1/2 DIA X 1.00  END MILL 2 FLT)
(T3: 1/4 DIA X 0.70  END MILL 2 FLT)
(T1: 1/8 DIA X 0.50  END MILL 2 FLT)
(#2 Center Drill)
(#4 Center Drill)
(#36 Drill)
(#27 Drill)
G40G80G90
N10 (Manufacturing Program.1)
N20 (Front End Cap)
N30 (OPERATION NAME : Tool Change.1)
N40 (Start generation of : Tool Change.1)
N50 T16 M6 (1 INCH CARBIDE INSERT TOOL)
N60 S7639 M3
N70 G0G54G90X-0.5588Y-0.3578F76. M8
N80 G43 H16
N90 M8
N100 (End of generation of : Tool Change.1)
N110 (OPERATION NAME : Roughing.1)
N120 (Start generation of : Roughing.1)
N130 G00 X-0.5588 Y-0.3578 Z0.5
N140 G00 Z0.0139
N150 G01 Z0.0039 F76.4
N160 X-0.5807 Y-0.3239 Z0.0026
N170 X-0.6167 Y-0.2485 Z-0.0001
N180 X-0.643 Y-0.1693 Z-0.0027
N190 X-0.6591 Y-0.0874 Z-0.0054
N200 X-0.6649 Y-0.0041 Z-0.0081
N210 X-0.6601 Y0.0793 Z-0.0108
N220 X-0.645 Y0.1614 Z-0.0135
N230 X-0.6197 Y0.241 Z-0.0162
N240 X-0.5882 Y0.3089 Z-0.0186
N250 X-0.5846 Y0.3167 Z-0.0187
N260 X-0.5403 Y0.3875 Z-0.0197
N270 X-0.4875 Y0.4522 Z-0.0208
N280 X-0.4269 Y0.5097 Z-0.0219
N290 X-0.3597 Y0.5592 Z-0.0229
N300 X-0.2868 Y0.5998 Z-0.024
N310 X-0.2094 Y0.631 Z-0.0251
N320 X-0.1114 Y0.6567 Z-0.0263
N330 X-0.0779 Y0.6621 Z-0.0268
N340 X-0.0709 Y0.6627 Z-0.0269
N350 X-0.0349 Y0.6631 Z-0.0273
N360 X0.0051 Y0.6635 Z-0.0278
N370 X0.0408 Y0.649 Z-0.0283
N380 X0.0556 Y0.6133 Z-0.0288
N390 X0.0554 Y0.5733 Z-0.0293
N400 X0.0544 Y0.3452 Z-0.0322
N410 X0.0533 Y0.117 Z-0.0351
N420 X0.0531 Y0.077 Z-0.0356
N430 X0.0557 Y0.0612 Z-0.0358
N440 X0.0631 Y0.0469 Z-0.036
N450 X0.0704 Y0.0329 Z-0.0362
N460 X0.073 Y0.0173 Z-0.0364
N470 X0.0733 Y-0.0164 Z-0.0369
N480 X0.0639 Y-0.0458 Z-0.0373
N490 X0.039 Y-0.0641 Z-0.0377
N500 X0.0071 Y-0.0747 Z-0.0381
N510 X-0.0238 Y-0.0749 Z-0.0385
N520 X-0.0489 Y-0.0569 Z-0.0389
N530 X-0.0689 Y-0.0298 Z-0.0393
N540 X-0.0786 Y-0.0007 Z-0.0397
N550 X-0.0695 Y0.0286 Z-0.0401
N560 X-0.0504 Y0.0558 Z-0.0405
N570 X-0.0352 Y0.0698 Z-0.0408
N580 X-0.0157 Y0.0766 Z-0.041
N590 X-0.004 Y0.078 Z-0.0412
N600 X0.0117 Y0.0775 Z-0.0414
N610 X0.0264 Y0.0722 Z-0.0416
N620 X0.0472 Y0.0607 Z-0.0419
N630 X0.0559 Y0.0547 Z-0.042
N640 X0.0631 Y0.0469 Z-0.0421
N650 X0.0946 Y0.0276 Z-0.0426
N660 X0.1307 Y0.0352 Z-0.0431
N670 X0.1518 Y0.0655 Z-0.0436
N680 X0.1609 Y0.1045 Z-0.0441
N690 X0.2668 Y0.5594 Z-0.05
N700 X0.1609 Y0.1045 F76.4
N710 X0.1518 Y0.0655 F61.1
N720 G02 X0.0631 Y0.0469 I-0.0487 J0.0113
N730 G01 X0.0472 Y0.0607
N740 X0.0264 Y0.0722
N750 X-0.004 Y0.078
N760 X-0.0157 Y0.0766
N770 G03 X-0.0504 Y0.0558 I0.0062 J-0.0496
N780 G01 X-0.0695 Y0.0286
N790 G03 X-0.0689 Y-0.0298 I0.0409 J-0.0288
N800 G01 X-0.0489 Y-0.0569
N810 G03 X0.0071 Y-0.0747 I0.0402 J0.0296
N820 G01 X0.039 Y-0.0641
N830 G03 X0.0733 Y-0.0164 I-0.0158 J0.0474
N840 G01 X0.073 Y0.0173
N850 X0.0631 Y0.0469
N860 X0.0531 Y0.077
N870 X0.0533 Y0.117
N880 X0.0544 Y0.3452 F76.4
N890 X0.0554 Y0.5733
N900 X0.0556 Y0.6133 F61.1
N910 G03 X0.0051 Y0.6635 I-0.05 J0.0002
N920 G01 X-0.0349 Y0.6631
N930 X-0.0709 Y0.6627 F76.4
N940 X-0.0779 Y0.6621
N950 X-0.1114 Y0.6567
N960 X-0.2094 Y0.631
N970 X-0.2868 Y0.5998
N980 X-0.3597 Y0.5592
N990 X-0.4269 Y0.5097
N1000 X-0.4875 Y0.4522
N1010 X-0.5403 Y0.3875
N1020 X-0.5846 Y0.3167
N1030 X-0.6197 Y0.241
N1040 X-0.645 Y0.1614
N1050 X-0.6601 Y0.0793
N1060 X-0.6649 Y-0.0041
N1070 X-0.6591 Y-0.0874
N1080 X-0.643 Y-0.1693
N1090 X-0.6167 Y-0.2485
N1100 X-0.5807 Y-0.3239
N1110 X-0.5355 Y-0.3941
N1120 X-0.4819 Y-0.4581
N1130 X-0.4207 Y-0.5149
N1140 X-0.3528 Y-0.5635
N1150 X-0.2794 Y-0.6033
N1160 X-0.2016 Y-0.6336
N1170 X-0.1206 Y-0.6538
N1180 X-0.0377 Y-0.6638
N1190 X0.0458 Y-0.6633
N1200 X0.1286 Y-0.6523
N1210 X0.2093 Y-0.6311
N1220 X0.2868 Y-0.5998
N1230 X0.3597 Y-0.5592
N1240 X0.4269 Y-0.5097
N1250 X0.4875 Y-0.4522
N1260 X0.5403 Y-0.3875
N1270 X0.5846 Y-0.3167
N1280 X0.6197 Y-0.241
N1290 X0.645 Y-0.1614
N1300 X0.6601 Y-0.0793
N1310 X0.6649 Y0.0041
N1320 X0.6591 Y0.0874
N1330 X0.643 Y0.1693
N1340 X0.6167 Y0.2485
N1350 X0.5807 Y0.3239
N1360 X0.5355 Y0.3941
N1370 X0.4819 Y0.4581
N1380 X0.4519 Y0.4859
N1390 X0.4411 Y0.5003
N1400 X0.2469 Y0.8932
N1410 X0.0704 Y1.2503
N1420 X0.0527 Y1.2861 F61.1
N1430 G03 X0.008 Y1.3139 I-0.0448 J-0.0221
N1440 G01 X-0.032 Y1.314
N1450 X-0.0887 Y1.3142 F76.4
N1460 X-0.1549 Y1.3078
N1470 X-0.1573 Y1.3075
N1480 X-0.237 Y1.2955
N1490 X-0.4056 Y1.2524
N1500 X-0.5594 Y1.1917
N1510 X-0.7043 Y1.1122
N1520 X-0.8382 Y1.0151
N1530 X-0.9588 Y0.9021
N1540 X-1.0643 Y0.7748
N1550 X-1.153 Y0.6353
N1560 X-1.2235 Y0.4858
N1570 X-1.2748 Y0.3286
N1580 X-1.3059 Y0.1662
N1590 X-1.3164 Y0.0012
N1600 X-1.3062 Y-0.1638
N1610 X-1.2754 Y-0.3262
N1620 X-1.2244 Y-0.4835
N1630 X-1.1542 Y-0.6331
N1640 X-1.0657 Y-0.7728
N1650 X-0.9605 Y-0.9003
N1660 X-0.8401 Y-1.0135
N1670 X-0.7064 Y-1.1108
N1680 X-0.5616 Y-1.1906
N1690 X-0.408 Y-1.2516
N1700 X-0.2479 Y-1.2929
N1710 X-0.0839 Y-1.3138
N1720 X0.0814 Y-1.3139
N1730 X0.2455 Y-1.2933
N1740 X0.4056 Y-1.2524
N1750 X0.5594 Y-1.1917
N1760 X0.7043 Y-1.1122
N1770 X0.8382 Y-1.0151
N1780 X0.9588 Y-0.9021
N1790 X1.0643 Y-0.7748
N1800 X1.153 Y-0.6353
N1810 X1.2235 Y-0.4858
N1820 X1.2748 Y-0.3286
N1830 X1.3059 Y-0.1662
N1840 X1.3164 Y-0.0012
N1850 X1.3062 Y0.1638
N1860 X1.2754 Y0.3262
N1870 X1.2244 Y0.4835
N1880 X1.1542 Y0.6331
N1890 X1.0657 Y0.7728
N1900 X0.9605 Y0.9003
N1910 X0.8401 Y1.0135
N1920 X0.7232 Y1.0986
N1930 X0.7134 Y1.108
N1940 X0.3816 Y1.5266
N1950 X0.0747 Y1.9138
N1960 X0.0499 Y1.9452 F61.1
N1970 G03 X0.0109 Y1.9641 I-0.0392 J-0.0311
N1980 G01 X-0.0291 Y1.9643
N1990 X-0.1147 Y1.9647 F76.4
N2000 X-0.2342 Y1.9532
N2010 X-0.36 Y1.9348
N2020 X-0.5997 Y1.8744
N2030 X-0.8299 Y1.7845
N2040 X-1.047 Y1.6664
N2050 X-1.2476 Y1.522
N2060 X-1.4285 Y1.3537
N2070 X-1.5869 Y1.164
N2080 X-1.7203 Y0.9559
N2090 X-1.8265 Y0.7327
N2100 X-1.9039 Y0.498
N2110 X-1.9514 Y0.2555
N2120 X-1.968 Y0.0089
N2130 X-1.9536 Y-0.2378
N2140 X-1.9084 Y-0.4808
N2150 X-1.8331 Y-0.7162
N2160 X-1.7288 Y-0.9403
N2170 X-1.5974 Y-1.1496
N2180 X-1.4407 Y-1.3407
N2190 X-1.2613 Y-1.5107
N2200 X-1.062 Y-1.6569
N2210 X-0.846 Y-1.7769
N2220 X-0.6166 Y-1.8689
N2230 X-0.3775 Y-1.9315
N2240 X-0.1325 Y-1.9635
N2250 X0.1147 Y-1.9647
N2260 X0.36 Y-1.9348
N2270 X0.5997 Y-1.8744
N2280 X0.8299 Y-1.7845
N2290 X1.047 Y-1.6664
N2300 X1.2476 Y-1.522
N2310 X1.4285 Y-1.3537
N2320 X1.5869 Y-1.164
N2330 X1.7203 Y-0.9559
N2340 X1.8265 Y-0.7327
N2350 X1.9039 Y-0.498
N2360 X1.9514 Y-0.2555
N2370 X1.968 Y-0.0089
N2380 X1.9536 Y0.2378
N2390 X1.9084 Y0.4808
N2400 X1.8331 Y0.7162
N2410 X1.7288 Y0.9403
N2420 X1.5974 Y1.1496
N2430 X1.4407 Y1.3407
N2440 X1.2613 Y1.5107
N2450 X1.062 Y1.6569
N2460 X0.846 Y1.7769
N2470 X0.6166 Y1.8689
N2480 X0.3775 Y1.9315
N2490 X0.1325 Y1.9635
N2500 X0.0109 Y1.9641
N2510 X-0.0245 Y1.9496 Z-0.0486
N2520 X-0.0393 Y1.9143 Z-0.0473
N2530 Z-0.0373 F76.4
N2540 G00 Z0.5
N2550 G00 X-0.5588 Y-0.3578
N2560 G00 Z-0.0361
N2570 G01 Z-0.0461 F76.4
N2580 X-0.5807 Y-0.3239 Z-0.0474
N2590 X-0.6167 Y-0.2485 Z-0.0501
N2600 X-0.643 Y-0.1693 Z-0.0527
N2610 X-0.6591 Y-0.0874 Z-0.0554
N2620 X-0.6649 Y-0.0041 Z-0.0581
N2630 X-0.6601 Y0.0793 Z-0.0608
N2640 X-0.645 Y0.1614 Z-0.0635
N2650 X-0.6197 Y0.241 Z-0.0662
N2660 X-0.5882 Y0.3089 Z-0.0686
N2670 X-0.5846 Y0.3167 Z-0.0687
N2680 X-0.5403 Y0.3875 Z-0.0697
N2690 X-0.4875 Y0.4522 Z-0.0708
N2700 X-0.4269 Y0.5097 Z-0.0719
N2710 X-0.3597 Y0.5592 Z-0.0729
N2720 X-0.2868 Y0.5998 Z-0.074
N2730 X-0.2094 Y0.631 Z-0.0751
N2740 X-0.1114 Y0.6567 Z-0.0763
N2750 X-0.0779 Y0.6621 Z-0.0768
N2760 X-0.0709 Y0.6627 Z-0.0769
N2770 X-0.0349 Y0.6631 Z-0.0773
N2780 X0.0051 Y0.6635 Z-0.0778
N2790 X0.0408 Y0.649 Z-0.0783
N2800 X0.0556 Y0.6133 Z-0.0788
N2810 X0.0554 Y0.5733 Z-0.0793
N2820 X0.0544 Y0.3452 Z-0.0822
N2830 X0.0533 Y0.117 Z-0.0851
N2840 X0.0531 Y0.077 Z-0.0856
N2850 X0.0557 Y0.0612 Z-0.0858
N2860 X0.0631 Y0.0469 Z-0.086
N2870 X0.0704 Y0.0329 Z-0.0862
N2880 X0.073 Y0.0173 Z-0.0864
N2890 X0.0733 Y-0.0164 Z-0.0869
N2900 X0.0639 Y-0.0458 Z-0.0873
N2910 X0.039 Y-0.0641 Z-0.0877
N2920 X0.0071 Y-0.0747 Z-0.0881
N2930 X-0.0238 Y-0.0749 Z-0.0885
N2940 X-0.0489 Y-0.0569 Z-0.0889
N2950 X-0.0689 Y-0.0298 Z-0.0893
N2960 X-0.0786 Y-0.0007 Z-0.0897
N2970 X-0.0695 Y0.0286 Z-0.0901
N2980 X-0.0504 Y0.0558 Z-0.0905
N2990 X-0.0352 Y0.0698 Z-0.0908
N3000 X-0.0157 Y0.0766 Z-0.091
N3010 X-0.004 Y0.078 Z-0.0912
N3020 X0.0117 Y0.0775 Z-0.0914
N3030 X0.0264 Y0.0722 Z-0.0916
N3040 X0.0472 Y0.0607 Z-0.0919
N3050 X0.0559 Y0.0547 Z-0.092
N3060 X0.0631 Y0.0469 Z-0.0921
N3070 X0.0946 Y0.0276 Z-0.0926
N3080 X0.1307 Y0.0352 Z-0.0931
N3090 X0.1518 Y0.0655 Z-0.0935
N3100 X0.1609 Y0.1045 Z-0.0941
N3110 X0.2668 Y0.5594 Z-0.1
N3120 X0.1609 Y0.1045 F76.4
N3130 X0.1518 Y0.0655 F61.1
N3140 G02 X0.0631 Y0.0469 I-0.0487 J0.0113
N3150 G01 X0.0472 Y0.0607
N3160 X0.0264 Y0.0722
N3170 X-0.004 Y0.078
N3180 X-0.0157 Y0.0766
N3190 G03 X-0.0504 Y0.0558 I0.0062 J-0.0496
N3200 G01 X-0.0695 Y0.0286
N3210 G03 X-0.0689 Y-0.0298 I0.0409 J-0.0288
N3220 G01 X-0.0489 Y-0.0569
N3230 G03 X0.0071 Y-0.0747 I0.0402 J0.0296
N3240 G01 X0.039 Y-0.0641
N3250 G03 X0.0733 Y-0.0164 I-0.0158 J0.0474
N3260 G01 X0.073 Y0.0173
N3270 X0.0631 Y0.0469
N3280 X0.0531 Y0.077
N3290 X0.0533 Y0.117
N3300 X0.0544 Y0.3452 F76.4
N3310 X0.0554 Y0.5733
N3320 X0.0556 Y0.6133 F61.1
N3330 G03 X0.0051 Y0.6635 I-0.05 J0.0002
N3340 G01 X-0.0349 Y0.6631
N3350 X-0.0709 Y0.6627 F76.4
N3360 X-0.0779 Y0.6621
N3370 X-0.1114 Y0.6567
N3380 X-0.2094 Y0.631
N3390 X-0.2868 Y0.5998
N3400 X-0.3597 Y0.5592
N3410 X-0.4269 Y0.5097
N3420 X-0.4875 Y0.4522
N3430 X-0.5403 Y0.3875
N3440 X-0.5846 Y0.3167
N3450 X-0.6197 Y0.241
N3460 X-0.645 Y0.1614
N3470 X-0.6601 Y0.0793
N3480 X-0.6649 Y-0.0041
N3490 X-0.6591 Y-0.0874
N3500 X-0.643 Y-0.1693
N3510 X-0.6167 Y-0.2485
N3520 X-0.5807 Y-0.3239
N3530 X-0.5355 Y-0.3941
N3540 X-0.4819 Y-0.4581
N3550 X-0.4207 Y-0.5149
N3560 X-0.3528 Y-0.5635
N3570 X-0.2794 Y-0.6033
N3580 X-0.2016 Y-0.6336
N3590 X-0.1206 Y-0.6538
N3600 X-0.0377 Y-0.6638
N3610 X0.0458 Y-0.6633
N3620 X0.1286 Y-0.6523
N3630 X0.2093 Y-0.6311
N3640 X0.2868 Y-0.5998
N3650 X0.3597 Y-0.5592
N3660 X0.4269 Y-0.5097
N3670 X0.4875 Y-0.4522
N3680 X0.5403 Y-0.3875
N3690 X0.5846 Y-0.3167
N3700 X0.6197 Y-0.241
N3710 X0.645 Y-0.1614
N3720 X0.6601 Y-0.0793
N3730 X0.6649 Y0.0041
N3740 X0.6591 Y0.0874
N3750 X0.643 Y0.1693
N3760 X0.6167 Y0.2485
N3770 X0.5807 Y0.3239
N3780 X0.5355 Y0.3941
N3790 X0.4819 Y0.4581
N3800 X0.4519 Y0.4859
N3810 X0.4411 Y0.5003
N3820 X0.2469 Y0.8932
N3830 X0.0704 Y1.2503
N3840 X0.0527 Y1.2861 F61.1
N3850 G03 X0.008 Y1.3139 I-0.0448 J-0.0221
N3860 G01 X-0.032 Y1.314
N3870 X-0.0887 Y1.3142 F76.4
N3880 X-0.1549 Y1.3078
N3890 X-0.1573 Y1.3075
N3900 X-0.237 Y1.2955
N3910 X-0.4056 Y1.2524
N3920 X-0.5594 Y1.1917
N3930 X-0.7043 Y1.1122
N3940 X-0.8382 Y1.0151
N3950 X-0.9588 Y0.9021
N3960 X-1.0643 Y0.7748
N3970 X-1.153 Y0.6353
N3980 X-1.2235 Y0.4858
N3990 X-1.2748 Y0.3286
N4000 X-1.3059 Y0.1662
N4010 X-1.3164 Y0.0012
N4020 X-1.3062 Y-0.1638
N4030 X-1.2754 Y-0.3262
N4040 X-1.2244 Y-0.4835
N4050 X-1.1542 Y-0.6331
N4060 X-1.0657 Y-0.7728
N4070 X-0.9605 Y-0.9003
N4080 X-0.8401 Y-1.0135
N4090 X-0.7064 Y-1.1108
N4100 X-0.5616 Y-1.1906
N4110 X-0.408 Y-1.2516
N4120 X-0.2479 Y-1.2929
N4130 X-0.0839 Y-1.3138
N4140 X0.0814 Y-1.3139
N4150 X0.2455 Y-1.2933
N4160 X0.4056 Y-1.2524
N4170 X0.5594 Y-1.1917
N4180 X0.7043 Y-1.1122
N4190 X0.8382 Y-1.0151
N4200 X0.9588 Y-0.9021
N4210 X1.0643 Y-0.7748
N4220 X1.153 Y-0.6353
N4230 X1.2235 Y-0.4858
N4240 X1.2748 Y-0.3286
N4250 X1.3059 Y-0.1662
N4260 X1.3164 Y-0.0012
N4270 X1.3062 Y0.1638
N4280 X1.2754 Y0.3262
N4290 X1.2244 Y0.4835
N4300 X1.1542 Y0.6331
N4310 X1.0657 Y0.7728
N4320 X0.9605 Y0.9003
N4330 X0.8401 Y1.0135
N4340 X0.7232 Y1.0986
N4350 X0.7134 Y1.108
N4360 X0.3816 Y1.5266
N4370 X0.0747 Y1.9138
N4380 X0.0499 Y1.9452 F61.1
N4390 G03 X0.0109 Y1.9641 I-0.0392 J-0.0311
N4400 G01 X-0.0291 Y1.9643
N4410 X-0.1147 Y1.9647 F76.4
N4420 X-0.2342 Y1.9532
N4430 X-0.36 Y1.9348
N4440 X-0.5997 Y1.8744
N4450 X-0.8299 Y1.7845
N4460 X-1.047 Y1.6664
N4470 X-1.2476 Y1.522
N4480 X-1.4285 Y1.3537
N4490 X-1.5869 Y1.164
N4500 X-1.7203 Y0.9559
N4510 X-1.8265 Y0.7327
N4520 X-1.9039 Y0.498
N4530 X-1.9514 Y0.2555
N4540 X-1.968 Y0.0089
N4550 X-1.9536 Y-0.2378
N4560 X-1.9084 Y-0.4808
N4570 X-1.8331 Y-0.7162
N4580 X-1.7288 Y-0.9403
N4590 X-1.5974 Y-1.1496
N4600 X-1.4407 Y-1.3407
N4610 X-1.2613 Y-1.5107
N4620 X-1.062 Y-1.6569
N4630 X-0.846 Y-1.7769
N4640 X-0.6166 Y-1.8689
N4650 X-0.3775 Y-1.9315
N4660 X-0.1325 Y-1.9635
N4670 X0.1147 Y-1.9647
N4680 X0.36 Y-1.9348
N4690 X0.5997 Y-1.8744
N4700 X0.8299 Y-1.7845
N4710 X1.047 Y-1.6664
N4720 X1.2476 Y-1.522
N4730 X1.4285 Y-1.3537
N4740 X1.5869 Y-1.164
N4750 X1.7203 Y-0.9559
N4760 X1.8265 Y-0.7327
N4770 X1.9039 Y-0.498
N4780 X1.9514 Y-0.2555
N4790 X1.968 Y-0.0089
N4800 X1.9536 Y0.2378
N4810 X1.9084 Y0.4808
N4820 X1.8331 Y0.7162
N4830 X1.7288 Y0.9403
N4840 X1.5974 Y1.1496
N4850 X1.4407 Y1.3407
N4860 X1.2613 Y1.5107
N4870 X1.062 Y1.6569
N4880 X0.846 Y1.7769
N4890 X0.6166 Y1.8689
N4900 X0.3775 Y1.9315
N4910 X0.1325 Y1.9635
N4920 X0.0109 Y1.9641
N4930 X-0.0245 Y1.9496 Z-0.0986
N4940 X-0.0393 Y1.9143 Z-0.0973
N4950 Z-0.0873 F76.4
N4960 G00 Z0.5
N4970 G00 X-0.5588 Y-0.3578
N4980 G00 Z-0.0861
N4990 G01 Z-0.0961 F76.4
N5000 X-0.5807 Y-0.3239 Z-0.0974
N5010 X-0.6167 Y-0.2485 Z-0.1001
N5020 X-0.643 Y-0.1693 Z-0.1027
N5030 X-0.6591 Y-0.0874 Z-0.1054
N5040 X-0.6649 Y-0.0041 Z-0.1081
N5050 X-0.6601 Y0.0793 Z-0.1108
N5060 X-0.645 Y0.1614 Z-0.1135
N5070 X-0.6197 Y0.241 Z-0.1162
N5080 X-0.5882 Y0.3089 Z-0.1186
N5090 X-0.5846 Y0.3167 Z-0.1187
N5100 X-0.5403 Y0.3875 Z-0.1197
N5110 X-0.4875 Y0.4522 Z-0.1208
N5120 X-0.4269 Y0.5097 Z-0.1219
N5130 X-0.3597 Y0.5592 Z-0.1229
N5140 X-0.2868 Y0.5998 Z-0.124
N5150 X-0.2094 Y0.631 Z-0.1251
N5160 X-0.1114 Y0.6567 Z-0.1263
N5170 X-0.0779 Y0.6621 Z-0.1268
N5180 X-0.0709 Y0.6627 Z-0.1269
N5190 X-0.0349 Y0.6631 Z-0.1273
N5200 X0.0051 Y0.6635 Z-0.1278
N5210 X0.0408 Y0.649 Z-0.1283
N5220 X0.0556 Y0.6133 Z-0.1288
N5230 X0.0554 Y0.5733 Z-0.1293
N5240 X0.0544 Y0.3452 Z-0.1322
N5250 X0.0533 Y0.117 Z-0.1351
N5260 X0.0531 Y0.077 Z-0.1356
N5270 X0.0557 Y0.0612 Z-0.1358
N5280 X0.0631 Y0.0469 Z-0.136
N5290 X0.0704 Y0.0329 Z-0.1362
N5300 X0.073 Y0.0173 Z-0.1364
N5310 X0.0733 Y-0.0164 Z-0.1369
N5320 X0.0639 Y-0.0458 Z-0.1373
N5330 X0.039 Y-0.0641 Z-0.1377
N5340 X0.0071 Y-0.0747 Z-0.1381
N5350 X-0.0238 Y-0.0749 Z-0.1385
N5360 X-0.0489 Y-0.0569 Z-0.1389
N5370 X-0.0689 Y-0.0298 Z-0.1393
N5380 X-0.0786 Y-0.0007 Z-0.1397
N5390 X-0.0695 Y0.0286 Z-0.1401
N5400 X-0.0504 Y0.0558 Z-0.1405
N5410 X-0.0352 Y0.0698 Z-0.1408
N5420 X-0.0157 Y0.0766 Z-0.141
N5430 X-0.004 Y0.078 Z-0.1412
N5440 X0.0117 Y0.0775 Z-0.1414
N5450 X0.0264 Y0.0722 Z-0.1416
N5460 X0.0472 Y0.0607 Z-0.1419
N5470 X0.0559 Y0.0547 Z-0.142
N5480 X0.0631 Y0.0469 Z-0.1421
N5490 X0.0946 Y0.0276 Z-0.1426
N5500 X0.1307 Y0.0352 Z-0.1431
N5510 X0.1518 Y0.0655 Z-0.1436
N5520 X0.1609 Y0.1045 Z-0.1441
N5530 X0.2668 Y0.5594 Z-0.15
N5540 X0.1609 Y0.1045 F76.4
N5550 X0.1518 Y0.0655 F61.1
N5560 G02 X0.0631 Y0.0469 I-0.0487 J0.0113
N5570 G01 X0.0472 Y0.0607
N5580 X0.0264 Y0.0722
N5590 X-0.004 Y0.078
N5600 X-0.0157 Y0.0766
N5610 G03 X-0.0504 Y0.0558 I0.0062 J-0.0496
N5620 G01 X-0.0695 Y0.0286
N5630 G03 X-0.0689 Y-0.0298 I0.0409 J-0.0288
N5640 G01 X-0.0489 Y-0.0569
N5650 G03 X0.0071 Y-0.0747 I0.0402 J0.0296
N5660 G01 X0.039 Y-0.0641
N5670 G03 X0.0733 Y-0.0164 I-0.0158 J0.0474
N5680 G01 X0.073 Y0.0173
N5690 X0.0631 Y0.0469
N5700 X0.0531 Y0.077
N5710 X0.0533 Y0.117
N5720 X0.0544 Y0.3452 F76.4
N5730 X0.0554 Y0.5733
N5740 X0.0556 Y0.6133 F61.1
N5750 G03 X0.0051 Y0.6635 I-0.05 J0.0002
N5760 G01 X-0.0349 Y0.6631
N5770 X-0.0709 Y0.6627 F76.4
N5780 X-0.0779 Y0.6621
N5790 X-0.1114 Y0.6567
N5800 X-0.2094 Y0.631
N5810 X-0.2868 Y0.5998
N5820 X-0.3597 Y0.5592
N5830 X-0.4269 Y0.5097
N5840 X-0.4875 Y0.4522
N5850 X-0.5403 Y0.3875
N5860 X-0.5846 Y0.3167
N5870 X-0.6197 Y0.241
N5880 X-0.645 Y0.1614
N5890 X-0.6601 Y0.0793
N5900 X-0.6649 Y-0.0041
N5910 X-0.6591 Y-0.0874
N5920 X-0.643 Y-0.1693
N5930 X-0.6167 Y-0.2485
N5940 X-0.5807 Y-0.3239
N5950 X-0.5355 Y-0.3941
N5960 X-0.4819 Y-0.4581
N5970 X-0.4207 Y-0.5149
N5980 X-0.3528 Y-0.5635
N5990 X-0.2794 Y-0.6033
N6000 X-0.2016 Y-0.6336
N6010 X-0.1206 Y-0.6538
N6020 X-0.0377 Y-0.6638
N6030 X0.0458 Y-0.6633
N6040 X0.1286 Y-0.6523
N6050 X0.2093 Y-0.6311
N6060 X0.2868 Y-0.5998
N6070 X0.3597 Y-0.5592
N6080 X0.4269 Y-0.5097
N6090 X0.4875 Y-0.4522
N6100 X0.5403 Y-0.3875
N6110 X0.5846 Y-0.3167
N6120 X0.6197 Y-0.241
N6130 X0.645 Y-0.1614
N6140 X0.6601 Y-0.0793
N6150 X0.6649 Y0.0041
N6160 X0.6591 Y0.0874
N6170 X0.643 Y0.1693
N6180 X0.6167 Y0.2485
N6190 X0.5807 Y0.3239
N6200 X0.5355 Y0.3941
N6210 X0.4819 Y0.4581
N6220 X0.4519 Y0.4859
N6230 X0.4411 Y0.5003
N6240 X0.2469 Y0.8932
N6250 X0.0704 Y1.2503
N6260 X0.0527 Y1.2861 F61.1
N6270 G03 X0.008 Y1.3139 I-0.0448 J-0.0221
N6280 G01 X-0.032 Y1.314
N6290 X-0.0887 Y1.3142 F76.4
N6300 X-0.1549 Y1.3078
N6310 X-0.1573 Y1.3075
N6320 X-0.237 Y1.2955
N6330 X-0.4056 Y1.2524
N6340 X-0.5594 Y1.1917
N6350 X-0.7043 Y1.1122
N6360 X-0.8382 Y1.0151
N6370 X-0.9588 Y0.9021
N6380 X-1.0643 Y0.7748
N6390 X-1.153 Y0.6353
N6400 X-1.2235 Y0.4858
N6410 X-1.2748 Y0.3286
N6420 X-1.3059 Y0.1662
N6430 X-1.3164 Y0.0012
N6440 X-1.3062 Y-0.1638
N6450 X-1.2754 Y-0.3262
N6460 X-1.2244 Y-0.4835
N6470 X-1.1542 Y-0.6331
N6480 X-1.0657 Y-0.7728
N6490 X-0.9605 Y-0.9003
N6500 X-0.8401 Y-1.0135
N6510 X-0.7064 Y-1.1108
N6520 X-0.5616 Y-1.1906
N6530 X-0.408 Y-1.2516
N6540 X-0.2479 Y-1.2929
N6550 X-0.0839 Y-1.3138
N6560 X0.0814 Y-1.3139
N6570 X0.2455 Y-1.2933
N6580 X0.4056 Y-1.2524
N6590 X0.5594 Y-1.1917
N6600 X0.7043 Y-1.1122
N6610 X0.8382 Y-1.0151
N6620 X0.9588 Y-0.9021
N6630 X1.0643 Y-0.7748
N6640 X1.153 Y-0.6353
N6650 X1.2235 Y-0.4858
N6660 X1.2748 Y-0.3286
N6670 X1.3059 Y-0.1662
N6680 X1.3164 Y-0.0012
N6690 X1.3062 Y0.1638
N6700 X1.2754 Y0.3262
N6710 X1.2244 Y0.4835
N6720 X1.1542 Y0.6331
N6730 X1.0657 Y0.7728
N6740 X0.9605 Y0.9003
N6750 X0.8401 Y1.0135
N6760 X0.7232 Y1.0986
N6770 X0.7134 Y1.108
N6780 X0.3816 Y1.5266
N6790 X0.0747 Y1.9138
N6800 X0.0499 Y1.9452 F61.1
N6810 G03 X0.0109 Y1.9641 I-0.0392 J-0.0311
N6820 G01 X-0.0291 Y1.9643
N6830 X-0.1147 Y1.9647 F76.4
N6840 X-0.2342 Y1.9532
N6850 X-0.36 Y1.9348
N6860 X-0.5997 Y1.8744
N6870 X-0.8299 Y1.7845
N6880 X-1.047 Y1.6664
N6890 X-1.2476 Y1.522
N6900 X-1.4285 Y1.3537
N6910 X-1.5869 Y1.164
N6920 X-1.7203 Y0.9559
N6930 X-1.8265 Y0.7327
N6940 X-1.9039 Y0.498
N6950 X-1.9514 Y0.2555
N6960 X-1.968 Y0.0089
N6970 X-1.9536 Y-0.2378
N6980 X-1.9084 Y-0.4808
N6990 X-1.8331 Y-0.7162
N7000 X-1.7288 Y-0.9403
N7010 X-1.5974 Y-1.1496
N7020 X-1.4407 Y-1.3407
N7030 X-1.2613 Y-1.5107
N7040 X-1.062 Y-1.6569
N7050 X-0.846 Y-1.7769
N7060 X-0.6166 Y-1.8689
N7070 X-0.3775 Y-1.9315
N7080 X-0.1325 Y-1.9635
N7090 X0.1147 Y-1.9647
N7100 X0.36 Y-1.9348
N7110 X0.5997 Y-1.8744
N7120 X0.8299 Y-1.7845
N7130 X1.047 Y-1.6664
N7140 X1.2476 Y-1.522
N7150 X1.4285 Y-1.3537
N7160 X1.5869 Y-1.164
N7170 X1.7203 Y-0.9559
N7180 X1.8265 Y-0.7327
N7190 X1.9039 Y-0.498
N7200 X1.9514 Y-0.2555
N7210 X1.968 Y-0.0089
N7220 X1.9536 Y0.2378
N7230 X1.9084 Y0.4808
N7240 X1.8331 Y0.7162
N7250 X1.7288 Y0.9403
N7260 X1.5974 Y1.1496
N7270 X1.4407 Y1.3407
N7280 X1.2613 Y1.5107
N7290 X1.062 Y1.6569
N7300 X0.846 Y1.7769
N7310 X0.6166 Y1.8689
N7320 X0.3775 Y1.9315
N7330 X0.1325 Y1.9635
N7340 X0.0109 Y1.9641
N7350 X-0.0245 Y1.9496 Z-0.1486
N7360 X-0.0393 Y1.9143 Z-0.1473
N7370 Z-0.1373 F76.4
N7380 G00 Z0.5
N7390 G00 X-0.5588 Y-0.3578
N7400 G00 Z-0.1361
N7410 G01 Z-0.1461 F76.4
N7420 X-0.5807 Y-0.3239 Z-0.1474
N7430 X-0.6167 Y-0.2485 Z-0.1501
N7440 X-0.643 Y-0.1693 Z-0.1527
N7450 X-0.6591 Y-0.0874 Z-0.1554
N7460 X-0.6649 Y-0.0041 Z-0.1581
N7470 X-0.6601 Y0.0793 Z-0.1608
N7480 X-0.645 Y0.1614 Z-0.1635
N7490 X-0.6197 Y0.241 Z-0.1662
N7500 X-0.5882 Y0.3089 Z-0.1686
N7510 X-0.5846 Y0.3167 Z-0.1687
N7520 X-0.5403 Y0.3875 Z-0.1697
N7530 X-0.4875 Y0.4522 Z-0.1708
N7540 X-0.4269 Y0.5097 Z-0.1719
N7550 X-0.3597 Y0.5592 Z-0.1729
N7560 X-0.2868 Y0.5998 Z-0.174
N7570 X-0.2094 Y0.631 Z-0.1751
N7580 X-0.1114 Y0.6567 Z-0.1763
N7590 X-0.0779 Y0.6621 Z-0.1768
N7600 X-0.0709 Y0.6627 Z-0.1769
N7610 X-0.0349 Y0.6631 Z-0.1773
N7620 X0.0051 Y0.6635 Z-0.1778
N7630 X0.0408 Y0.649 Z-0.1783
N7640 X0.0556 Y0.6133 Z-0.1788
N7650 X0.0554 Y0.5733 Z-0.1793
N7660 X0.0544 Y0.3452 Z-0.1822
N7670 X0.0533 Y0.117 Z-0.1851
N7680 X0.0531 Y0.077 Z-0.1856
N7690 X0.0557 Y0.0612 Z-0.1858
N7700 X0.0631 Y0.0469 Z-0.186
N7710 X0.0704 Y0.0329 Z-0.1862
N7720 X0.073 Y0.0173 Z-0.1864
N7730 X0.0733 Y-0.0164 Z-0.1869
N7740 X0.0639 Y-0.0458 Z-0.1873
N7750 X0.039 Y-0.0641 Z-0.1877
N7760 X0.0071 Y-0.0747 Z-0.1881
N7770 X-0.0238 Y-0.0749 Z-0.1885
N7780 X-0.0489 Y-0.0569 Z-0.1889
N7790 X-0.0689 Y-0.0298 Z-0.1893
N7800 X-0.0786 Y-0.0007 Z-0.1897
N7810 X-0.0695 Y0.0286 Z-0.1901
N7820 X-0.0504 Y0.0558 Z-0.1905
N7830 X-0.0352 Y0.0698 Z-0.1908
N7840 X-0.0157 Y0.0766 Z-0.191
N7850 X-0.004 Y0.078 Z-0.1912
N7860 X0.0117 Y0.0775 Z-0.1914
N7870 X0.0264 Y0.0722 Z-0.1916
N7880 X0.0472 Y0.0607 Z-0.1919
N7890 X0.0559 Y0.0547 Z-0.192
N7900 X0.0631 Y0.0469 Z-0.1921
N7910 X0.0946 Y0.0276 Z-0.1926
N7920 X0.1307 Y0.0352 Z-0.1931
N7930 X0.1518 Y0.0655 Z-0.1936
N7940 X0.1609 Y0.1045 Z-0.1941
N7950 X0.2668 Y0.5594 Z-0.2
N7960 X0.1609 Y0.1045 F76.4
N7970 X0.1518 Y0.0655 F61.1
N7980 G02 X0.0631 Y0.0469 I-0.0487 J0.0113
N7990 G01 X0.0472 Y0.0607
N8000 X0.0264 Y0.0722
N8010 X-0.004 Y0.078
N8020 X-0.0157 Y0.0766
N8030 G03 X-0.0504 Y0.0558 I0.0062 J-0.0496
N8040 G01 X-0.0695 Y0.0286
N8050 G03 X-0.0689 Y-0.0298 I0.0409 J-0.0288
N8060 G01 X-0.0489 Y-0.0569
N8070 G03 X0.0071 Y-0.0747 I0.0402 J0.0296
N8080 G01 X0.039 Y-0.0641
N8090 G03 X0.0733 Y-0.0164 I-0.0158 J0.0474
N8100 G01 X0.073 Y0.0173
N8110 X0.0631 Y0.0469
N8120 X0.0531 Y0.077
N8130 X0.0533 Y0.117
N8140 X0.0544 Y0.3452 F76.4
N8150 X0.0554 Y0.5733
N8160 X0.0556 Y0.6133 F61.1
N8170 G03 X0.0051 Y0.6635 I-0.05 J0.0002
N8180 G01 X-0.0349 Y0.6631
N8190 X-0.0709 Y0.6627 F76.4
N8200 X-0.0779 Y0.6621
N8210 X-0.1114 Y0.6567
N8220 X-0.2094 Y0.631
N8230 X-0.2868 Y0.5998
N8240 X-0.3597 Y0.5592
N8250 X-0.4269 Y0.5097
N8260 X-0.4875 Y0.4522
N8270 X-0.5403 Y0.3875
N8280 X-0.5846 Y0.3167
N8290 X-0.6197 Y0.241
N8300 X-0.645 Y0.1614
N8310 X-0.6601 Y0.0793
N8320 X-0.6649 Y-0.0041
N8330 X-0.6591 Y-0.0874
N8340 X-0.643 Y-0.1693
N8350 X-0.6167 Y-0.2485
N8360 X-0.5807 Y-0.3239
N8370 X-0.5355 Y-0.3941
N8380 X-0.4819 Y-0.4581
N8390 X-0.4207 Y-0.5149
N8400 X-0.3528 Y-0.5635
N8410 X-0.2794 Y-0.6033
N8420 X-0.2016 Y-0.6336
N8430 X-0.1206 Y-0.6538
N8440 X-0.0377 Y-0.6638
N8450 X0.0458 Y-0.6633
N8460 X0.1286 Y-0.6523
N8470 X0.2093 Y-0.6311
N8480 X0.2868 Y-0.5998
N8490 X0.3597 Y-0.5592
N8500 X0.4269 Y-0.5097
N8510 X0.4875 Y-0.4522
N8520 X0.5403 Y-0.3875
N8530 X0.5846 Y-0.3167
N8540 X0.6197 Y-0.241
N8550 X0.645 Y-0.1614
N8560 X0.6601 Y-0.0793
N8570 X0.6649 Y0.0041
N8580 X0.6591 Y0.0874
N8590 X0.643 Y0.1693
N8600 X0.6167 Y0.2485
N8610 X0.5807 Y0.3239
N8620 X0.5355 Y0.3941
N8630 X0.4819 Y0.4581
N8640 X0.4519 Y0.4859
N8650 X0.4411 Y0.5003
N8660 X0.2469 Y0.8932
N8670 X0.0704 Y1.2503
N8680 X0.0527 Y1.2861 F61.1
N8690 G03 X0.008 Y1.3139 I-0.0448 J-0.0221
N8700 G01 X-0.032 Y1.314
N8710 X-0.0887 Y1.3142 F76.4
N8720 X-0.1549 Y1.3078
N8730 X-0.1573 Y1.3075
N8740 X-0.237 Y1.2955
N8750 X-0.4056 Y1.2524
N8760 X-0.5594 Y1.1917
N8770 X-0.7043 Y1.1122
N8780 X-0.8382 Y1.0151
N8790 X-0.9588 Y0.9021
N8800 X-1.0643 Y0.7748
N8810 X-1.153 Y0.6353
N8820 X-1.2235 Y0.4858
N8830 X-1.2748 Y0.3286
N8840 X-1.3059 Y0.1662
N8850 X-1.3164 Y0.0012
N8860 X-1.3062 Y-0.1638
N8870 X-1.2754 Y-0.3262
N8880 X-1.2244 Y-0.4835
N8890 X-1.1542 Y-0.6331
N8900 X-1.0657 Y-0.7728
N8910 X-0.9605 Y-0.9003
N8920 X-0.8401 Y-1.0135
N8930 X-0.7064 Y-1.1108
N8940 X-0.5616 Y-1.1906
N8950 X-0.408 Y-1.2516
N8960 X-0.2479 Y-1.2929
N8970 X-0.0839 Y-1.3138
N8980 X0.0814 Y-1.3139
N8990 X0.2455 Y-1.2933
N9000 X0.4056 Y-1.2524
N9010 X0.5594 Y-1.1917
N9020 X0.7043 Y-1.1122
N9030 X0.8382 Y-1.0151
N9040 X0.9588 Y-0.9021
N9050 X1.0643 Y-0.7748
N9060 X1.153 Y-0.6353
N9070 X1.2235 Y-0.4858
N9080 X1.2748 Y-0.3286
N9090 X1.3059 Y-0.1662
N9100 X1.3164 Y-0.0012
N9110 X1.3062 Y0.1638
N9120 X1.2754 Y0.3262
N9130 X1.2244 Y0.4835
N9140 X1.1542 Y0.6331
N9150 X1.0657 Y0.7728
N9160 X0.9605 Y0.9003
N9170 X0.8401 Y1.0135
N9180 X0.7232 Y1.0986
N9190 X0.7134 Y1.108
N9200 X0.3816 Y1.5266
N9210 X0.0747 Y1.9138
N9220 X0.0499 Y1.9452 F61.1
N9230 G03 X0.0109 Y1.9641 I-0.0392 J-0.0311
N9240 G01 X-0.0291 Y1.9643
N9250 X-0.1147 Y1.9647 F76.4
N9260 X-0.2342 Y1.9532
N9270 X-0.36 Y1.9348
N9280 X-0.5997 Y1.8744
N9290 X-0.8299 Y1.7845
N9300 X-1.047 Y1.6664
N9310 X-1.2476 Y1.522
N9320 X-1.4285 Y1.3537
N9330 X-1.5869 Y1.164
N9340 X-1.7203 Y0.9559
N9350 X-1.8265 Y0.7327
N9360 X-1.9039 Y0.498
N9370 X-1.9514 Y0.2555
N9380 X-1.968 Y0.0089
N9390 X-1.9536 Y-0.2378
N9400 X-1.9084 Y-0.4808
N9410 X-1.8331 Y-0.7162
N9420 X-1.7288 Y-0.9403
N9430 X-1.5974 Y-1.1496
N9440 X-1.4407 Y-1.3407
N9450 X-1.2613 Y-1.5107
N9460 X-1.062 Y-1.6569
N9470 X-0.846 Y-1.7769
N9480 X-0.6166 Y-1.8689
N9490 X-0.3775 Y-1.9315
N9500 X-0.1325 Y-1.9635
N9510 X0.1147 Y-1.9647
N9520 X0.36 Y-1.9348
N9530 X0.5997 Y-1.8744
N9540 X0.8299 Y-1.7845
N9550 X1.047 Y-1.6664
N9560 X1.2476 Y-1.522
N9570 X1.4285 Y-1.3537
N9580 X1.5869 Y-1.164
N9590 X1.7203 Y-0.9559
N9600 X1.8265 Y-0.7327
N9610 X1.9039 Y-0.498
N9620 X1.9514 Y-0.2555
N9630 X1.968 Y-0.0089
N9640 X1.9536 Y0.2378
N9650 X1.9084 Y0.4808
N9660 X1.8331 Y0.7162
N9670 X1.7288 Y0.9403
N9680 X1.5974 Y1.1496
N9690 X1.4407 Y1.3407
N9700 X1.2613 Y1.5107
N9710 X1.062 Y1.6569
N9720 X0.846 Y1.7769
N9730 X0.6166 Y1.8689
N9740 X0.3775 Y1.9315
N9750 X0.1325 Y1.9635
N9760 X0.0109 Y1.9641
N9770 X-0.0245 Y1.9496 Z-0.1986
N9780 X-0.0393 Y1.9143 Z-0.1973
N9790 Z-0.1873 F76.4
N9800 G00 Z0.5
N9810 G00 X-0.5588 Y-0.3578
N9820 G00 Z-0.1861
N9830 G01 Z-0.1961 F76.4
N9840 X-0.5807 Y-0.3239 Z-0.1974
N9850 X-0.6167 Y-0.2485 Z-0.2001
N9860 X-0.643 Y-0.1693 Z-0.2027
N9870 X-0.6591 Y-0.0874 Z-0.2054
N9880 X-0.6649 Y-0.0041 Z-0.2081
N9890 X-0.6601 Y0.0793 Z-0.2108
N9900 X-0.645 Y0.1614 Z-0.2135
N9910 X-0.6197 Y0.241 Z-0.2162
N9920 X-0.5882 Y0.3089 Z-0.2186
N9930 X-0.5846 Y0.3167 Z-0.2187
N9940 X-0.5403 Y0.3875 Z-0.2197
N9950 X-0.4875 Y0.4522 Z-0.2208
N9960 X-0.4269 Y0.5097 Z-0.2219
N9970 X-0.3597 Y0.5592 Z-0.2229
N9980 X-0.2868 Y0.5998 Z-0.224
N9990 X-0.2094 Y0.631 Z-0.2251
N10000 X-0.1114 Y0.6567 Z-0.2263
N10010 X-0.0779 Y0.6621 Z-0.2268
N10020 X-0.0709 Y0.6627 Z-0.2269
N10030 X-0.0349 Y0.6631 Z-0.2273
N10040 X0.0051 Y0.6635 Z-0.2278
N10050 X0.0408 Y0.649 Z-0.2283
N10060 X0.0556 Y0.6133 Z-0.2288
N10070 X0.0554 Y0.5733 Z-0.2293
N10080 X0.0544 Y0.3452 Z-0.2322
N10090 X0.0533 Y0.117 Z-0.2351
N10100 X0.0531 Y0.077 Z-0.2356
N10110 X0.0557 Y0.0612 Z-0.2358
N10120 X0.0631 Y0.0469 Z-0.236
N10130 X0.0704 Y0.0329 Z-0.2362
N10140 X0.073 Y0.0173 Z-0.2364
N10150 X0.0733 Y-0.0164 Z-0.2369
N10160 X0.0639 Y-0.0458 Z-0.2373
N10170 X0.039 Y-0.0641 Z-0.2377
N10180 X0.0071 Y-0.0747 Z-0.2381
N10190 X-0.0238 Y-0.0749 Z-0.2385
N10200 X-0.0489 Y-0.0569 Z-0.2389
N10210 X-0.0689 Y-0.0298 Z-0.2393
N10220 X-0.0786 Y-0.0007 Z-0.2397
N10230 X-0.0695 Y0.0286 Z-0.2401
N10240 X-0.0504 Y0.0558 Z-0.2405
N10250 X-0.0352 Y0.0698 Z-0.2408
N10260 X-0.0157 Y0.0766 Z-0.241
N10270 X-0.004 Y0.078 Z-0.2412
N10280 X0.0117 Y0.0775 Z-0.2414
N10290 X0.0264 Y0.0722 Z-0.2416
N10300 X0.0472 Y0.0607 Z-0.2419
N10310 X0.0559 Y0.0547 Z-0.242
N10320 X0.0631 Y0.0469 Z-0.2421
N10330 X0.0946 Y0.0276 Z-0.2426
N10340 X0.1307 Y0.0352 Z-0.2431
N10350 X0.1518 Y0.0655 Z-0.2436
N10360 X0.1609 Y0.1045 Z-0.2441
N10370 X0.2668 Y0.5594 Z-0.25
N10380 X0.1609 Y0.1045 F76.4
N10390 X0.1518 Y0.0655 F61.1
N10400 G02 X0.0631 Y0.0469 I-0.0487 J0.0113
N10410 G01 X0.0472 Y0.0607
N10420 X0.0264 Y0.0722
N10430 X-0.004 Y0.078
N10440 X-0.0157 Y0.0766
N10450 G03 X-0.0504 Y0.0558 I0.0062 J-0.0496
N10460 G01 X-0.0695 Y0.0286
N10470 G03 X-0.0689 Y-0.0298 I0.0409 J-0.0288
N10480 G01 X-0.0489 Y-0.0569
N10490 G03 X0.0071 Y-0.0747 I0.0402 J0.0296
N10500 G01 X0.039 Y-0.0641
N10510 G03 X0.0733 Y-0.0164 I-0.0158 J0.0474
N10520 G01 X0.073 Y0.0173
N10530 X0.0631 Y0.0469
N10540 X0.0531 Y0.077
N10550 X0.0533 Y0.117
N10560 X0.0544 Y0.3452 F76.4
N10570 X0.0554 Y0.5733
N10580 X0.0556 Y0.6133 F61.1
N10590 G03 X0.0051 Y0.6635 I-0.05 J0.0002
N10600 G01 X-0.0349 Y0.6631
N10610 X-0.0709 Y0.6627 F76.4
N10620 X-0.0779 Y0.6621
N10630 X-0.1114 Y0.6567
N10640 X-0.2094 Y0.631
N10650 X-0.2868 Y0.5998
N10660 X-0.3597 Y0.5592
N10670 X-0.4269 Y0.5097
N10680 X-0.4875 Y0.4522
N10690 X-0.5403 Y0.3875
N10700 X-0.5846 Y0.3167
N10710 X-0.6197 Y0.241
N10720 X-0.645 Y0.1614
N10730 X-0.6601 Y0.0793
N10740 X-0.6649 Y-0.0041
N10750 X-0.6591 Y-0.0874
N10760 X-0.643 Y-0.1693
N10770 X-0.6167 Y-0.2485
N10780 X-0.5807 Y-0.3239
N10790 X-0.5355 Y-0.3941
N10800 X-0.4819 Y-0.4581
N10810 X-0.4207 Y-0.5149
N10820 X-0.3528 Y-0.5635
N10830 X-0.2794 Y-0.6033
N10840 X-0.2016 Y-0.6336
N10850 X-0.1206 Y-0.6538
N10860 X-0.0377 Y-0.6638
N10870 X0.0458 Y-0.6633
N10880 X0.1286 Y-0.6523
N10890 X0.2093 Y-0.6311
N10900 X0.2868 Y-0.5998
N10910 X0.3597 Y-0.5592
N10920 X0.4269 Y-0.5097
N10930 X0.4875 Y-0.4522
N10940 X0.5403 Y-0.3875
N10950 X0.5846 Y-0.3167
N10960 X0.6197 Y-0.241
N10970 X0.645 Y-0.1614
N10980 X0.6601 Y-0.0793
N10990 X0.6649 Y0.0041
N11000 X0.6591 Y0.0874
N11010 X0.643 Y0.1693
N11020 X0.6167 Y0.2485
N11030 X0.5807 Y0.3239
N11040 X0.5355 Y0.3941
N11050 X0.4819 Y0.4581
N11060 X0.4519 Y0.4859
N11070 X0.4411 Y0.5003
N11080 X0.2469 Y0.8932
N11090 X0.0704 Y1.2503
N11100 X0.0527 Y1.2861 F61.1
N11110 G03 X0.008 Y1.3139 I-0.0448 J-0.0221
N11120 G01 X-0.032 Y1.314
N11130 X-0.0887 Y1.3142 F76.4
N11140 X-0.1549 Y1.3078
N11150 X-0.1573 Y1.3075
N11160 X-0.237 Y1.2955
N11170 X-0.4056 Y1.2524
N11180 X-0.5594 Y1.1917
N11190 X-0.7043 Y1.1122
N11200 X-0.8382 Y1.0151
N11210 X-0.9588 Y0.9021
N11220 X-1.0643 Y0.7748
N11230 X-1.153 Y0.6353
N11240 X-1.2235 Y0.4858
N11250 X-1.2748 Y0.3286
N11260 X-1.3059 Y0.1662
N11270 X-1.3164 Y0.0012
N11280 X-1.3062 Y-0.1638
N11290 X-1.2754 Y-0.3262
N11300 X-1.2244 Y-0.4835
N11310 X-1.1542 Y-0.6331
N11320 X-1.0657 Y-0.7728
N11330 X-0.9605 Y-0.9003
N11340 X-0.8401 Y-1.0135
N11350 X-0.7064 Y-1.1108
N11360 X-0.5616 Y-1.1906
N11370 X-0.408 Y-1.2516
N11380 X-0.2479 Y-1.2929
N11390 X-0.0839 Y-1.3138
N11400 X0.0814 Y-1.3139
N11410 X0.2455 Y-1.2933
N11420 X0.4056 Y-1.2524
N11430 X0.5594 Y-1.1917
N11440 X0.7043 Y-1.1122
N11450 X0.8382 Y-1.0151
N11460 X0.9588 Y-0.9021
N11470 X1.0643 Y-0.7748
N11480 X1.153 Y-0.6353
N11490 X1.2235 Y-0.4858
N11500 X1.2748 Y-0.3286
N11510 X1.3059 Y-0.1662
N11520 X1.3164 Y-0.0012
N11530 X1.3062 Y0.1638
N11540 X1.2754 Y0.3262
N11550 X1.2244 Y0.4835
N11560 X1.1542 Y0.6331
N11570 X1.0657 Y0.7728
N11580 X0.9605 Y0.9003
N11590 X0.8401 Y1.0135
N11600 X0.7232 Y1.0986
N11610 X0.7134 Y1.108
N11620 X0.3816 Y1.5266
N11630 X0.0747 Y1.9138
N11640 X0.0499 Y1.9452 F61.1
N11650 G03 X0.0109 Y1.9641 I-0.0392 J-0.0311
N11660 G01 X-0.0291 Y1.9643
N11670 X-0.1147 Y1.9647 F76.4
N11680 X-0.2342 Y1.9532
N11690 X-0.36 Y1.9348
N11700 X-0.5997 Y1.8744
N11710 X-0.8299 Y1.7845
N11720 X-1.047 Y1.6664
N11730 X-1.2476 Y1.522
N11740 X-1.4285 Y1.3537
N11750 X-1.5869 Y1.164
N11760 X-1.7203 Y0.9559
N11770 X-1.8265 Y0.7327
N11780 X-1.9039 Y0.498
N11790 X-1.9514 Y0.2555
N11800 X-1.968 Y0.0089
N11810 X-1.9536 Y-0.2378
N11820 X-1.9084 Y-0.4808
N11830 X-1.8331 Y-0.7162
N11840 X-1.7288 Y-0.9403
N11850 X-1.5974 Y-1.1496
N11860 X-1.4407 Y-1.3407
N11870 X-1.2613 Y-1.5107
N11880 X-1.062 Y-1.6569
N11890 X-0.846 Y-1.7769
N11900 X-0.6166 Y-1.8689
N11910 X-0.3775 Y-1.9315
N11920 X-0.1325 Y-1.9635
N11930 X0.1147 Y-1.9647
N11940 X0.36 Y-1.9348
N11950 X0.5997 Y-1.8744
N11960 X0.8299 Y-1.7845
N11970 X1.047 Y-1.6664
N11980 X1.2476 Y-1.522
N11990 X1.4285 Y-1.3537
N12000 X1.5869 Y-1.164
N12010 X1.7203 Y-0.9559
N12020 X1.8265 Y-0.7327
N12030 X1.9039 Y-0.498
N12040 X1.9514 Y-0.2555
N12050 X1.968 Y-0.0089
N12060 X1.9536 Y0.2378
N12070 X1.9084 Y0.4808
N12080 X1.8331 Y0.7162
N12090 X1.7288 Y0.9403
N12100 X1.5974 Y1.1496
N12110 X1.4407 Y1.3407
N12120 X1.2613 Y1.5107
N12130 X1.062 Y1.6569
N12140 X0.846 Y1.7769
N12150 X0.6166 Y1.8689
N12160 X0.3775 Y1.9315
N12170 X0.1325 Y1.9635
N12180 X0.0109 Y1.9641
N12190 X-0.0245 Y1.9496 Z-0.2486
N12200 X-0.0393 Y1.9143 Z-0.2473
N12210 Z-0.2373 F76.4
N12220 G00 Z0.5
N12230 G00 X-0.5588 Y-0.3578
N12240 G00 Z-0.2361
N12250 G01 Z-0.2461 F76.4
N12260 X-0.5807 Y-0.3239 Z-0.2474
N12270 X-0.6167 Y-0.2485 Z-0.2501
N12280 X-0.643 Y-0.1693 Z-0.2527
N12290 X-0.6591 Y-0.0874 Z-0.2554
N12300 X-0.6649 Y-0.0041 Z-0.2581
N12310 X-0.6601 Y0.0793 Z-0.2608
N12320 X-0.645 Y0.1614 Z-0.2635
N12330 X-0.6197 Y0.241 Z-0.2662
N12340 X-0.5882 Y0.3089 Z-0.2686
N12350 X-0.5846 Y0.3167 Z-0.2687
N12360 X-0.5403 Y0.3875 Z-0.2697
N12370 X-0.4875 Y0.4522 Z-0.2708
N12380 X-0.4269 Y0.5097 Z-0.2719
N12390 X-0.3597 Y0.5592 Z-0.2729
N12400 X-0.2868 Y0.5998 Z-0.274
N12410 X-0.2094 Y0.631 Z-0.2751
N12420 X-0.1114 Y0.6567 Z-0.2763
N12430 X-0.0779 Y0.6621 Z-0.2768
N12440 X-0.0709 Y0.6627 Z-0.2769
N12450 X-0.0349 Y0.6631 Z-0.2773
N12460 X0.0051 Y0.6635 Z-0.2778
N12470 X0.0408 Y0.649 Z-0.2783
N12480 X0.0556 Y0.6133 Z-0.2788
N12490 X0.0554 Y0.5733 Z-0.2793
N12500 X0.0544 Y0.3452 Z-0.2822
N12510 X0.0533 Y0.117 Z-0.2851
N12520 X0.0531 Y0.077 Z-0.2856
N12530 X0.0557 Y0.0612 Z-0.2858
N12540 X0.0631 Y0.0469 Z-0.286
N12550 X0.0704 Y0.0329 Z-0.2862
N12560 X0.073 Y0.0173 Z-0.2864
N12570 X0.0733 Y-0.0164 Z-0.2869
N12580 X0.0639 Y-0.0458 Z-0.2873
N12590 X0.039 Y-0.0641 Z-0.2877
N12600 X0.0071 Y-0.0747 Z-0.2881
N12610 X-0.0238 Y-0.0749 Z-0.2885
N12620 X-0.0489 Y-0.0569 Z-0.2889
N12630 X-0.0689 Y-0.0298 Z-0.2893
N12640 X-0.0786 Y-0.0007 Z-0.2897
N12650 X-0.0695 Y0.0286 Z-0.2901
N12660 X-0.0504 Y0.0558 Z-0.2905
N12670 X-0.0352 Y0.0698 Z-0.2908
N12680 X-0.0157 Y0.0766 Z-0.291
N12690 X-0.004 Y0.078 Z-0.2912
N12700 X0.0117 Y0.0775 Z-0.2914
N12710 X0.0264 Y0.0722 Z-0.2916
N12720 X0.0472 Y0.0607 Z-0.2919
N12730 X0.0559 Y0.0547 Z-0.292
N12740 X0.0631 Y0.0469 Z-0.2921
N12750 X0.0946 Y0.0276 Z-0.2926
N12760 X0.1307 Y0.0352 Z-0.2931
N12770 X0.1518 Y0.0655 Z-0.2936
N12780 X0.1609 Y0.1045 Z-0.2941
N12790 X0.2668 Y0.5594 Z-0.3
N12800 X0.1609 Y0.1045 F76.4
N12810 X0.1518 Y0.0655 F61.1
N12820 G02 X0.0631 Y0.0469 I-0.0487 J0.0113
N12830 G01 X0.0472 Y0.0607
N12840 X0.0264 Y0.0722
N12850 X-0.004 Y0.078
N12860 X-0.0157 Y0.0766
N12870 G03 X-0.0504 Y0.0558 I0.0062 J-0.0496
N12880 G01 X-0.0695 Y0.0286
N12890 G03 X-0.0689 Y-0.0298 I0.0409 J-0.0288
N12900 G01 X-0.0489 Y-0.0569
N12910 G03 X0.0071 Y-0.0747 I0.0402 J0.0296
N12920 G01 X0.039 Y-0.0641
N12930 G03 X0.0733 Y-0.0164 I-0.0158 J0.0474
N12940 G01 X0.073 Y0.0173
N12950 X0.0631 Y0.0469
N12960 X0.0531 Y0.077
N12970 X0.0533 Y0.117
N12980 X0.0544 Y0.3452 F76.4
N12990 X0.0554 Y0.5733
N13000 X0.0556 Y0.6133 F61.1
N13010 G03 X0.0051 Y0.6635 I-0.05 J0.0002
N13020 G01 X-0.0349 Y0.6631
N13030 X-0.0709 Y0.6627 F76.4
N13040 X-0.0779 Y0.6621
N13050 X-0.1114 Y0.6567
N13060 X-0.2094 Y0.631
N13070 X-0.2868 Y0.5998
N13080 X-0.3597 Y0.5592
N13090 X-0.4269 Y0.5097
N13100 X-0.4875 Y0.4522
N13110 X-0.5403 Y0.3875
N13120 X-0.5846 Y0.3167
N13130 X-0.6197 Y0.241
N13140 X-0.645 Y0.1614
N13150 X-0.6601 Y0.0793
N13160 X-0.6649 Y-0.0041
N13170 X-0.6591 Y-0.0874
N13180 X-0.643 Y-0.1693
N13190 X-0.6167 Y-0.2485
N13200 X-0.5807 Y-0.3239
N13210 X-0.5355 Y-0.3941
N13220 X-0.4819 Y-0.4581
N13230 X-0.4207 Y-0.5149
N13240 X-0.3528 Y-0.5635
N13250 X-0.2794 Y-0.6033
N13260 X-0.2016 Y-0.6336
N13270 X-0.1206 Y-0.6538
N13280 X-0.0377 Y-0.6638
N13290 X0.0458 Y-0.6633
N13300 X0.1286 Y-0.6523
N13310 X0.2093 Y-0.6311
N13320 X0.2868 Y-0.5998
N13330 X0.3597 Y-0.5592
N13340 X0.4269 Y-0.5097
N13350 X0.4875 Y-0.4522
N13360 X0.5403 Y-0.3875
N13370 X0.5846 Y-0.3167
N13380 X0.6197 Y-0.241
N13390 X0.645 Y-0.1614
N13400 X0.6601 Y-0.0793
N13410 X0.6649 Y0.0041
N13420 X0.6591 Y0.0874
N13430 X0.643 Y0.1693
N13440 X0.6167 Y0.2485
N13450 X0.5807 Y0.3239
N13460 X0.5355 Y0.3941
N13470 X0.4819 Y0.4581
N13480 X0.4519 Y0.4859
N13490 X0.4411 Y0.5003
N13500 X0.2469 Y0.8932
N13510 X0.0704 Y1.2503
N13520 X0.0527 Y1.2861 F61.1
N13530 G03 X0.008 Y1.3139 I-0.0448 J-0.0221
N13540 G01 X-0.032 Y1.314
N13550 X-0.0887 Y1.3142 F76.4
N13560 X-0.1549 Y1.3078
N13570 X-0.1573 Y1.3075
N13580 X-0.237 Y1.2955
N13590 X-0.4056 Y1.2524
N13600 X-0.5594 Y1.1917
N13610 X-0.7043 Y1.1122
N13620 X-0.8382 Y1.0151
N13630 X-0.9588 Y0.9021
N13640 X-1.0643 Y0.7748
N13650 X-1.153 Y0.6353
N13660 X-1.2235 Y0.4858
N13670 X-1.2748 Y0.3286
N13680 X-1.3059 Y0.1662
N13690 X-1.3164 Y0.0012
N13700 X-1.3062 Y-0.1638
N13710 X-1.2754 Y-0.3262
N13720 X-1.2244 Y-0.4835
N13730 X-1.1542 Y-0.6331
N13740 X-1.0657 Y-0.7728
N13750 X-0.9605 Y-0.9003
N13760 X-0.8401 Y-1.0135
N13770 X-0.7064 Y-1.1108
N13780 X-0.5616 Y-1.1906
N13790 X-0.408 Y-1.2516
N13800 X-0.2479 Y-1.2929
N13810 X-0.0839 Y-1.3138
N13820 X0.0814 Y-1.3139
N13830 X0.2455 Y-1.2933
N13840 X0.4056 Y-1.2524
N13850 X0.5594 Y-1.1917
N13860 X0.7043 Y-1.1122
N13870 X0.8382 Y-1.0151
N13880 X0.9588 Y-0.9021
N13890 X1.0643 Y-0.7748
N13900 X1.153 Y-0.6353
N13910 X1.2235 Y-0.4858
N13920 X1.2748 Y-0.3286
N13930 X1.3059 Y-0.1662
N13940 X1.3164 Y-0.0012
N13950 X1.3062 Y0.1638
N13960 X1.2754 Y0.3262
N13970 X1.2244 Y0.4835
N13980 X1.1542 Y0.6331
N13990 X1.0657 Y0.7728
N14000 X0.9605 Y0.9003
N14010 X0.8401 Y1.0135
N14020 X0.7232 Y1.0986
N14030 X0.7134 Y1.108
N14040 X0.3816 Y1.5266
N14050 X0.0747 Y1.9138
N14060 X0.0499 Y1.9452 F61.1
N14070 G03 X0.0109 Y1.9641 I-0.0392 J-0.0311
N14080 G01 X-0.0291 Y1.9643
N14090 X-0.1147 Y1.9647 F76.4
N14100 X-0.2342 Y1.9532
N14110 X-0.36 Y1.9348
N14120 X-0.5997 Y1.8744
N14130 X-0.8299 Y1.7845
N14140 X-1.047 Y1.6664
N14150 X-1.2476 Y1.522
N14160 X-1.4285 Y1.3537
N14170 X-1.5869 Y1.164
N14180 X-1.7203 Y0.9559
N14190 X-1.8265 Y0.7327
N14200 X-1.9039 Y0.498
N14210 X-1.9514 Y0.2555
N14220 X-1.968 Y0.0089
N14230 X-1.9536 Y-0.2378
N14240 X-1.9084 Y-0.4808
N14250 X-1.8331 Y-0.7162
N14260 X-1.7288 Y-0.9403
N14270 X-1.5974 Y-1.1496
N14280 X-1.4407 Y-1.3407
N14290 X-1.2613 Y-1.5107
N14300 X-1.062 Y-1.6569
N14310 X-0.846 Y-1.7769
N14320 X-0.6166 Y-1.8689
N14330 X-0.3775 Y-1.9315
N14340 X-0.1325 Y-1.9635
N14350 X0.1147 Y-1.9647
N14360 X0.36 Y-1.9348
N14370 X0.5997 Y-1.8744
N14380 X0.8299 Y-1.7845
N14390 X1.047 Y-1.6664
N14400 X1.2476 Y-1.522
N14410 X1.4285 Y-1.3537
N14420 X1.5869 Y-1.164
N14430 X1.7203 Y-0.9559
N14440 X1.8265 Y-0.7327
N14450 X1.9039 Y-0.498
N14460 X1.9514 Y-0.2555
N14470 X1.968 Y-0.0089
N14480 X1.9536 Y0.2378
N14490 X1.9084 Y0.4808
N14500 X1.8331 Y0.7162
N14510 X1.7288 Y0.9403
N14520 X1.5974 Y1.1496
N14530 X1.4407 Y1.3407
N14540 X1.2613 Y1.5107
N14550 X1.062 Y1.6569
N14560 X0.846 Y1.7769
N14570 X0.6166 Y1.8689
N14580 X0.3775 Y1.9315
N14590 X0.1325 Y1.9635
N14600 X0.0109 Y1.9641
N14610 X-0.0245 Y1.9496 Z-0.2986
N14620 X-0.0393 Y1.9143 Z-0.2973
N14630 Z-0.2873 F76.4
N14640 G00 Z0.5
N14650 G00 X-0.5588 Y-0.3578
N14660 G00 Z-0.2861
N14670 G01 Z-0.2961 F76.4
N14680 X-0.5807 Y-0.3239 Z-0.2974
N14690 X-0.6167 Y-0.2485 Z-0.3001
N14700 X-0.643 Y-0.1693 Z-0.3027
N14710 X-0.6591 Y-0.0874 Z-0.3054
N14720 X-0.6649 Y-0.0041 Z-0.3081
N14730 X-0.6601 Y0.0793 Z-0.3108
N14740 X-0.645 Y0.1614 Z-0.3135
N14750 X-0.6197 Y0.241 Z-0.3162
N14760 X-0.5882 Y0.3089 Z-0.3186
N14770 X-0.5846 Y0.3167 Z-0.3187
N14780 X-0.5403 Y0.3875 Z-0.3197
N14790 X-0.4875 Y0.4522 Z-0.3208
N14800 X-0.4269 Y0.5097 Z-0.3219
N14810 X-0.3597 Y0.5592 Z-0.3229
N14820 X-0.2868 Y0.5998 Z-0.324
N14830 X-0.2094 Y0.631 Z-0.3251
N14840 X-0.1114 Y0.6567 Z-0.3263
N14850 X-0.0779 Y0.6621 Z-0.3268
N14860 X-0.0709 Y0.6627 Z-0.3269
N14870 X-0.0349 Y0.6631 Z-0.3273
N14880 X0.0051 Y0.6635 Z-0.3278
N14890 X0.0408 Y0.649 Z-0.3283
N14900 X0.0556 Y0.6133 Z-0.3288
N14910 X0.0554 Y0.5733 Z-0.3293
N14920 X0.0544 Y0.3452 Z-0.3322
N14930 X0.0533 Y0.117 Z-0.3351
N14940 X0.0531 Y0.077 Z-0.3356
N14950 X0.0557 Y0.0612 Z-0.3358
N14960 X0.0631 Y0.0469 Z-0.336
N14970 X0.0704 Y0.0329 Z-0.3362
N14980 X0.073 Y0.0173 Z-0.3364
N14990 X0.0733 Y-0.0164 Z-0.3369
N15000 X0.0639 Y-0.0458 Z-0.3373
N15010 X0.039 Y-0.0641 Z-0.3377
N15020 X0.0071 Y-0.0747 Z-0.3381
N15030 X-0.0238 Y-0.0749 Z-0.3385
N15040 X-0.0489 Y-0.0569 Z-0.3389
N15050 X-0.0689 Y-0.0298 Z-0.3393
N15060 X-0.0786 Y-0.0007 Z-0.3397
N15070 X-0.0695 Y0.0286 Z-0.3401
N15080 X-0.0504 Y0.0558 Z-0.3405
N15090 X-0.0352 Y0.0698 Z-0.3408
N15100 X-0.0157 Y0.0766 Z-0.341
N15110 X-0.004 Y0.078 Z-0.3412
N15120 X0.0117 Y0.0775 Z-0.3414
N15130 X0.0264 Y0.0722 Z-0.3416
N15140 X0.0472 Y0.0607 Z-0.3419
N15150 X0.0559 Y0.0547 Z-0.342
N15160 X0.0631 Y0.0469 Z-0.3421
N15170 X0.0946 Y0.0276 Z-0.3426
N15180 X0.1307 Y0.0352 Z-0.3431
N15190 X0.1518 Y0.0655 Z-0.3436
N15200 X0.1609 Y0.1045 Z-0.3441
N15210 X0.2668 Y0.5594 Z-0.35
N15220 X0.1609 Y0.1045 F76.4
N15230 X0.1518 Y0.0655 F61.1
N15240 G02 X0.0631 Y0.0469 I-0.0487 J0.0113
N15250 G01 X0.0472 Y0.0607
N15260 X0.0264 Y0.0722
N15270 X-0.004 Y0.078
N15280 X-0.0157 Y0.0766
N15290 G03 X-0.0504 Y0.0558 I0.0062 J-0.0496
N15300 G01 X-0.0695 Y0.0286
N15310 G03 X-0.0689 Y-0.0298 I0.0409 J-0.0288
N15320 G01 X-0.0489 Y-0.0569
N15330 G03 X0.0071 Y-0.0747 I0.0402 J0.0296
N15340 G01 X0.039 Y-0.0641
N15350 G03 X0.0733 Y-0.0164 I-0.0158 J0.0474
N15360 G01 X0.073 Y0.0173
N15370 X0.0631 Y0.0469
N15380 X0.0531 Y0.077
N15390 X0.0533 Y0.117
N15400 X0.0544 Y0.3452 F76.4
N15410 X0.0554 Y0.5733
N15420 X0.0556 Y0.6133 F61.1
N15430 G03 X0.0051 Y0.6635 I-0.05 J0.0002
N15440 G01 X-0.0349 Y0.6631
N15450 X-0.0709 Y0.6627 F76.4
N15460 X-0.0779 Y0.6621
N15470 X-0.1114 Y0.6567
N15480 X-0.2094 Y0.631
N15490 X-0.2868 Y0.5998
N15500 X-0.3597 Y0.5592
N15510 X-0.4269 Y0.5097
N15520 X-0.4875 Y0.4522
N15530 X-0.5403 Y0.3875
N15540 X-0.5846 Y0.3167
N15550 X-0.6197 Y0.241
N15560 X-0.645 Y0.1614
N15570 X-0.6601 Y0.0793
N15580 X-0.6649 Y-0.0041
N15590 X-0.6591 Y-0.0874
N15600 X-0.643 Y-0.1693
N15610 X-0.6167 Y-0.2485
N15620 X-0.5807 Y-0.3239
N15630 X-0.5355 Y-0.3941
N15640 X-0.4819 Y-0.4581
N15650 X-0.4207 Y-0.5149
N15660 X-0.3528 Y-0.5635
N15670 X-0.2794 Y-0.6033
N15680 X-0.2016 Y-0.6336
N15690 X-0.1206 Y-0.6538
N15700 X-0.0377 Y-0.6638
N15710 X0.0458 Y-0.6633
N15720 X0.1286 Y-0.6523
N15730 X0.2093 Y-0.6311
N15740 X0.2868 Y-0.5998
N15750 X0.3597 Y-0.5592
N15760 X0.4269 Y-0.5097
N15770 X0.4875 Y-0.4522
N15780 X0.5403 Y-0.3875
N15790 X0.5846 Y-0.3167
N15800 X0.6197 Y-0.241
N15810 X0.645 Y-0.1614
N15820 X0.6601 Y-0.0793
N15830 X0.6649 Y0.0041
N15840 X0.6591 Y0.0874
N15850 X0.643 Y0.1693
N15860 X0.6167 Y0.2485
N15870 X0.5807 Y0.3239
N15880 X0.5355 Y0.3941
N15890 X0.4819 Y0.4581
N15900 X0.4519 Y0.4859
N15910 X0.4411 Y0.5003
N15920 X0.2469 Y0.8932
N15930 X0.0704 Y1.2503
N15940 X0.0527 Y1.2861 F61.1
N15950 G03 X0.008 Y1.3139 I-0.0448 J-0.0221
N15960 G01 X-0.032 Y1.314
N15970 X-0.0887 Y1.3142 F76.4
N15980 X-0.1549 Y1.3078
N15990 X-0.1573 Y1.3075
N16000 X-0.237 Y1.2955
N16010 X-0.4056 Y1.2524
N16020 X-0.5594 Y1.1917
N16030 X-0.7043 Y1.1122
N16040 X-0.8382 Y1.0151
N16050 X-0.9588 Y0.9021
N16060 X-1.0643 Y0.7748
N16070 X-1.153 Y0.6353
N16080 X-1.2235 Y0.4858
N16090 X-1.2748 Y0.3286
N16100 X-1.3059 Y0.1662
N16110 X-1.3164 Y0.0012
N16120 X-1.3062 Y-0.1638
N16130 X-1.2754 Y-0.3262
N16140 X-1.2244 Y-0.4835
N16150 X-1.1542 Y-0.6331
N16160 X-1.0657 Y-0.7728
N16170 X-0.9605 Y-0.9003
N16180 X-0.8401 Y-1.0135
N16190 X-0.7064 Y-1.1108
N16200 X-0.5616 Y-1.1906
N16210 X-0.408 Y-1.2516
N16220 X-0.2479 Y-1.2929
N16230 X-0.0839 Y-1.3138
N16240 X0.0814 Y-1.3139
N16250 X0.2455 Y-1.2933
N16260 X0.4056 Y-1.2524
N16270 X0.5594 Y-1.1917
N16280 X0.7043 Y-1.1122
N16290 X0.8382 Y-1.0151
N16300 X0.9588 Y-0.9021
N16310 X1.0643 Y-0.7748
N16320 X1.153 Y-0.6353
N16330 X1.2235 Y-0.4858
N16340 X1.2748 Y-0.3286
N16350 X1.3059 Y-0.1662
N16360 X1.3164 Y-0.0012
N16370 X1.3062 Y0.1638
N16380 X1.2754 Y0.3262
N16390 X1.2244 Y0.4835
N16400 X1.1542 Y0.6331
N16410 X1.0657 Y0.7728
N16420 X0.9605 Y0.9003
N16430 X0.8401 Y1.0135
N16440 X0.7232 Y1.0986
N16450 X0.7134 Y1.108
N16460 X0.3816 Y1.5266
N16470 X0.0747 Y1.9138
N16480 X0.0499 Y1.9452 F61.1
N16490 G03 X0.0109 Y1.9641 I-0.0392 J-0.0311
N16500 G01 X-0.0291 Y1.9643
N16510 X-0.1147 Y1.9647 F76.4
N16520 X-0.2342 Y1.9532
N16530 X-0.36 Y1.9348
N16540 X-0.5997 Y1.8744
N16550 X-0.8299 Y1.7845
N16560 X-1.047 Y1.6664
N16570 X-1.2476 Y1.522
N16580 X-1.4285 Y1.3537
N16590 X-1.5869 Y1.164
N16600 X-1.7203 Y0.9559
N16610 X-1.8265 Y0.7327
N16620 X-1.9039 Y0.498
N16630 X-1.9514 Y0.2555
N16640 X-1.968 Y0.0089
N16650 X-1.9536 Y-0.2378
N16660 X-1.9084 Y-0.4808
N16670 X-1.8331 Y-0.7162
N16680 X-1.7288 Y-0.9403
N16690 X-1.5974 Y-1.1496
N16700 X-1.4407 Y-1.3407
N16710 X-1.2613 Y-1.5107
N16720 X-1.062 Y-1.6569
N16730 X-0.846 Y-1.7769
N16740 X-0.6166 Y-1.8689
N16750 X-0.3775 Y-1.9315
N16760 X-0.1325 Y-1.9635
N16770 X0.1147 Y-1.9647
N16780 X0.36 Y-1.9348
N16790 X0.5997 Y-1.8744
N16800 X0.8299 Y-1.7845
N16810 X1.047 Y-1.6664
N16820 X1.2476 Y-1.522
N16830 X1.4285 Y-1.3537
N16840 X1.5869 Y-1.164
N16850 X1.7203 Y-0.9559
N16860 X1.8265 Y-0.7327
N16870 X1.9039 Y-0.498
N16880 X1.9514 Y-0.2555
N16890 X1.968 Y-0.0089
N16900 X1.9536 Y0.2378
N16910 X1.9084 Y0.4808
N16920 X1.8331 Y0.7162
N16930 X1.7288 Y0.9403
N16940 X1.5974 Y1.1496
N16950 X1.4407 Y1.3407
N16960 X1.2613 Y1.5107
N16970 X1.062 Y1.6569
N16980 X0.846 Y1.7769
N16990 X0.6166 Y1.8689
N17000 X0.3775 Y1.9315
N17010 X0.1325 Y1.9635
N17020 X0.0109 Y1.9641
N17030 X-0.0245 Y1.9496 Z-0.3486
N17040 X-0.0393 Y1.9143 Z-0.3473
N17050 Z-0.3373 F76.4
N17060 G00 Z0.5
N17070 G00 X-0.5588 Y-0.3578
N17080 G00 Z-0.3361
N17090 G01 Z-0.3461 F76.4
N17100 X-0.5807 Y-0.3239 Z-0.3474
N17110 X-0.6167 Y-0.2485 Z-0.35
N17120 X-0.643 Y-0.1693 Z-0.3527
N17130 X-0.6591 Y-0.0874 Z-0.3554
N17140 X-0.6649 Y-0.0041 Z-0.3581
N17150 X-0.6601 Y0.0793 Z-0.3608
N17160 X-0.645 Y0.1614 Z-0.3635
N17170 X-0.6197 Y0.241 Z-0.3662
N17180 X-0.5882 Y0.3089 Z-0.3686
N17190 X-0.5846 Y0.3167 Z-0.3687
N17200 X-0.5403 Y0.3875 Z-0.3697
N17210 X-0.4875 Y0.4522 Z-0.3708
N17220 X-0.4269 Y0.5097 Z-0.3719
N17230 X-0.3597 Y0.5592 Z-0.3729
N17240 X-0.2868 Y0.5998 Z-0.374
N17250 X-0.2094 Y0.631 Z-0.3751
N17260 X-0.1114 Y0.6567 Z-0.3763
N17270 X-0.0779 Y0.6621 Z-0.3768
N17280 X-0.0709 Y0.6627 Z-0.3769
N17290 X-0.0349 Y0.6631 Z-0.3773
N17300 X0.0051 Y0.6635 Z-0.3778
N17310 X0.0408 Y0.649 Z-0.3783
N17320 X0.0556 Y0.6133 Z-0.3788
N17330 X0.0554 Y0.5733 Z-0.3793
N17340 X0.0544 Y0.3452 Z-0.3822
N17350 X0.0533 Y0.117 Z-0.3851
N17360 X0.0531 Y0.077 Z-0.3856
N17370 X0.0557 Y0.0612 Z-0.3858
N17380 X0.0631 Y0.0469 Z-0.386
N17390 X0.0704 Y0.0329 Z-0.3862
N17400 X0.073 Y0.0173 Z-0.3864
N17410 X0.0733 Y-0.0164 Z-0.3869
N17420 X0.0639 Y-0.0458 Z-0.3873
N17430 X0.039 Y-0.0641 Z-0.3877
N17440 X0.0071 Y-0.0747 Z-0.3881
N17450 X-0.0238 Y-0.0749 Z-0.3885
N17460 X-0.0489 Y-0.0569 Z-0.3889
N17470 X-0.0689 Y-0.0298 Z-0.3893
N17480 X-0.0786 Y-0.0007 Z-0.3897
N17490 X-0.0695 Y0.0286 Z-0.3901
N17500 X-0.0504 Y0.0558 Z-0.3905
N17510 X-0.0352 Y0.0698 Z-0.3908
N17520 X-0.0157 Y0.0766 Z-0.391
N17530 X-0.004 Y0.078 Z-0.3912
N17540 X0.0117 Y0.0775 Z-0.3914
N17550 X0.0264 Y0.0722 Z-0.3916
N17560 X0.0472 Y0.0607 Z-0.3919
N17570 X0.0559 Y0.0547 Z-0.392
N17580 X0.0631 Y0.0469 Z-0.3921
N17590 X0.0946 Y0.0276 Z-0.3926
N17600 X0.1307 Y0.0352 Z-0.3931
N17610 X0.1518 Y0.0655 Z-0.3936
N17620 X0.1609 Y0.1045 Z-0.3941
N17630 X0.2668 Y0.5594 Z-0.4
N17640 X0.1609 Y0.1045 F76.4
N17650 X0.1518 Y0.0655 F61.1
N17660 G02 X0.0631 Y0.0469 I-0.0487 J0.0113
N17670 G01 X0.0472 Y0.0607
N17680 X0.0264 Y0.0722
N17690 X-0.004 Y0.078
N17700 X-0.0157 Y0.0766
N17710 G03 X-0.0504 Y0.0558 I0.0062 J-0.0496
N17720 G01 X-0.0695 Y0.0286
N17730 G03 X-0.0689 Y-0.0298 I0.0409 J-0.0288
N17740 G01 X-0.0489 Y-0.0569
N17750 G03 X0.0071 Y-0.0747 I0.0402 J0.0296
N17760 G01 X0.039 Y-0.0641
N17770 G03 X0.0733 Y-0.0164 I-0.0158 J0.0474
N17780 G01 X0.073 Y0.0173
N17790 X0.0631 Y0.0469
N17800 X0.0531 Y0.077
N17810 X0.0533 Y0.117
N17820 X0.0544 Y0.3452 F76.4
N17830 X0.0554 Y0.5733
N17840 X0.0556 Y0.6133 F61.1
N17850 G03 X0.0051 Y0.6635 I-0.05 J0.0002
N17860 G01 X-0.0349 Y0.6631
N17870 X-0.0709 Y0.6627 F76.4
N17880 X-0.0779 Y0.6621
N17890 X-0.1114 Y0.6567
N17900 X-0.2094 Y0.631
N17910 X-0.2868 Y0.5998
N17920 X-0.3597 Y0.5592
N17930 X-0.4269 Y0.5097
N17940 X-0.4875 Y0.4522
N17950 X-0.5403 Y0.3875
N17960 X-0.5846 Y0.3167
N17970 X-0.6197 Y0.241
N17980 X-0.645 Y0.1614
N17990 X-0.6601 Y0.0793
N18000 X-0.6649 Y-0.0041
N18010 X-0.6591 Y-0.0874
N18020 X-0.643 Y-0.1693
N18030 X-0.6167 Y-0.2485
N18040 X-0.5807 Y-0.3239
N18050 X-0.5355 Y-0.3941
N18060 X-0.4819 Y-0.4581
N18070 X-0.4207 Y-0.5149
N18080 X-0.3528 Y-0.5635
N18090 X-0.2794 Y-0.6033
N18100 X-0.2016 Y-0.6336
N18110 X-0.1206 Y-0.6538
N18120 X-0.0377 Y-0.6638
N18130 X0.0458 Y-0.6633
N18140 X0.1286 Y-0.6523
N18150 X0.2093 Y-0.6311
N18160 X0.2868 Y-0.5998
N18170 X0.3597 Y-0.5592
N18180 X0.4269 Y-0.5097
N18190 X0.4875 Y-0.4522
N18200 X0.5403 Y-0.3875
N18210 X0.5846 Y-0.3167
N18220 X0.6197 Y-0.241
N18230 X0.645 Y-0.1614
N18240 X0.6601 Y-0.0793
N18250 X0.6649 Y0.0041
N18260 X0.6591 Y0.0874
N18270 X0.643 Y0.1693
N18280 X0.6167 Y0.2485
N18290 X0.5807 Y0.3239
N18300 X0.5355 Y0.3941
N18310 X0.4819 Y0.4581
N18320 X0.4519 Y0.4859
N18330 X0.4411 Y0.5003
N18340 X0.2469 Y0.8932
N18350 X0.0704 Y1.2503
N18360 X0.0527 Y1.2861 F61.1
N18370 G03 X0.008 Y1.3139 I-0.0448 J-0.0221
N18380 G01 X-0.032 Y1.314
N18390 X-0.0887 Y1.3142 F76.4
N18400 X-0.1549 Y1.3078
N18410 X-0.1573 Y1.3075
N18420 X-0.237 Y1.2955
N18430 X-0.4056 Y1.2524
N18440 X-0.5594 Y1.1917
N18450 X-0.7043 Y1.1122
N18460 X-0.8382 Y1.0151
N18470 X-0.9588 Y0.9021
N18480 X-1.0643 Y0.7748
N18490 X-1.153 Y0.6353
N18500 X-1.2235 Y0.4858
N18510 X-1.2748 Y0.3286
N18520 X-1.3059 Y0.1662
N18530 X-1.3164 Y0.0012
N18540 X-1.3062 Y-0.1638
N18550 X-1.2754 Y-0.3262
N18560 X-1.2244 Y-0.4835
N18570 X-1.1542 Y-0.6331
N18580 X-1.0657 Y-0.7728
N18590 X-0.9605 Y-0.9003
N18600 X-0.8401 Y-1.0135
N18610 X-0.7064 Y-1.1108
N18620 X-0.5616 Y-1.1906
N18630 X-0.408 Y-1.2516
N18640 X-0.2479 Y-1.2929
N18650 X-0.0839 Y-1.3138
N18660 X0.0814 Y-1.3139
N18670 X0.2455 Y-1.2933
N18680 X0.4056 Y-1.2524
N18690 X0.5594 Y-1.1917
N18700 X0.7043 Y-1.1122
N18710 X0.8382 Y-1.0151
N18720 X0.9588 Y-0.9021
N18730 X1.0643 Y-0.7748
N18740 X1.153 Y-0.6353
N18750 X1.2235 Y-0.4858
N18760 X1.2748 Y-0.3286
N18770 X1.3059 Y-0.1662
N18780 X1.3164 Y-0.0012
N18790 X1.3062 Y0.1638
N18800 X1.2754 Y0.3262
N18810 X1.2244 Y0.4835
N18820 X1.1542 Y0.6331
N18830 X1.0657 Y0.7728
N18840 X0.9605 Y0.9003
N18850 X0.8401 Y1.0135
N18860 X0.7232 Y1.0986
N18870 X0.7134 Y1.108
N18880 X0.3816 Y1.5266
N18890 X0.0747 Y1.9138
N18900 X0.0499 Y1.9452 F61.1
N18910 G03 X0.0109 Y1.9641 I-0.0392 J-0.0311
N18920 G01 X-0.0291 Y1.9643
N18930 X-0.1147 Y1.9647 F76.4
N18940 X-0.2342 Y1.9532
N18950 X-0.36 Y1.9348
N18960 X-0.5997 Y1.8744
N18970 X-0.8299 Y1.7845
N18980 X-1.047 Y1.6664
N18990 X-1.2476 Y1.522
N19000 X-1.4285 Y1.3537
N19010 X-1.5869 Y1.164
N19020 X-1.7203 Y0.9559
N19030 X-1.8265 Y0.7327
N19040 X-1.9039 Y0.498
N19050 X-1.9514 Y0.2555
N19060 X-1.968 Y0.0089
N19070 X-1.9536 Y-0.2378
N19080 X-1.9084 Y-0.4808
N19090 X-1.8331 Y-0.7162
N19100 X-1.7288 Y-0.9403
N19110 X-1.5974 Y-1.1496
N19120 X-1.4407 Y-1.3407
N19130 X-1.2613 Y-1.5107
N19140 X-1.062 Y-1.6569
N19150 X-0.846 Y-1.7769
N19160 X-0.6166 Y-1.8689
N19170 X-0.3775 Y-1.9315
N19180 X-0.1325 Y-1.9635
N19190 X0.1147 Y-1.9647
N19200 X0.36 Y-1.9348
N19210 X0.5997 Y-1.8744
N19220 X0.8299 Y-1.7845
N19230 X1.047 Y-1.6664
N19240 X1.2476 Y-1.522
N19250 X1.4285 Y-1.3537
N19260 X1.5869 Y-1.164
N19270 X1.7203 Y-0.9559
N19280 X1.8265 Y-0.7327
N19290 X1.9039 Y-0.498
N19300 X1.9514 Y-0.2555
N19310 X1.968 Y-0.0089
N19320 X1.9536 Y0.2378
N19330 X1.9084 Y0.4808
N19340 X1.8331 Y0.7162
N19350 X1.7288 Y0.9403
N19360 X1.5974 Y1.1496
N19370 X1.4407 Y1.3407
N19380 X1.2613 Y1.5107
N19390 X1.062 Y1.6569
N19400 X0.846 Y1.7769
N19410 X0.6166 Y1.8689
N19420 X0.3775 Y1.9315
N19430 X0.1325 Y1.9635
N19440 X0.0109 Y1.9641
N19450 X-0.0245 Y1.9496 Z-0.3986
N19460 X-0.0393 Y1.9143 Z-0.3973
N19470 Z-0.3873 F76.4
N19480 G00 Z0.5
N19490 G00 X0.5214 Y0.5561
N19500 G00 Z-0.3861
N19510 G01 Z-0.3961 F76.4
N19520 X0.5216 Y0.5555
N19530 X0.5127 Y0.5231 Z-0.3967
N19540 X0.4897 Y0.4904 Z-0.3973
N19550 X0.3373 Y0.2737 Z-0.4019
N19560 X0.1848 Y0.057 Z-0.4064
N19570 X0.1618 Y0.0243 Z-0.4071
N19580 X0.1553 Y0.0115 Z-0.4073
N19590 X0.1528 Y-0.0026 Z-0.4076
N19600 X0.1479 Y-0.0223 Z-0.4079
N19610 X0.1356 Y-0.0385 Z-0.4083
N19620 X0.1337 Y-0.0403
N19630 X0.1069 Y-0.0663 Z-0.4089
N19640 X0.0636 Y-0.1083 Z-0.41
N19650 X0.0368 Y-0.1343 Z-0.4106
N19660 X0.0349 Y-0.1362 Z-0.4107
N19670 X0.0121 Y-0.1503 Z-0.4111
N19680 X-0.0147 Y-0.1506 Z-0.4116
N19690 X-0.0378 Y-0.1371 Z-0.412
N19700 X-0.0658 Y-0.1085 Z-0.4127
N19710 X-0.1098 Y-0.0636 Z-0.4138
N19720 X-0.1378 Y-0.035 Z-0.4145
N19730 X-0.151 Y-0.0115 Z-0.4149
N19740 X-0.1501 Y0.0154 Z-0.4154
N19750 X-0.1354 Y0.0379 Z-0.4158
N19760 X-0.1334 Y0.0398 Z-0.4159
N19770 X-0.1068 Y0.0658 Z-0.4165
N19780 X-0.0633 Y0.1083 Z-0.4176
N19790 X-0.0367 Y0.1344 Z-0.4182
N19800 X-0.0348 Y0.1363
N19810 X-0.0185 Y0.1465 Z-0.4186
N19820 X-0.0119 Y0.1505 Z-0.4188
N19830 X0.015 Y0.1508 Z-0.4198
N19840 X0.0382 Y0.1371 Z-0.4207
N19850 X0.0661 Y0.1085 Z-0.4221
N19860 X0.1103 Y0.0631 Z-0.4242
N19870 X0.1383 Y0.0345 Z-0.4256
N19880 X0.1494 Y0.0175 Z-0.4263
N19890 X0.1528 Y-0.0026 Z-0.427
N19900 X0.1555 Y-0.0209 Z-0.4276
N19910 X0.1648 Y-0.037 Z-0.4283
N19920 X0.1908 Y-0.0674 Z-0.4297
N19930 X0.5763 Y-0.517 Z-0.45
N19940 X0.1908 Y-0.0674 F76.4
N19950 X0.1648 Y-0.037 F61.1
N19960 X0.1528 Y-0.0026
N19970 G03 X0.1383 Y0.0345 I-0.05 J0.0019
N19980 G01 X0.1103 Y0.0631
N19990 X0.0661 Y0.1085 F76.4
N20000 X0.0382 Y0.1371 F61.1
N20010 G03 X-0.0348 Y0.1363 I-0.0361 J-0.0346
N20020 G01 X-0.0367 Y0.1344
N20030 X-0.0633 Y0.1083
N20040 X-0.1068 Y0.0658 F76.4
N20050 X-0.1334 Y0.0398 F61.1
N20060 X-0.1354 Y0.0379
N20070 G03 X-0.1378 Y-0.035 I0.033 J-0.0376
N20080 G01 X-0.1098 Y-0.0636
N20090 X-0.0658 Y-0.1085 F76.4
N20100 X-0.0378 Y-0.1371 F61.1
N20110 G03 X0.0349 Y-0.1362 I0.036 J0.0348
N20120 G01 X0.0368 Y-0.1343
N20130 X0.0636 Y-0.1083
N20140 X0.1069 Y-0.0663 F76.4
N20150 X0.1337 Y-0.0403 F61.1
N20160 X0.1356 Y-0.0385
N20170 G03 X0.1528 Y-0.0026 I-0.0328 J0.0378
N20180 G01 X0.1618 Y0.0243
N20190 X0.1848 Y0.057
N20200 X0.3373 Y0.2737 F76.4
N20210 X0.4897 Y0.4904
N20220 X0.5127 Y0.5231 F61.1
N20230 G03 X0.508 Y0.5863 I-0.0409 J0.0287
N20240 G01 X0.4805 Y0.6153
N20250 X0.4762 Y0.6197 F76.4
N20260 X0.3909 Y0.7315
N20270 X0.3038 Y0.8755
N20280 G02 X0.2412 Y1.0133 I0.5563 J0.3362
N20290 G01 X0.1915 Y1.1682
N20300 X0.1904 Y1.172
N20310 X0.1772 Y1.2281
N20320 X0.1689 Y1.2632 F61.1
N20330 X0.1681 Y1.267
N20340 G03 X0.1252 Y1.3089 I-0.0494 J-0.0076
N20350 G01 X0.0917 Y1.3133
N20360 X0.0855 Y1.3137
N20370 X-0.0863 Y1.3142 F76.4
N20380 X-0.0887 F61.1
N20390 X-0.1261 Y1.3106
N20400 G03 X-0.1707 Y1.2688 I0.0048 J-0.0498
N20410 G01 X-0.1771 Y1.2293
N20420 X-0.1786 Y1.2198 F76.4
N20430 X-0.2166 Y1.0825
N20440 X-0.2805 Y0.9224
N20450 G02 X-0.3597 Y0.7795 I-0.6037 J0.2411
N20460 G01 X-0.4684 Y0.6311
N20470 G02 X-0.5849 Y0.509 I-0.5244 J0.384
N20480 G01 X-0.727 Y0.3945
N20490 G02 X-0.8647 Y0.3094 I-0.4079 J0.506
N20500 G01 X-1.0125 Y0.2418
N20510 X-1.1462 Y0.1975
N20520 X-1.2301 Y0.1795
N20530 X-1.2693 Y0.1711 F61.1
N20540 G03 X-1.3086 Y0.1255 I0.0106 J-0.0489
N20550 G01 X-1.3111 Y0.0856
N20560 X-1.3164 Y0.0012 F76.4
N20570 X-1.3115 Y-0.0824
N20580 X-1.3092 Y-0.1224 F61.1
N20590 G03 X-1.2713 Y-0.168 I0.0499 J0.003
N20600 G01 X-1.2326 Y-0.1782
N20610 X-1.0704 Y-0.2208 F76.4
N20620 X-0.9413 Y-0.2707
N20630 X-0.8384 Y-0.3236
N20640 X-0.7481 Y-0.3798
N20650 X-0.6446 Y-0.4567
N20660 X-0.5636 Y-0.528
N20670 X-0.4819 Y-0.6129
N20680 X-0.3975 Y-0.7218
N20690 X-0.311 Y-0.8619
N20700 G02 X-0.2495 Y-0.9914 I-0.5529 J-0.3416
N20710 G01 X-0.2002 Y-1.1344
N20720 X-0.1759 Y-1.2259
N20730 X-0.1697 Y-1.2654 F61.1
N20740 G03 X-0.1266 Y-1.3088 I0.0496 J0.0062
N20750 G01 X-0.0868 Y-1.3134
N20760 X-0.0839 Y-1.3138 F76.4
N20770 X0.0814 Y-1.3139
N20780 X0.0896 Y-1.3129
N20790 X0.1293 Y-1.3081 F61.1
N20800 G03 X0.1724 Y-1.2677 I-0.0061 J0.0497
N20810 G01 X0.1798 Y-1.2284
N20820 X0.1827 Y-1.2132 F76.4
N20830 X0.1834 Y-1.21
N20840 X0.2044 Y-1.128
N20850 X0.2053 Y-1.1249
N20860 X0.242 Y-1.0128
N20870 X0.2898 Y-0.9026
N20880 X0.346 Y-0.8001
N20890 X0.4042 Y-0.7118
N20900 X0.4776 Y-0.6181
N20910 X0.5773 Y-0.5162
N20920 X0.7163 Y-0.4022
N20930 G02 X0.8403 Y-0.3222 I0.4121 J-0.5027
N20940 G01 X0.9572 Y-0.2644
N20950 X0.9608 Y-0.2628
N20960 X1.0478 Y-0.2279
N20970 X1.0515 Y-0.2266
N20980 X1.1466 Y-0.1969
N20990 X1.2258 Y-0.1775
N21000 X1.2548 Y-0.173 F61.1
N21010 X1.2653 Y-0.1716
N21020 G03 X1.3086 Y-0.1254 I-0.0065 J0.0496
N21030 G01 X1.3112 Y-0.0855
N21040 X1.3164 Y-0.0012 F76.4
N21050 X1.3114 Y0.0846
N21060 X1.3091 Y0.1246 F61.1
N21070 G03 X1.2662 Y0.1711 I-0.0499 J-0.003
N21080 G01 X1.2503 Y0.1734
N21090 X1.2464 Y0.1742
N21100 X1.227 Y0.1785
N21110 X1.1524 Y0.1954 F76.4
N21120 X1.1485 Y0.1964
N21130 X1.0459 Y0.2285
N21140 X1.036 Y0.2316 F61.1
N21150 X1.0079 Y0.2411
N21160 G02 X0.975 Y0.2893 I0.017 J0.0469
N21170 G01 X0.976 Y0.3293
N21180 X0.9839 Y0.6439 F76.4
N21190 X0.9917 Y0.9586
N21200 X0.9927 Y0.9986 F61.1
N21210 X0.979 Y1.0343
N21220 X0.9514 Y1.0632
N21230 X0.9472 Y1.0677 F76.4
N21240 X0.8601 Y1.2117
N21250 X0.8104 Y1.3667
N21260 X0.7972 Y1.5124
N21270 X0.8079 Y1.6185
N21280 X0.838 Y1.7354
N21290 X0.8479 Y1.7741 F61.1
N21300 X0.8109 Y1.7893
N21310 X0.6166 Y1.8689 F76.4
N21320 X0.3775 Y1.9315
N21330 X0.1325 Y1.9635
N21340 X-0.1147 Y1.9647
N21350 X-0.2342 Y1.9532
N21360 X-0.36 Y1.9348
N21370 X-0.5997 Y1.8744
N21380 X-0.815 Y1.7877
N21390 X-0.8459 Y1.7753 F61.1
N21400 X-0.8505 Y1.7704
N21410 X-0.8367 Y1.7329
N21420 X-0.8339 Y1.7254 F76.4
N21430 X-0.8039 Y1.5949
N21440 X-0.8009 Y1.4432
N21450 X-0.8203 Y1.3235
N21460 X-0.8842 Y1.1635
N21470 X-0.9928 Y1.0151
N21480 X-1.1349 Y0.9006
N21490 X-1.2827 Y0.833
N21500 X-1.4221 Y0.8031
N21510 X-1.4934 Y0.7978
N21520 X-1.6498 Y0.8127
N21530 X-1.733 Y0.8372
N21540 X-1.7714 Y0.8485 F61.1
N21550 X-1.7886 Y0.8124
N21560 X-1.8265 Y0.7327 F76.4
N21570 X-1.9039 Y0.498
N21580 X-1.9514 Y0.2555
N21590 X-1.968 Y0.0089
N21600 X-1.9536 Y-0.2378
N21610 X-1.9084 Y-0.4808
N21620 X-1.8331 Y-0.7162
N21630 X-1.7888 Y-0.8115
N21640 X-1.7719 Y-0.8477 F61.1
N21650 X-1.7333 Y-0.837
N21660 X-1.7294 Y-0.8359 F76.4
N21670 X-1.5612 Y-0.8006
N21680 X-1.4063 Y-0.8038
N21690 X-1.2386 Y-0.8487
N21700 X-1.1356 Y-0.9017
N21710 X-1.0321 Y-0.9785
N21720 X-0.9505 Y-1.0634
N21730 X-0.8639 Y-1.2035
N21740 X-0.8146 Y-1.3465
N21750 X-0.7972 Y-1.5034
N21760 X-0.8155 Y-1.659
N21770 X-0.8379 Y-1.735
N21780 X-0.8492 Y-1.7734 F61.1
N21790 X-0.8122 Y-1.7886
N21800 X-0.6166 Y-1.8689 F76.4
N21810 X-0.3775 Y-1.9315
N21820 X-0.1325 Y-1.9635
N21830 X0.1147 Y-1.9647
N21840 X0.36 Y-1.9348
N21850 X0.5997 Y-1.8744
N21860 X0.8126 Y-1.7886
N21870 X0.8497 Y-1.7737 F61.1
N21880 X0.8373 Y-1.7356
N21890 X0.8337 Y-1.7246 F76.4
N21900 X0.8038 Y-1.594
N21910 X0.8009 Y-1.4423
N21920 X0.822 Y-1.3303
N21930 X0.8597 Y-1.2151
N21940 X0.916 Y-1.1126
N21950 X0.9894 Y-1.0188
N21960 X1.1284 Y-0.9049
N21970 X1.2453 Y-0.8471
N21980 X1.3404 Y-0.8174
N21990 X1.4908 Y-0.7974
N22000 X1.6575 Y-0.8144
N22010 X1.7335 Y-0.8364
N22020 X1.7719 Y-0.8475 F61.1
N22030 X1.7891 Y-0.8114
N22040 X1.8265 Y-0.7327 F76.4
N22050 X1.9039 Y-0.498
N22060 X1.9514 Y-0.2555
N22070 X1.968 Y-0.0089
N22080 X1.9536 Y0.2378
N22090 X1.9084 Y0.4808
N22100 X1.8331 Y0.7162
N22110 X1.7867 Y0.8159
N22120 X1.7698 Y0.8521 F61.1
N22130 X1.7323 Y0.8382
N22140 X1.7065 Y0.8286 F76.4
N22150 X1.5744 Y0.804
N22160 X1.464 Y0.7995
N22170 X1.3423 Y0.8169
N22180 X1.2298 Y0.852
N22190 X1.1294 Y0.9054
N22200 X1.0313 Y0.9793
N22210 X0.979 Y1.0343
N22220 X0.944 Y1.0498 Z-0.4486
N22230 X0.9083 Y1.036 Z-0.4473
N22240 Z-0.4373 F76.4
N22250 G00 Z0.5
N22260 G00 X-0.2857 Y0.82
N22270 G00 Z-0.4361
N22280 G01 Z-0.4461 F76.4
N22290 X-0.2736 Y0.8433 Z-0.4469
N22300 X-0.205 Y0.9922 Z-0.4521
N22310 X-0.182 Y1.0492 Z-0.4541
N22320 X-0.1644 Y1.1081 Z-0.4561
N22330 X-0.1343 Y1.2361 Z-0.4603
N22340 X-0.1251 Y1.275 Z-0.4616
N22350 X-0.1076 Y1.3035 Z-0.4626
N22360 X-0.076 Y1.3145 Z-0.4637
N22370 X-0.036 Y1.3143 Z-0.465
N22380 X0.0361 Y1.314 Z-0.4673
N22390 X0.0761 Y1.3138 Z-0.4685
N22400 X0.077 Y1.3135 Z-0.4686
N22410 X0.108 Y1.3021 Z-0.4689
N22420 X0.1251 Y1.2728 Z-0.4693
N22430 X0.1345 Y1.2339 Z-0.4697
N22440 X0.1674 Y1.0983 Z-0.4713
N22450 X0.1842 Y1.0422 Z-0.4719
N22460 X0.2059 Y0.9879 Z-0.4725
N22470 X0.2566 Y0.8761 Z-0.4739
N22480 X0.2579 Y0.8734
N22490 X0.2934 Y0.8059 Z-0.4747
N22500 X0.2949 Y0.8033 Z-0.4748
N22510 X0.3263 Y0.7512 Z-0.4754
N22520 X0.3282 Y0.7483 Z-0.4755
N22530 X0.3788 Y0.676 Z-0.4764
N22540 X0.3809 Y0.6733 Z-0.4765
N22550 X0.4526 Y0.5844 Z-0.4777
N22560 X0.4547 Y0.582 Z-0.4778
N22570 X0.475 Y0.5598 Z-0.4781
N22580 X0.502 Y0.5304 Z-0.4785
N22590 X0.2014 Y0.0352 Z-0.4848
N22600 X0.1806 Y0.001 Z-0.4853
N22610 X0.1501 Y-0.0216 Z-0.4857
N22620 X0.1126 Y-0.0162 Z-0.4861
N22630 X0.0896 Y0.014 Z-0.4865
N22640 X0.0844 Y0.0264 Z-0.4867
N22650 X0.0762 Y0.0369 Z-0.4868
N22660 X0.0339 Y0.079 Z-0.4875
N22670 X-0.0019 Y0.0938 Z-0.4879
N22680 X-0.0375 Y0.0786 Z-0.4883
N22690 X-0.0791 Y0.0357 Z-0.489
N22700 X-0.0932 Y0.0004 Z-0.4894
N22710 X-0.0785 Y-0.0345 Z-0.4898
N22720 X-0.036 Y-0.0769 Z-0.4904
N22730 X-0.0005 Y-0.0915 Z-0.4909
N22740 X0.0349 Y-0.0766 Z-0.4913
N22750 X0.0769 Y-0.0341 Z-0.4919
N22760 X0.0896 Y-0.0117 Z-0.4922
N22770 Y0.014 Z-0.4925
N22780 Y0.0398 Z-0.4928
N22790 X0.1025 Y0.0622 Z-0.493
N22800 X0.1307 Y0.0905 Z-0.4935
N22810 X0.3015 Y0.2617 Z-0.4961
N22820 X0.4723 Y0.433 Z-0.4988
N22830 X0.5005 Y0.4613 Z-0.4992
N22840 X0.5151 Y0.4955 Z-0.4996
N22850 X0.502 Y0.5304 Z-0.5
N22860 X0.2014 Y0.0352 F76.4
N22870 X0.1806 Y0.001 F61.1
N22880 G02 X0.0896 Y0.014 I-0.0427 J0.0259
N22890 G01 X0.0762 Y0.0369
N22900 X0.0339 Y0.079
N22910 G03 X-0.0375 Y0.0786 I-0.0355 J-0.0352
N22920 G01 X-0.0791 Y0.0357
N22930 G03 X-0.0785 Y-0.0345 I0.0359 J-0.0348
N22940 G01 X-0.036 Y-0.0769
N22950 G03 X0.0349 Y-0.0766 I0.0353 J0.0354
N22960 G01 X0.0769 Y-0.0341
N22970 G03 X0.0896 Y0.014 I-0.0356 J0.0352
N22980 G02 X0.1025 Y0.0622 I0.0483 J0.0129
N22990 G01 X0.1307 Y0.0905
N23000 X0.3015 Y0.2617 F76.4
N23010 X0.4723 Y0.433
N23020 X0.5005 Y0.4613 F61.1
N23030 G03 X0.502 Y0.5304 I-0.0354 J0.0353
N23040 G01 X0.475 Y0.5598
N23050 X0.4547 Y0.582 F76.4
N23060 X0.4526 Y0.5844
N23070 X0.3809 Y0.6733
N23080 X0.3788 Y0.676
N23090 X0.3282 Y0.7483
N23100 X0.3263 Y0.7512
N23110 X0.2949 Y0.8033
N23120 X0.2934 Y0.8059
N23130 X0.2579 Y0.8734
N23140 X0.2566 Y0.8761
N23150 X0.2059 Y0.9879
N23160 X0.1674 Y1.0983
N23170 X0.1345 Y1.2339
N23180 X0.1251 Y1.2728 F61.1
N23190 G03 X0.0761 Y1.3138 I-0.0492 J-0.009
N23200 G01 X0.0361 Y1.314
N23210 X-0.036 Y1.3143 F76.4
N23220 X-0.076 Y1.3145 F61.1
N23230 G03 X-0.1251 Y1.275 I-0.0003 J-0.05
N23240 G01 X-0.1343 Y1.2361
N23250 X-0.1644 Y1.1081 F76.4
N23260 X-0.205 Y0.9922
N23270 X-0.2736 Y0.8433
N23280 X-0.3366 Y0.7351
N23290 X-0.3945 Y0.6548
N23300 X-0.3967 Y0.652
N23310 X-0.4573 Y0.5796
N23320 X-0.4597 Y0.5769
N23330 X-0.5472 Y0.4867
N23340 X-0.6363 Y0.4101
N23350 X-0.7577 Y0.3234
N23360 X-0.8566 Y0.2652
N23370 X-0.9368 Y0.2271
N23380 X-0.9399 Y0.2258
N23390 X-1.0207 Y0.1939
N23400 X-1.0239 Y0.1927
N23410 X-1.1406 Y0.1554
N23420 X-1.2293 Y0.1338
N23430 X-1.2454 Y0.1313 F61.1
N23440 X-1.2689 Y0.1279
N23450 G03 X-1.3116 Y0.0818 I0.0072 J-0.0495
N23460 G01 X-1.314 Y0.0418
N23470 X-1.3164 Y0.0012 F76.4
N23480 X-1.3139 Y-0.0414
N23490 X-1.3116 Y-0.0813 F61.1
N23500 G03 X-1.2714 Y-0.1275 I0.0499 J0.0029
N23510 G01 X-1.2321 Y-0.1352
N23520 X-1.1779 Y-0.1459 F76.4
N23530 X-1.1744 Y-0.1467
N23540 X-1.0816 Y-0.172
N23550 X-0.9654 Y-0.2159
N23560 X-0.8177 Y-0.2885
N23570 X-0.7119 Y-0.3537
N23580 X-0.6128 Y-0.4288
N23590 X-0.6102 Y-0.431
N23600 X-0.5438 Y-0.4887
N23610 X-0.5414 Y-0.491
N23620 X-0.4794 Y-0.5527
N23630 X-0.4041 Y-0.6427
N23640 X-0.318 Y-0.7668
N23650 X-0.2622 Y-0.8643
N23660 X-0.211 Y-0.975
N23670 X-0.1721 Y-1.0835
N23680 X-0.1342 Y-1.236
N23690 X-0.1245 Y-1.2749 F61.1
N23700 G03 X-0.0758 Y-1.3138 I0.0488 J0.0111
N23710 G01 X-0.0358 Y-1.3139
N23720 X0.037 Y-1.314 F76.4
N23730 X0.077 Y-1.3141 F61.1
N23740 G03 X0.1266 Y-1.2711 I0.0001 J0.05
N23750 G01 X0.1292 Y-1.2526
N23760 X0.1325 Y-1.2315
N23770 X0.158 Y-1.1325 F76.4
N23780 X0.2123 Y-0.9742
N23790 X0.2637 Y-0.861
N23800 X0.3231 Y-0.7578
N23810 X0.3863 Y-0.6669
N23820 X0.4807 Y-0.5532
N23830 G02 X0.5835 Y-0.4539 I0.5001 J-0.4152
N23840 G01 X0.7133 Y-0.3537
N23850 X0.8307 Y-0.2815
N23860 X0.982 Y-0.2093
N23870 G02 X1.1283 Y-0.1598 I0.2799 J-0.5866
N23880 G01 X1.2327 Y-0.1379
N23890 X1.2718 Y-0.1296 F61.1
N23900 G03 X1.3114 Y-0.0841 I-0.0103 J0.0489
N23910 G01 X1.3138 Y-0.0441
N23920 X1.3164 Y-0.0012 F76.4
N23930 X1.3138 Y0.0431
N23940 X1.3115 Y0.083 F61.1
N23950 G03 X1.2714 Y0.1291 I-0.0499 J-0.0029
N23960 G01 X1.2322 Y0.137
N23970 X1.1552 Y0.1523 F76.4
N23980 X1.0422 Y0.1858
N23990 X1.0412 Y0.1862
N24000 X1.004 Y0.201 F61.1
N24010 G02 X0.9725 Y0.2474 I0.0185 J0.0464
N24020 G01 Y0.2874
N24030 X0.972 Y0.6031 F76.4
N24040 X0.9716 Y0.9188
N24050 X0.9715 Y0.9588 F61.1
N24060 X0.9604 Y0.9901
N24070 X0.9353 Y1.0212
N24080 X0.8846 Y1.0841 F76.4
N24090 X0.8498 Y1.1417
N24100 X0.7979 Y1.2562
N24110 X0.7644 Y1.3901
N24120 X0.7562 Y1.4767
N24130 X0.7701 Y1.6475
N24140 X0.8012 Y1.7502
N24150 X0.8128 Y1.7885 F61.1
N24160 X0.7758 Y1.8037
N24170 X0.6166 Y1.8689 F76.4
N24180 X0.3775 Y1.9315
N24190 X0.1325 Y1.9635
N24200 X-0.1147 Y1.9647
N24210 X-0.2342 Y1.9532
N24220 X-0.36 Y1.9348
N24230 X-0.5997 Y1.8744
N24240 X-0.7756 Y1.8036
N24250 X-0.8127 Y1.7887 F61.1
N24260 X-0.7989 Y1.7511
N24270 X-0.7938 Y1.7369 F76.4
N24280 X-0.7624 Y1.5986
N24290 X-0.7596 Y1.4349
N24300 X-0.7664 Y1.3816
N24310 X-0.7954 Y1.2641
N24320 X-0.864 Y1.1152
N24330 X-0.924 Y1.0319
N24340 X-1.0139 Y0.9391
N24350 X-1.1353 Y0.8524
N24360 X-1.2186 Y0.8129
N24370 X-1.3385 Y0.7746
N24380 X-1.4353 Y0.7605
N24390 X-1.5367 Y0.7577
N24400 X-1.6837 Y0.7784
N24410 X-1.7499 Y0.8011
N24420 X-1.7878 Y0.8141 F61.1
N24430 X-1.805 Y0.778
N24440 X-1.8265 Y0.7327 F76.4
N24450 X-1.9039 Y0.498
N24460 X-1.9514 Y0.2555
N24470 X-1.968 Y0.0089
N24480 X-1.9536 Y-0.2378
N24490 X-1.9084 Y-0.4808
N24500 X-1.8331 Y-0.7162
N24510 X-1.8059 Y-0.7746
N24520 X-1.789 Y-0.8109 F61.1
N24530 X-1.7508 Y-0.799
N24540 X-1.7256 Y-0.7912 F76.4
N24550 X-1.5942 Y-0.7627
N24560 X-1.478 Y-0.7571
N24570 X-1.3484 Y-0.773
N24580 X-1.2522 Y-0.7992
N24590 X-1.1044 Y-0.8718
N24600 X-1.0026 Y-0.949
N24610 X-0.9382 Y-1.0131
N24620 X-0.8522 Y-1.1372
N24630 X-0.801 Y-1.2478
N24640 X-0.7651 Y-1.3853
N24650 X-0.7595 Y-1.5685
N24660 X-0.7862 Y-1.7136
N24670 X-0.7998 Y-1.7505
N24680 X-0.8137 Y-1.788 F61.1
N24690 X-0.7767 Y-1.8032
N24700 X-0.6166 Y-1.8689 F76.4
N24710 X-0.3775 Y-1.9315
N24720 X-0.1325 Y-1.9635
N24730 X0.1147 Y-1.9647
N24740 X0.36 Y-1.9348
N24750 X0.5997 Y-1.8744
N24760 X0.7784 Y-1.8024
N24770 X0.8155 Y-1.7874 F61.1
N24780 X0.8 Y-1.7506
N24790 X0.7922 Y-1.7323 F76.4
N24800 X0.7616 Y-1.5938
N24810 X0.7595 Y-1.438
N24820 X0.7728 Y-1.3434
N24830 X0.8271 Y-1.1852
N24840 X0.8865 Y-1.082
N24850 X0.9808 Y-0.9684
N24860 X1.1106 Y-0.8681
N24870 X1.2619 Y-0.7959
N24880 X1.4286 Y-0.7609
N24890 X1.4956 Y-0.7564
N24900 X1.6417 Y-0.7693
N24910 X1.7499 Y-0.8017
N24920 X1.7882 Y-0.8132 F61.1
N24930 X1.8054 Y-0.7771
N24940 X1.8265 Y-0.7327 F76.4
N24950 X1.9039 Y-0.498
N24960 X1.9514 Y-0.2555
N24970 X1.968 Y-0.0089
N24980 X1.9536 Y0.2378
N24990 X1.9084 Y0.4808
N25000 X1.8331 Y0.7162
N25010 X1.8055 Y0.7755
N25020 X1.7886 Y0.8117 F61.1
N25030 X1.7507 Y0.799
N25040 X1.7359 Y0.794 F76.4
N25050 X1.5381 Y0.7572
N25060 X1.4071 Y0.7649
N25070 X1.2826 Y0.7897
N25080 X1.1728 Y0.8334
N25090 X1.1082 Y0.8694
N25100 X1.0127 Y0.9398
N25110 X0.9604 Y0.9901
N25120 X0.9248 Y1.0041 Z-0.4986
N25130 X0.8898 Y0.9888 Z-0.4973
N25140 Z-0.4873 F76.4
N25150 G00 Z0.5
N25160 G00 X0.2149 Y0.9634
N25170 G00 Z-0.4861
N25180 G01 Z-0.4961 F76.4
N25190 X0.2711 Y0.8432 Z-0.5004
N25200 X0.3019 Y0.7851 Z-0.5026
N25210 X0.3385 Y0.7303 Z-0.5048
N25220 X0.429 Y0.6088 Z-0.5098
N25230 X0.4559 Y0.5751 Z-0.5112
N25240 X0.485 Y0.5432 Z-0.5126
N25250 X0.4992 Y0.5291 Z-0.5133
N25260 X0.5138 Y0.5154 Z-0.5139
N25270 X0.5301 Y0.4807 Z-0.5152
N25280 X0.5171 Y0.4447 Z-0.5165
N25290 X0.4901 Y0.4152 Z-0.5178
N25300 X0.4735 Y0.3971 Z-0.5186
N25310 X0.0781 Y-0.0348 Z-0.5288
N25320 X0.0768 Y-0.0361 Z-0.5289
N25330 X0.0643 Y-0.0488 Z-0.5292
N25340 X0.0362 Y-0.0773 Z-0.5299
N25350 X0.0131 Y-0.0906 Z-0.5303
N25360 X-0.0135 Y-0.0901 Z-0.5308
N25370 X-0.0362 Y-0.0761 Z-0.5313
N25380 X-0.0747 Y-0.035 Z-0.5323
N25390 X-0.0883 Y0.0002 Z-0.5329
N25400 X-0.0736 Y0.0348 Z-0.5336
N25410 X-0.0348 Y0.0733 Z-0.5345
N25420 X0.0004 Y0.0878 Z-0.5352
N25430 X0.0356 Y0.0733 Z-0.5359
N25440 X0.0749 Y0.036 Z-0.5368
N25450 X0.0912 Y0.0013 Z-0.5375
N25460 X0.0781 Y-0.0348 Z-0.5381
N25470 X0.066 Y-0.0584 Z-0.5386
N25480 X0.0678 Y-0.0849 Z-0.5391
N25490 X0.0828 Y-0.1068 Z-0.5395
N25500 X0.1135 Y-0.1325 Z-0.5402
N25510 X0.5408 Y-0.4914 Z-0.55
N25520 X0.1135 Y-0.1325 F76.4
N25530 X0.0828 Y-0.1068 F61.1
N25540 G02 X0.0781 Y-0.0348 I0.0322 J0.0383
N25550 G03 X0.0749 Y0.036 I-0.0369 J0.0338
N25560 G01 X0.0356 Y0.0733
N25570 G03 X-0.0348 Y0.0733 I-0.0352 J-0.0355
N25580 G01 X-0.0736 Y0.0348
N25590 G03 X-0.0747 Y-0.035 I0.0352 J-0.0354
N25600 G01 X-0.0362 Y-0.0761
N25610 G03 X0.0362 Y-0.0773 I0.0368 J0.0339
N25620 G01 X0.0643 Y-0.0488
N25630 X0.0768 Y-0.0361 F76.4
N25640 X0.0781 Y-0.0348
N25650 X0.4901 Y0.4152
N25660 X0.5171 Y0.4447 F61.1
N25670 G03 X0.5138 Y0.5154 I-0.0369 J0.0337
N25680 G01 X0.485 Y0.5432
N25690 X0.429 Y0.6088 F76.4
N25700 X0.3385 Y0.7303
N25710 X0.2711 Y0.8432
N25720 X0.2069 Y0.9805
N25730 X0.1635 Y1.1046
N25740 X0.1327 Y1.2348
N25750 X0.1235 Y1.2737 F61.1
N25760 G03 X0.0747 Y1.3138 I-0.049 J-0.0099
N25770 G01 X0.0347 Y1.314
N25780 X-0.0334 Y1.3143 F76.4
N25790 X-0.0734 Y1.3145 F61.1
N25800 G03 X-0.1224 Y1.2752 I-0.0002 J-0.05
N25810 G01 X-0.131 Y1.2361
N25820 X-0.1387 Y1.2007 F76.4
N25830 X-0.1394 Y1.198
N25840 X-0.1794 Y1.0548
N25850 X-0.2269 Y0.9333
N25860 X-0.2993 Y0.7924
N25870 X-0.3682 Y0.6873
N25880 X-0.4632 Y0.5693
N25890 X-0.5556 Y0.4757
N25900 X-0.6724 Y0.3791
N25910 X-0.7817 Y0.306
N25920 X-0.9155 Y0.235
N25930 X-1.0373 Y0.1854
N25940 X-1.1794 Y0.1437
N25950 X-1.1827 Y0.1429
N25960 X-1.2337 Y0.1316
N25970 X-1.2728 Y0.123 F61.1
N25980 G03 X-1.3119 Y0.0776 I0.0108 J-0.0488
N25990 G01 X-1.3143 Y0.0376
N26000 X-1.3164 Y0.0012 F76.4
N26010 X-1.3141 Y-0.0387
N26020 X-1.3118 Y-0.0787 F61.1
N26030 G03 X-1.2728 Y-0.1245 I0.05 J0.003
N26040 G01 X-1.2338 Y-0.1333
N26050 X-1.1224 Y-0.1584 F76.4
N26060 X-0.9977 Y-0.2001
N26070 X-0.8596 Y-0.2624
N26080 X-0.7458 Y-0.3284
N26090 X-0.6231 Y-0.4173
N26100 X-0.5249 Y-0.5048
N26110 X-0.4226 Y-0.6165
N26120 X-0.3441 Y-0.722
N26130 X-0.2664 Y-0.852
N26140 X-0.2107 Y-0.9712
N26150 X-0.1607 Y-1.1142
N26160 X-0.1313 Y-1.2337
N26170 X-0.1301 Y-1.2421 F61.1
N26180 X-0.1249 Y-1.2731
N26190 G03 X-0.0758 Y-1.3138 I0.0492 J0.0093
N26200 G01 X-0.0358 Y-1.3139
N26210 X0.037 Y-1.314 F76.4
N26220 X0.077 Y-1.3141 F61.1
N26230 G03 X0.1265 Y-1.2716 I0.0001 J0.05
N26240 G01 X0.1335 Y-1.2322
N26250 X0.1408 Y-1.191 F76.4
N26260 X0.1762 Y-1.0643
N26270 X0.2315 Y-0.9232
N26280 X0.2916 Y-0.8063
N26290 X0.3741 Y-0.6792
N26300 X0.4565 Y-0.5767
N26310 X0.5629 Y-0.4689
N26320 X0.6643 Y-0.3851
N26330 X0.7903 Y-0.3009
N26340 X0.9064 Y-0.2392
N26350 X1.0468 Y-0.1821
N26360 X1.173 Y-0.1451
N26370 X1.2316 Y-0.1342
N26380 X1.2709 Y-0.1269 F61.1
N26390 G03 X1.3116 Y-0.0811 I-0.0091 J0.0492
N26400 G01 X1.314 Y-0.0412
N26410 X1.3164 Y-0.0012 F76.4
N26420 X1.3141 Y0.0393
N26430 X1.3117 Y0.0792 F61.1
N26440 G03 X1.2678 Y0.1259 I-0.0499 J-0.0029
N26450 G01 X1.2603 Y0.1268
N26460 X1.2282 Y0.1315
N26470 X1.132 Y0.1557 F76.4
N26480 X0.9884 Y0.2037
N26490 X0.8685 Y0.2579
N26500 X0.7374 Y0.3338
N26510 X0.6309 Y0.411
N26520 X0.6113 Y0.4284
N26530 X0.5815 Y0.4551 F61.1
N26540 G02 X0.5777 Y0.5259 I0.0332 J0.0372
N26550 G01 X0.6046 Y0.5555
N26560 X0.7625 Y0.7297 F76.4
N26570 X0.9204 Y0.904
N26580 X0.9473 Y0.9336 F61.1
N26590 G03 X0.9504 Y0.997 I-0.037 J0.0335
N26600 G01 X0.9265 Y1.0291
N26610 X0.8961 Y1.0698 F76.4
N26620 X0.8846 Y1.0841
N26630 X0.8808 Y1.0904
N26640 X0.8599 Y1.1185
N26650 X0.7957 Y1.2557
N26660 X0.7605 Y1.4031
N26670 X0.7591 Y1.4454
N26680 X0.7562 Y1.4767
N26690 X0.7576 Y1.4941
N26700 X0.7557 Y1.5545
N26710 X0.7677 Y1.6182
N26720 X0.7701 Y1.6475
N26730 X0.7785 Y1.6753
N26740 X0.7852 Y1.7104
N26750 X0.7994 Y1.7508
N26760 X0.8126 Y1.7886 F61.1
N26770 X0.7756 Y1.8037
N26780 X0.6166 Y1.8689 F76.4
N26790 X0.3775 Y1.9315
N26800 X0.1325 Y1.9635
N26810 X-0.1147 Y1.9647
N26820 X-0.2342 Y1.9532
N26830 X-0.36 Y1.9348
N26840 X-0.5997 Y1.8744
N26850 X-0.7742 Y1.8041
N26860 X-0.8113 Y1.7892 F61.1
N26870 X-0.7988 Y1.7512
N26880 X-0.7977 Y1.7477 F76.4
N26890 X-0.7938 Y1.7369
N26900 X-0.7929 Y1.733
N26910 X-0.7744 Y1.6767
N26920 X-0.7661 Y1.6152
N26930 X-0.7624 Y1.5986
N26940 X-0.7621 Y1.5855
N26950 X-0.7542 Y1.5265
N26960 X-0.7598 Y1.4461
N26970 X-0.7596 Y1.4349
N26980 X-0.7618 Y1.4181
N26990 X-0.7647 Y1.3754
N27000 X-0.7924 Y1.2763
N27010 X-0.7954 Y1.2641
N27020 X-0.7964 Y1.2619
N27030 X-0.8055 Y1.2295
N27040 X-0.8621 Y1.1193
N27050 X-0.864 Y1.1152
N27060 X-0.8648 Y1.1141
N27070 X-0.8747 Y1.0947
N27080 X-0.9131 Y1.047
N27090 X-0.924 Y1.0319
N27100 X-0.9314 Y1.0242
N27110 X-0.9697 Y0.9767
N27120 X-1.009 Y0.9442
N27130 X-1.0139 Y0.9391
N27140 X-1.0229 Y0.9327
N27150 X-1.0864 Y0.8802
N27160 X-1.1255 Y0.8594
N27170 X-1.1353 Y0.8524
N27180 X-1.1673 Y0.8372
N27190 X-1.2203 Y0.8091
N27200 X-1.3656 Y0.7665
N27210 X-1.4327 Y0.7609
N27220 X-1.4353 Y0.7605
N27230 X-1.4383
N27240 X-1.5166 Y0.754
N27250 X-1.6845 Y0.7783
N27260 X-1.7463 Y0.799
N27270 X-1.7842 Y0.8118 F61.1
N27280 X-1.8031 Y0.7765
N27290 X-1.8265 Y0.7327 F76.4
N27300 X-1.9039 Y0.498
N27310 X-1.9514 Y0.2555
N27320 X-1.968 Y0.0089
N27330 X-1.9536 Y-0.2378
N27340 X-1.9084 Y-0.4808
N27350 X-1.8331 Y-0.7162
N27360 X-1.8059 Y-0.7746
N27370 X-1.789 Y-0.8109 F61.1
N27380 X-1.7513 Y-0.7975
N27390 X-1.7134 Y-0.7841 F76.4
N27400 X-1.5644 Y-0.7564
N27410 X-1.4915 Y-0.7578
N27420 X-1.478 Y-0.7571
N27430 X-1.4693 Y-0.7582
N27440 X-1.4129 Y-0.7592
N27450 X-1.3555 Y-0.7722
N27460 X-1.3484 Y-0.773
N27470 X-1.3327 Y-0.7773
N27480 X-1.2651 Y-0.7925
N27490 X-1.1271 Y-0.8549
N27500 X-1.0043 Y-0.9437
N27510 X-0.9677 Y-0.9838
N27520 X-0.9382 Y-1.0131
N27530 X-0.9302 Y-1.0247
N27540 X-0.902 Y-1.0554
N27550 X-0.8595 Y-1.1267
N27560 X-0.8522 Y-1.1372
N27570 X-0.8487 Y-1.1447
N27580 X-0.8243 Y-1.1855
N27590 X-0.8074 Y-1.2341
N27600 X-0.801 Y-1.2478
N27610 X-0.7964 Y-1.2655
N27620 X-0.7744 Y-1.3285
N27630 X-0.7685 Y-1.3725
N27640 X-0.7651 Y-1.3853
N27650 X-0.7646 Y-1.4012
N27660 X-0.7542 Y-1.4787
N27670 X-0.7598 Y-1.5584
N27680 X-0.7595 Y-1.5685
N27690 X-0.7611 Y-1.5774
N27700 X-0.7647 Y-1.6298
N27710 X-0.7828 Y-1.6953
N27720 X-0.7862 Y-1.7136
N27730 X-0.7987 Y-1.7474
N27740 X-0.7998 Y-1.7505
N27750 X-0.8135 Y-1.7881 F61.1
N27760 X-0.7765 Y-1.8033
N27770 X-0.6166 Y-1.8689 F76.4
N27780 X-0.3775 Y-1.9315
N27790 X-0.1325 Y-1.9635
N27800 X0.1147 Y-1.9647
N27810 X0.36 Y-1.9348
N27820 X0.5997 Y-1.8744
N27830 X0.7747 Y-1.8039
N27840 X0.8101 Y-1.7896 F61.1
N27850 X0.8118 Y-1.7887
N27860 X0.7966 Y-1.7517
N27870 X0.7957 Y-1.7495 F76.4
N27880 X0.7605 Y-1.6021
N27890 X0.7557 Y-1.4507
N27900 X0.7669 Y-1.3858
N27910 X0.7728 Y-1.3434
N27920 X0.7755 Y-1.3357
N27930 X0.7814 Y-1.3014
N27940 X0.8367 Y-1.1603
N27950 X0.8783 Y-1.0962
N27960 X0.8865 Y-1.082
N27970 X0.8913 Y-1.0762
N27980 X0.9192 Y-1.0333
N27990 X0.9679 Y-0.9839
N28000 X0.9808 Y-0.9684
N28010 X0.9911 Y-0.9604
N28020 X1.0256 Y-0.9255
N28030 X1.1058 Y-0.8718
N28040 X1.1106 Y-0.8681
N28050 X1.1132 Y-0.8669
N28060 X1.1515 Y-0.8413
N28070 X1.2562 Y-0.7986
N28080 X1.2619 Y-0.7959
N28090 X1.264 Y-0.7955
N28100 X1.2919 Y-0.7841
N28110 X1.4408 Y-0.7564
N28120 X1.4839 Y-0.7572
N28130 X1.4956 Y-0.7564
N28140 X1.51 Y-0.7577
N28150 X1.5923 Y-0.7592
N28160 X1.6403 Y-0.7692
N28170 X1.6417 Y-0.7693
N28180 X1.6435 Y-0.7698
N28190 X1.6922 Y-0.7799
N28200 X1.7504 Y-0.8002
N28210 X1.7847 Y-0.8121 F61.1
N28220 X1.7882 Y-0.8132
N28230 X1.8054 Y-0.7771
N28240 X1.8265 Y-0.7327 F76.4
N28250 X1.9039 Y-0.498
N28260 X1.9514 Y-0.2555
N28270 X1.968 Y-0.0089
N28280 X1.9536 Y0.2378
N28290 X1.9084 Y0.4808
N28300 X1.8331 Y0.7162
N28310 X1.8055 Y0.7755
N28320 X1.7886 Y0.8117 F61.1
N28330 X1.7507 Y0.799
N28340 X1.7359 Y0.794 F76.4
N28350 X1.7212 Y0.7913
N28360 X1.6396 Y0.7665
N28370 X1.5466 Y0.7588
N28380 X1.5381 Y0.7572
N28390 X1.5319 Y0.7576
N28400 X1.4886 Y0.754
N28410 X1.3382 Y0.7721
N28420 X1.2899 Y0.7883
N28430 X1.2826 Y0.7897
N28440 X1.267 Y0.7959
N28450 X1.1945 Y0.8202
N28460 X1.1439 Y0.8495
N28470 X1.1082 Y0.8694
N28480 X1.103 Y0.8732
N28490 X1.0634 Y0.8962
N28500 X1.0232 Y0.9321
N28510 X1.0127 Y0.9398
N28520 X0.9902 Y0.9615
N28530 X0.9504 Y0.997
N28540 X0.9142 Y1.0096 Z-0.5486
N28550 X0.8798 Y0.9929 Z-0.5473
N28560 Z-0.5373 F76.4
N28570 G00 Z0.5
N28580 G00 X0.2149 Y0.9634
N28590 G00 Z-0.5361
N28600 G01 Z-0.5461 F76.4
N28610 X0.2711 Y0.8432 Z-0.5504
N28620 X0.3019 Y0.7851 Z-0.5526
N28630 X0.3385 Y0.7303 Z-0.5548
N28640 X0.429 Y0.6088 Z-0.5598
N28650 X0.4559 Y0.5751 Z-0.5612
N28660 X0.485 Y0.5432 Z-0.5626
N28670 X0.4992 Y0.5291 Z-0.5633
N28680 X0.5138 Y0.5154 Z-0.5639
N28690 X0.5301 Y0.4807 Z-0.5652
N28700 X0.5171 Y0.4447 Z-0.5665
N28710 X0.4901 Y0.4152 Z-0.5678
N28720 X0.4735 Y0.3971 Z-0.5686
N28730 X0.0781 Y-0.0348 Z-0.5788
N28740 X0.0768 Y-0.0361 Z-0.5789
N28750 X0.0643 Y-0.0488 Z-0.5792
N28760 X0.0362 Y-0.0773 Z-0.5799
N28770 X0.0131 Y-0.0906 Z-0.5803
N28780 X-0.0135 Y-0.0901 Z-0.5808
N28790 X-0.0362 Y-0.0761 Z-0.5813
N28800 X-0.0747 Y-0.035 Z-0.5823
N28810 X-0.0883 Y0.0002 Z-0.5829
N28820 X-0.0736 Y0.0348 Z-0.5836
N28830 X-0.0348 Y0.0733 Z-0.5845
N28840 X0.0004 Y0.0878 Z-0.5852
N28850 X0.0356 Y0.0733 Z-0.5859
N28860 X0.0749 Y0.036 Z-0.5868
N28870 X0.0912 Y0.0013 Z-0.5875
N28880 X0.0781 Y-0.0348 Z-0.5881
N28890 X0.066 Y-0.0584 Z-0.5886
N28900 X0.0678 Y-0.0849 Z-0.5891
N28910 X0.0828 Y-0.1068 Z-0.5895
N28920 X0.1135 Y-0.1325 Z-0.5902
N28930 X0.5408 Y-0.4914 Z-0.6
N28940 X0.1135 Y-0.1325 F76.4
N28950 X0.0828 Y-0.1068 F61.1
N28960 G02 X0.0781 Y-0.0348 I0.0322 J0.0383
N28970 G03 X0.0749 Y0.036 I-0.0369 J0.0338
N28980 G01 X0.0356 Y0.0733
N28990 G03 X-0.0348 Y0.0733 I-0.0352 J-0.0355
N29000 G01 X-0.0736 Y0.0348
N29010 G03 X-0.0747 Y-0.035 I0.0352 J-0.0354
N29020 G01 X-0.0362 Y-0.0761
N29030 G03 X0.0362 Y-0.0773 I0.0368 J0.0339
N29040 G01 X0.0643 Y-0.0488
N29050 X0.0768 Y-0.0361 F76.4
N29060 X0.0781 Y-0.0348
N29070 X0.4901 Y0.4152
N29080 X0.5171 Y0.4447 F61.1
N29090 G03 X0.5138 Y0.5154 I-0.0369 J0.0337
N29100 G01 X0.485 Y0.5432
N29110 X0.429 Y0.6088 F76.4
N29120 X0.3385 Y0.7303
N29130 X0.2711 Y0.8432
N29140 X0.2069 Y0.9805
N29150 X0.1635 Y1.1046
N29160 X0.1327 Y1.2348
N29170 X0.1235 Y1.2737 F61.1
N29180 G03 X0.0747 Y1.3138 I-0.049 J-0.0099
N29190 G01 X0.0347 Y1.314
N29200 X-0.0334 Y1.3143 F76.4
N29210 X-0.0734 Y1.3145 F61.1
N29220 G03 X-0.1224 Y1.2752 I-0.0002 J-0.05
N29230 G01 X-0.131 Y1.2361
N29240 X-0.1387 Y1.2007 F76.4
N29250 X-0.1394 Y1.198
N29260 X-0.1794 Y1.0548
N29270 X-0.2269 Y0.9333
N29280 X-0.2993 Y0.7924
N29290 X-0.3682 Y0.6873
N29300 X-0.4632 Y0.5693
N29310 X-0.5556 Y0.4757
N29320 X-0.6724 Y0.3791
N29330 X-0.7817 Y0.306
N29340 X-0.9155 Y0.235
N29350 X-1.0373 Y0.1854
N29360 X-1.1794 Y0.1437
N29370 X-1.1827 Y0.1429
N29380 X-1.2337 Y0.1316
N29390 X-1.2728 Y0.123 F61.1
N29400 G03 X-1.3119 Y0.0776 I0.0108 J-0.0488
N29410 G01 X-1.3143 Y0.0376
N29420 X-1.3164 Y0.0012 F76.4
N29430 X-1.3141 Y-0.0387
N29440 X-1.3118 Y-0.0787 F61.1
N29450 G03 X-1.2728 Y-0.1245 I0.05 J0.003
N29460 G01 X-1.2338 Y-0.1333
N29470 X-1.1224 Y-0.1584 F76.4
N29480 X-0.9977 Y-0.2001
N29490 X-0.8596 Y-0.2624
N29500 X-0.7458 Y-0.3284
N29510 X-0.6231 Y-0.4173
N29520 X-0.5249 Y-0.5048
N29530 X-0.4226 Y-0.6165
N29540 X-0.3441 Y-0.722
N29550 X-0.2664 Y-0.852
N29560 X-0.2107 Y-0.9712
N29570 X-0.1607 Y-1.1142
N29580 X-0.1313 Y-1.2337
N29590 X-0.1301 Y-1.2421 F61.1
N29600 X-0.1249 Y-1.2731
N29610 G03 X-0.0758 Y-1.3138 I0.0492 J0.0093
N29620 G01 X-0.0358 Y-1.3139
N29630 X0.037 Y-1.314 F76.4
N29640 X0.077 Y-1.3141 F61.1
N29650 G03 X0.1265 Y-1.2716 I0.0001 J0.05
N29660 G01 X0.1335 Y-1.2322
N29670 X0.1408 Y-1.191 F76.4
N29680 X0.1762 Y-1.0643
N29690 X0.2315 Y-0.9232
N29700 X0.2916 Y-0.8063
N29710 X0.3741 Y-0.6792
N29720 X0.4565 Y-0.5767
N29730 X0.5629 Y-0.4689
N29740 X0.6643 Y-0.3851
N29750 X0.7903 Y-0.3009
N29760 X0.9064 Y-0.2392
N29770 X1.0468 Y-0.1821
N29780 X1.173 Y-0.1451
N29790 X1.2316 Y-0.1342
N29800 X1.2709 Y-0.1269 F61.1
N29810 G03 X1.3116 Y-0.0811 I-0.0091 J0.0492
N29820 G01 X1.314 Y-0.0412
N29830 X1.3164 Y-0.0012 F76.4
N29840 X1.3141 Y0.0393
N29850 X1.3117 Y0.0792 F61.1
N29860 G03 X1.2678 Y0.1259 I-0.0499 J-0.0029
N29870 G01 X1.2603 Y0.1268
N29880 X1.2282 Y0.1315
N29890 X1.132 Y0.1557 F76.4
N29900 X0.9884 Y0.2037
N29910 X0.8685 Y0.2579
N29920 X0.7374 Y0.3338
N29930 X0.6309 Y0.411
N29940 X0.6113 Y0.4284
N29950 X0.5815 Y0.4551 F61.1
N29960 G02 X0.5777 Y0.5259 I0.0332 J0.0372
N29970 G01 X0.6046 Y0.5555
N29980 X0.7625 Y0.7297 F76.4
N29990 X0.9204 Y0.904
N30000 X0.9473 Y0.9336 F61.1
N30010 G03 X0.9504 Y0.997 I-0.037 J0.0335
N30020 G01 X0.9265 Y1.0291
N30030 X0.8961 Y1.0698 F76.4
N30040 X0.8846 Y1.0841
N30050 X0.8808 Y1.0904
N30060 X0.8599 Y1.1185
N30070 X0.7957 Y1.2557
N30080 X0.7605 Y1.4031
N30090 X0.7591 Y1.4454
N30100 X0.7562 Y1.4767
N30110 X0.7576 Y1.4941
N30120 X0.7557 Y1.5545
N30130 X0.7677 Y1.6182
N30140 X0.7701 Y1.6475
N30150 X0.7785 Y1.6753
N30160 X0.7852 Y1.7104
N30170 X0.7994 Y1.7508
N30180 X0.8126 Y1.7886 F61.1
N30190 X0.7756 Y1.8037
N30200 X0.6166 Y1.8689 F76.4
N30210 X0.3775 Y1.9315
N30220 X0.1325 Y1.9635
N30230 X-0.1147 Y1.9647
N30240 X-0.2342 Y1.9532
N30250 X-0.36 Y1.9348
N30260 X-0.5997 Y1.8744
N30270 X-0.7742 Y1.8041
N30280 X-0.8113 Y1.7892 F61.1
N30290 X-0.7988 Y1.7512
N30300 X-0.7977 Y1.7477 F76.4
N30310 X-0.7938 Y1.7369
N30320 X-0.7929 Y1.733
N30330 X-0.7744 Y1.6767
N30340 X-0.7661 Y1.6152
N30350 X-0.7624 Y1.5986
N30360 X-0.7621 Y1.5855
N30370 X-0.7542 Y1.5265
N30380 X-0.7598 Y1.4461
N30390 X-0.7596 Y1.4349
N30400 X-0.7618 Y1.4181
N30410 X-0.7647 Y1.3754
N30420 X-0.7924 Y1.2763
N30430 X-0.7954 Y1.2641
N30440 X-0.7964 Y1.2619
N30450 X-0.8055 Y1.2295
N30460 X-0.8621 Y1.1193
N30470 X-0.864 Y1.1152
N30480 X-0.8648 Y1.1141
N30490 X-0.8747 Y1.0947
N30500 X-0.9131 Y1.047
N30510 X-0.924 Y1.0319
N30520 X-0.9314 Y1.0242
N30530 X-0.9697 Y0.9767
N30540 X-1.009 Y0.9442
N30550 X-1.0139 Y0.9391
N30560 X-1.0229 Y0.9327
N30570 X-1.0864 Y0.8802
N30580 X-1.1255 Y0.8594
N30590 X-1.1353 Y0.8524
N30600 X-1.1673 Y0.8372
N30610 X-1.2203 Y0.8091
N30620 X-1.3656 Y0.7665
N30630 X-1.4327 Y0.7609
N30640 X-1.4353 Y0.7605
N30650 X-1.4383
N30660 X-1.5166 Y0.754
N30670 X-1.6845 Y0.7783
N30680 X-1.7463 Y0.799
N30690 X-1.7842 Y0.8118 F61.1
N30700 X-1.8031 Y0.7765
N30710 X-1.8265 Y0.7327 F76.4
N30720 X-1.9039 Y0.498
N30730 X-1.9514 Y0.2555
N30740 X-1.968 Y0.0089
N30750 X-1.9536 Y-0.2378
N30760 X-1.9084 Y-0.4808
N30770 X-1.8331 Y-0.7162
N30780 X-1.8059 Y-0.7746
N30790 X-1.789 Y-0.8109 F61.1
N30800 X-1.7513 Y-0.7975
N30810 X-1.7134 Y-0.7841 F76.4
N30820 X-1.5644 Y-0.7564
N30830 X-1.4915 Y-0.7578
N30840 X-1.478 Y-0.7571
N30850 X-1.4693 Y-0.7582
N30860 X-1.4129 Y-0.7592
N30870 X-1.3555 Y-0.7722
N30880 X-1.3484 Y-0.773
N30890 X-1.3327 Y-0.7773
N30900 X-1.2651 Y-0.7925
N30910 X-1.1271 Y-0.8549
N30920 X-1.0043 Y-0.9437
N30930 X-0.9677 Y-0.9838
N30940 X-0.9382 Y-1.0131
N30950 X-0.9302 Y-1.0247
N30960 X-0.902 Y-1.0554
N30970 X-0.8595 Y-1.1267
N30980 X-0.8522 Y-1.1372
N30990 X-0.8487 Y-1.1447
N31000 X-0.8243 Y-1.1855
N31010 X-0.8074 Y-1.2341
N31020 X-0.801 Y-1.2478
N31030 X-0.7964 Y-1.2655
N31040 X-0.7744 Y-1.3285
N31050 X-0.7685 Y-1.3725
N31060 X-0.7651 Y-1.3853
N31070 X-0.7646 Y-1.4012
N31080 X-0.7542 Y-1.4787
N31090 X-0.7598 Y-1.5584
N31100 X-0.7595 Y-1.5685
N31110 X-0.7611 Y-1.5774
N31120 X-0.7647 Y-1.6298
N31130 X-0.7828 Y-1.6953
N31140 X-0.7862 Y-1.7136
N31150 X-0.7987 Y-1.7474
N31160 X-0.7998 Y-1.7505
N31170 X-0.8135 Y-1.7881 F61.1
N31180 X-0.7765 Y-1.8033
N31190 X-0.6166 Y-1.8689 F76.4
N31200 X-0.3775 Y-1.9315
N31210 X-0.1325 Y-1.9635
N31220 X0.1147 Y-1.9647
N31230 X0.36 Y-1.9348
N31240 X0.5997 Y-1.8744
N31250 X0.7747 Y-1.8039
N31260 X0.8101 Y-1.7896 F61.1
N31270 X0.8118 Y-1.7887
N31280 X0.7966 Y-1.7517
N31290 X0.7957 Y-1.7495 F76.4
N31300 X0.7605 Y-1.6021
N31310 X0.7557 Y-1.4507
N31320 X0.7669 Y-1.3858
N31330 X0.7728 Y-1.3434
N31340 X0.7755 Y-1.3357
N31350 X0.7814 Y-1.3014
N31360 X0.8367 Y-1.1603
N31370 X0.8783 Y-1.0962
N31380 X0.8865 Y-1.082
N31390 X0.8913 Y-1.0762
N31400 X0.9192 Y-1.0333
N31410 X0.9679 Y-0.9839
N31420 X0.9808 Y-0.9684
N31430 X0.9911 Y-0.9604
N31440 X1.0256 Y-0.9255
N31450 X1.1058 Y-0.8718
N31460 X1.1106 Y-0.8681
N31470 X1.1132 Y-0.8669
N31480 X1.1515 Y-0.8413
N31490 X1.2562 Y-0.7986
N31500 X1.2619 Y-0.7959
N31510 X1.264 Y-0.7955
N31520 X1.2919 Y-0.7841
N31530 X1.4408 Y-0.7564
N31540 X1.4839 Y-0.7572
N31550 X1.4956 Y-0.7564
N31560 X1.51 Y-0.7577
N31570 X1.5923 Y-0.7592
N31580 X1.6403 Y-0.7692
N31590 X1.6417 Y-0.7693
N31600 X1.6435 Y-0.7698
N31610 X1.6922 Y-0.7799
N31620 X1.7504 Y-0.8002
N31630 X1.7847 Y-0.8121 F61.1
N31640 X1.7882 Y-0.8132
N31650 X1.8054 Y-0.7771
N31660 X1.8265 Y-0.7327 F76.4
N31670 X1.9039 Y-0.498
N31680 X1.9514 Y-0.2555
N31690 X1.968 Y-0.0089
N31700 X1.9536 Y0.2378
N31710 X1.9084 Y0.4808
N31720 X1.8331 Y0.7162
N31730 X1.8055 Y0.7755
N31740 X1.7886 Y0.8117 F61.1
N31750 X1.7507 Y0.799
N31760 X1.7359 Y0.794 F76.4
N31770 X1.7212 Y0.7913
N31780 X1.6396 Y0.7665
N31790 X1.5466 Y0.7588
N31800 X1.5381 Y0.7572
N31810 X1.5319 Y0.7576
N31820 X1.4886 Y0.754
N31830 X1.3382 Y0.7721
N31840 X1.2899 Y0.7883
N31850 X1.2826 Y0.7897
N31860 X1.267 Y0.7959
N31870 X1.1945 Y0.8202
N31880 X1.1439 Y0.8495
N31890 X1.1082 Y0.8694
N31900 X1.103 Y0.8732
N31910 X1.0634 Y0.8962
N31920 X1.0232 Y0.9321
N31930 X1.0127 Y0.9398
N31940 X0.9902 Y0.9615
N31950 X0.9504 Y0.997
N31960 X0.9142 Y1.0096 Z-0.5986
N31970 X0.8798 Y0.9929 Z-0.5973
N31980 Z-0.5873 F76.4
N31990 G00 Z0.5
N32000 G00 X0.2149 Y0.9634
N32010 G00 Z-0.5861
N32020 G01 Z-0.5961 F76.4
N32030 X0.2711 Y0.8432 Z-0.6004
N32040 X0.3019 Y0.7851 Z-0.6026
N32050 X0.3385 Y0.7303 Z-0.6048
N32060 X0.429 Y0.6088 Z-0.6098
N32070 X0.4559 Y0.5751 Z-0.6112
N32080 X0.485 Y0.5432 Z-0.6126
N32090 X0.4992 Y0.5291 Z-0.6133
N32100 X0.5138 Y0.5154 Z-0.6139
N32110 X0.5301 Y0.4807 Z-0.6152
N32120 X0.5171 Y0.4447 Z-0.6165
N32130 X0.4901 Y0.4152 Z-0.6178
N32140 X0.4735 Y0.3971 Z-0.6186
N32150 X0.0781 Y-0.0348 Z-0.6288
N32160 X0.0768 Y-0.0361 Z-0.6289
N32170 X0.0643 Y-0.0488 Z-0.6292
N32180 X0.0362 Y-0.0773 Z-0.6299
N32190 X0.0131 Y-0.0906 Z-0.6303
N32200 X-0.0135 Y-0.0901 Z-0.6308
N32210 X-0.0362 Y-0.0761 Z-0.6313
N32220 X-0.0747 Y-0.035 Z-0.6323
N32230 X-0.0883 Y0.0002 Z-0.6329
N32240 X-0.0736 Y0.0348 Z-0.6336
N32250 X-0.0348 Y0.0733 Z-0.6345
N32260 X0.0004 Y0.0878 Z-0.6352
N32270 X0.0356 Y0.0733 Z-0.6359
N32280 X0.0749 Y0.036 Z-0.6368
N32290 X0.0912 Y0.0013 Z-0.6375
N32300 X0.0781 Y-0.0348 Z-0.6381
N32310 X0.066 Y-0.0584 Z-0.6386
N32320 X0.0678 Y-0.0849 Z-0.6391
N32330 X0.0828 Y-0.1068 Z-0.6395
N32340 X0.1135 Y-0.1325 Z-0.6402
N32350 X0.5408 Y-0.4914 Z-0.65
N32360 X0.1135 Y-0.1325 F76.4
N32370 X0.0828 Y-0.1068 F61.1
N32380 G02 X0.0781 Y-0.0348 I0.0322 J0.0383
N32390 G03 X0.0749 Y0.036 I-0.0369 J0.0338
N32400 G01 X0.0356 Y0.0733
N32410 G03 X-0.0348 Y0.0733 I-0.0352 J-0.0355
N32420 G01 X-0.0736 Y0.0348
N32430 G03 X-0.0747 Y-0.035 I0.0352 J-0.0354
N32440 G01 X-0.0362 Y-0.0761
N32450 G03 X0.0362 Y-0.0773 I0.0368 J0.0339
N32460 G01 X0.0643 Y-0.0488
N32470 X0.0768 Y-0.0361 F76.4
N32480 X0.0781 Y-0.0348
N32490 X0.4901 Y0.4152
N32500 X0.5171 Y0.4447 F61.1
N32510 G03 X0.5138 Y0.5154 I-0.0369 J0.0337
N32520 G01 X0.485 Y0.5432
N32530 X0.429 Y0.6088 F76.4
N32540 X0.3385 Y0.7303
N32550 X0.2711 Y0.8432
N32560 X0.2069 Y0.9805
N32570 X0.1635 Y1.1046
N32580 X0.1327 Y1.2348
N32590 X0.1235 Y1.2737 F61.1
N32600 G03 X0.0747 Y1.3138 I-0.049 J-0.0099
N32610 G01 X0.0347 Y1.314
N32620 X-0.0334 Y1.3143 F76.4
N32630 X-0.0734 Y1.3145 F61.1
N32640 G03 X-0.1224 Y1.2752 I-0.0002 J-0.05
N32650 G01 X-0.131 Y1.2361
N32660 X-0.1387 Y1.2007 F76.4
N32670 X-0.1394 Y1.198
N32680 X-0.1794 Y1.0548
N32690 X-0.2269 Y0.9333
N32700 X-0.2993 Y0.7924
N32710 X-0.3682 Y0.6873
N32720 X-0.4632 Y0.5693
N32730 X-0.5556 Y0.4757
N32740 X-0.6724 Y0.3791
N32750 X-0.7817 Y0.306
N32760 X-0.9155 Y0.235
N32770 X-1.0373 Y0.1854
N32780 X-1.1794 Y0.1437
N32790 X-1.1827 Y0.1429
N32800 X-1.2337 Y0.1316
N32810 X-1.2728 Y0.123 F61.1
N32820 G03 X-1.3119 Y0.0776 I0.0108 J-0.0488
N32830 G01 X-1.3143 Y0.0376
N32840 X-1.3164 Y0.0012 F76.4
N32850 X-1.3141 Y-0.0387
N32860 X-1.3118 Y-0.0787 F61.1
N32870 G03 X-1.2728 Y-0.1245 I0.05 J0.003
N32880 G01 X-1.2338 Y-0.1333
N32890 X-1.1224 Y-0.1584 F76.4
N32900 X-0.9977 Y-0.2001
N32910 X-0.8596 Y-0.2624
N32920 X-0.7458 Y-0.3284
N32930 X-0.6231 Y-0.4173
N32940 X-0.5249 Y-0.5048
N32950 X-0.4226 Y-0.6165
N32960 X-0.3441 Y-0.722
N32970 X-0.2664 Y-0.852
N32980 X-0.2107 Y-0.9712
N32990 X-0.1607 Y-1.1142
N33000 X-0.1313 Y-1.2337
N33010 X-0.1301 Y-1.2421 F61.1
N33020 X-0.1249 Y-1.2731
N33030 G03 X-0.0758 Y-1.3138 I0.0492 J0.0093
N33040 G01 X-0.0358 Y-1.3139
N33050 X0.037 Y-1.314 F76.4
N33060 X0.077 Y-1.3141 F61.1
N33070 G03 X0.1265 Y-1.2716 I0.0001 J0.05
N33080 G01 X0.1335 Y-1.2322
N33090 X0.1408 Y-1.191 F76.4
N33100 X0.1762 Y-1.0643
N33110 X0.2315 Y-0.9232
N33120 X0.2916 Y-0.8063
N33130 X0.3741 Y-0.6792
N33140 X0.4565 Y-0.5767
N33150 X0.5629 Y-0.4689
N33160 X0.6643 Y-0.3851
N33170 X0.7903 Y-0.3009
N33180 X0.9064 Y-0.2392
N33190 X1.0468 Y-0.1821
N33200 X1.173 Y-0.1451
N33210 X1.2316 Y-0.1342
N33220 X1.2709 Y-0.1269 F61.1
N33230 G03 X1.3116 Y-0.0811 I-0.0091 J0.0492
N33240 G01 X1.314 Y-0.0412
N33250 X1.3164 Y-0.0012 F76.4
N33260 X1.3141 Y0.0393
N33270 X1.3117 Y0.0792 F61.1
N33280 G03 X1.2678 Y0.1259 I-0.0499 J-0.0029
N33290 G01 X1.2603 Y0.1268
N33300 X1.2282 Y0.1315
N33310 X1.132 Y0.1557 F76.4
N33320 X0.9884 Y0.2037
N33330 X0.8685 Y0.2579
N33340 X0.7374 Y0.3338
N33350 X0.6309 Y0.411
N33360 X0.6113 Y0.4284
N33370 X0.5815 Y0.4551 F61.1
N33380 G02 X0.5777 Y0.5259 I0.0332 J0.0372
N33390 G01 X0.6046 Y0.5555
N33400 X0.7625 Y0.7297 F76.4
N33410 X0.9204 Y0.904
N33420 X0.9473 Y0.9336 F61.1
N33430 G03 X0.9504 Y0.997 I-0.037 J0.0335
N33440 G01 X0.9265 Y1.0291
N33450 X0.8961 Y1.0698 F76.4
N33460 X0.8846 Y1.0841
N33470 X0.8808 Y1.0904
N33480 X0.8599 Y1.1185
N33490 X0.7957 Y1.2557
N33500 X0.7605 Y1.4031
N33510 X0.7591 Y1.4454
N33520 X0.7562 Y1.4767
N33530 X0.7576 Y1.4941
N33540 X0.7557 Y1.5545
N33550 X0.7677 Y1.6182
N33560 X0.7701 Y1.6475
N33570 X0.7785 Y1.6753
N33580 X0.7852 Y1.7104
N33590 X0.7994 Y1.7508
N33600 X0.8126 Y1.7886 F61.1
N33610 X0.7756 Y1.8037
N33620 X0.6166 Y1.8689 F76.4
N33630 X0.3775 Y1.9315
N33640 X0.1325 Y1.9635
N33650 X-0.1147 Y1.9647
N33660 X-0.2342 Y1.9532
N33670 X-0.36 Y1.9348
N33680 X-0.5997 Y1.8744
N33690 X-0.7742 Y1.8041
N33700 X-0.8113 Y1.7892 F61.1
N33710 X-0.7988 Y1.7512
N33720 X-0.7977 Y1.7477 F76.4
N33730 X-0.7938 Y1.7369
N33740 X-0.7929 Y1.733
N33750 X-0.7744 Y1.6767
N33760 X-0.7661 Y1.6152
N33770 X-0.7624 Y1.5986
N33780 X-0.7621 Y1.5855
N33790 X-0.7542 Y1.5265
N33800 X-0.7598 Y1.4461
N33810 X-0.7596 Y1.4349
N33820 X-0.7618 Y1.4181
N33830 X-0.7647 Y1.3754
N33840 X-0.7924 Y1.2763
N33850 X-0.7954 Y1.2641
N33860 X-0.7964 Y1.2619
N33870 X-0.8055 Y1.2295
N33880 X-0.8621 Y1.1193
N33890 X-0.864 Y1.1152
N33900 X-0.8648 Y1.1141
N33910 X-0.8747 Y1.0947
N33920 X-0.9131 Y1.047
N33930 X-0.924 Y1.0319
N33940 X-0.9314 Y1.0242
N33950 X-0.9697 Y0.9767
N33960 X-1.009 Y0.9442
N33970 X-1.0139 Y0.9391
N33980 X-1.0229 Y0.9327
N33990 X-1.0864 Y0.8802
N34000 X-1.1255 Y0.8594
N34010 X-1.1353 Y0.8524
N34020 X-1.1673 Y0.8372
N34030 X-1.2203 Y0.8091
N34040 X-1.3656 Y0.7665
N34050 X-1.4327 Y0.7609
N34060 X-1.4353 Y0.7605
N34070 X-1.4383
N34080 X-1.5166 Y0.754
N34090 X-1.6845 Y0.7783
N34100 X-1.7463 Y0.799
N34110 X-1.7842 Y0.8118 F61.1
N34120 X-1.8031 Y0.7765
N34130 X-1.8265 Y0.7327 F76.4
N34140 X-1.9039 Y0.498
N34150 X-1.9514 Y0.2555
N34160 X-1.968 Y0.0089
N34170 X-1.9536 Y-0.2378
N34180 X-1.9084 Y-0.4808
N34190 X-1.8331 Y-0.7162
N34200 X-1.8059 Y-0.7746
N34210 X-1.789 Y-0.8109 F61.1
N34220 X-1.7513 Y-0.7975
N34230 X-1.7134 Y-0.7841 F76.4
N34240 X-1.5644 Y-0.7564
N34250 X-1.4915 Y-0.7578
N34260 X-1.478 Y-0.7571
N34270 X-1.4693 Y-0.7582
N34280 X-1.4129 Y-0.7592
N34290 X-1.3555 Y-0.7722
N34300 X-1.3484 Y-0.773
N34310 X-1.3327 Y-0.7773
N34320 X-1.2651 Y-0.7925
N34330 X-1.1271 Y-0.8549
N34340 X-1.0043 Y-0.9437
N34350 X-0.9677 Y-0.9838
N34360 X-0.9382 Y-1.0131
N34370 X-0.9302 Y-1.0247
N34380 X-0.902 Y-1.0554
N34390 X-0.8595 Y-1.1267
N34400 X-0.8522 Y-1.1372
N34410 X-0.8487 Y-1.1447
N34420 X-0.8243 Y-1.1855
N34430 X-0.8074 Y-1.2341
N34440 X-0.801 Y-1.2478
N34450 X-0.7964 Y-1.2655
N34460 X-0.7744 Y-1.3285
N34470 X-0.7685 Y-1.3725
N34480 X-0.7651 Y-1.3853
N34490 X-0.7646 Y-1.4012
N34500 X-0.7542 Y-1.4787
N34510 X-0.7598 Y-1.5584
N34520 X-0.7595 Y-1.5685
N34530 X-0.7611 Y-1.5774
N34540 X-0.7647 Y-1.6298
N34550 X-0.7828 Y-1.6953
N34560 X-0.7862 Y-1.7136
N34570 X-0.7987 Y-1.7474
N34580 X-0.7998 Y-1.7505
N34590 X-0.8135 Y-1.7881 F61.1
N34600 X-0.7765 Y-1.8033
N34610 X-0.6166 Y-1.8689 F76.4
N34620 X-0.3775 Y-1.9315
N34630 X-0.1325 Y-1.9635
N34640 X0.1147 Y-1.9647
N34650 X0.36 Y-1.9348
N34660 X0.5997 Y-1.8744
N34670 X0.7747 Y-1.8039
N34680 X0.8101 Y-1.7896 F61.1
N34690 X0.8118 Y-1.7887
N34700 X0.7966 Y-1.7517
N34710 X0.7957 Y-1.7495 F76.4
N34720 X0.7605 Y-1.6021
N34730 X0.7557 Y-1.4507
N34740 X0.7669 Y-1.3858
N34750 X0.7728 Y-1.3434
N34760 X0.7755 Y-1.3357
N34770 X0.7814 Y-1.3014
N34780 X0.8367 Y-1.1603
N34790 X0.8783 Y-1.0962
N34800 X0.8865 Y-1.082
N34810 X0.8913 Y-1.0762
N34820 X0.9192 Y-1.0333
N34830 X0.9679 Y-0.9839
N34840 X0.9808 Y-0.9684
N34850 X0.9911 Y-0.9604
N34860 X1.0256 Y-0.9255
N34870 X1.1058 Y-0.8718
N34880 X1.1106 Y-0.8681
N34890 X1.1132 Y-0.8669
N34900 X1.1515 Y-0.8413
N34910 X1.2562 Y-0.7986
N34920 X1.2619 Y-0.7959
N34930 X1.264 Y-0.7955
N34940 X1.2919 Y-0.7841
N34950 X1.4408 Y-0.7564
N34960 X1.4839 Y-0.7572
N34970 X1.4956 Y-0.7564
N34980 X1.51 Y-0.7577
N34990 X1.5923 Y-0.7592
N35000 X1.6403 Y-0.7692
N35010 X1.6417 Y-0.7693
N35020 X1.6435 Y-0.7698
N35030 X1.6922 Y-0.7799
N35040 X1.7504 Y-0.8002
N35050 X1.7847 Y-0.8121 F61.1
N35060 X1.7882 Y-0.8132
N35070 X1.8054 Y-0.7771
N35080 X1.8265 Y-0.7327 F76.4
N35090 X1.9039 Y-0.498
N35100 X1.9514 Y-0.2555
N35110 X1.968 Y-0.0089
N35120 X1.9536 Y0.2378
N35130 X1.9084 Y0.4808
N35140 X1.8331 Y0.7162
N35150 X1.8055 Y0.7755
N35160 X1.7886 Y0.8117 F61.1
N35170 X1.7507 Y0.799
N35180 X1.7359 Y0.794 F76.4
N35190 X1.7212 Y0.7913
N35200 X1.6396 Y0.7665
N35210 X1.5466 Y0.7588
N35220 X1.5381 Y0.7572
N35230 X1.5319 Y0.7576
N35240 X1.4886 Y0.754
N35250 X1.3382 Y0.7721
N35260 X1.2899 Y0.7883
N35270 X1.2826 Y0.7897
N35280 X1.267 Y0.7959
N35290 X1.1945 Y0.8202
N35300 X1.1439 Y0.8495
N35310 X1.1082 Y0.8694
N35320 X1.103 Y0.8732
N35330 X1.0634 Y0.8962
N35340 X1.0232 Y0.9321
N35350 X1.0127 Y0.9398
N35360 X0.9902 Y0.9615
N35370 X0.9504 Y0.997
N35380 X0.9142 Y1.0096 Z-0.6486
N35390 X0.8798 Y0.9929 Z-0.6473
N35400 Z-0.6373 F76.4
N35410 G00 Z0.5
N35420 G00 X0.2149 Y0.9634
N35430 G00 Z-0.6361
N35440 G01 Z-0.6461 F76.4
N35450 X0.2711 Y0.8432 Z-0.6504
N35460 X0.3019 Y0.7851 Z-0.6526
N35470 X0.3385 Y0.7303 Z-0.6548
N35480 X0.429 Y0.6088 Z-0.6598
N35490 X0.4559 Y0.5751 Z-0.6612
N35500 X0.485 Y0.5432 Z-0.6626
N35510 X0.4992 Y0.5291 Z-0.6633
N35520 X0.5138 Y0.5154 Z-0.6639
N35530 X0.5301 Y0.4807 Z-0.6652
N35540 X0.5171 Y0.4447 Z-0.6665
N35550 X0.4901 Y0.4152 Z-0.6678
N35560 X0.4735 Y0.3971 Z-0.6686
N35570 X0.0781 Y-0.0348 Z-0.6788
N35580 X0.0768 Y-0.0361
N35590 X0.0643 Y-0.0488 Z-0.6792
N35600 X0.0362 Y-0.0773 Z-0.6799
N35610 X0.0131 Y-0.0906 Z-0.6803
N35620 X-0.0135 Y-0.0901 Z-0.6808
N35630 X-0.0362 Y-0.0761 Z-0.6813
N35640 X-0.0747 Y-0.035 Z-0.6823
N35650 X-0.0883 Y0.0002 Z-0.6829
N35660 X-0.0736 Y0.0348 Z-0.6836
N35670 X-0.0348 Y0.0733 Z-0.6845
N35680 X0.0004 Y0.0878 Z-0.6852
N35690 X0.0356 Y0.0733 Z-0.6859
N35700 X0.0749 Y0.036 Z-0.6868
N35710 X0.0912 Y0.0013 Z-0.6875
N35720 X0.0781 Y-0.0348 Z-0.6881
N35730 X0.066 Y-0.0584 Z-0.6886
N35740 X0.0678 Y-0.0849 Z-0.6891
N35750 X0.0828 Y-0.1068 Z-0.6895
N35760 X0.1135 Y-0.1325 Z-0.6902
N35770 X0.5408 Y-0.4914 Z-0.7
N35780 X0.1135 Y-0.1325 F76.4
N35790 X0.0828 Y-0.1068 F61.1
N35800 G02 X0.0781 Y-0.0348 I0.0322 J0.0383
N35810 G03 X0.0749 Y0.036 I-0.0369 J0.0338
N35820 G01 X0.0356 Y0.0733
N35830 G03 X-0.0348 Y0.0733 I-0.0352 J-0.0355
N35840 G01 X-0.0736 Y0.0348
N35850 G03 X-0.0747 Y-0.035 I0.0352 J-0.0354
N35860 G01 X-0.0362 Y-0.0761
N35870 G03 X0.0362 Y-0.0773 I0.0368 J0.0339
N35880 G01 X0.0643 Y-0.0488
N35890 X0.0768 Y-0.0361 F76.4
N35900 X0.0781 Y-0.0348
N35910 X0.4901 Y0.4152
N35920 X0.5171 Y0.4447 F61.1
N35930 G03 X0.5138 Y0.5154 I-0.0369 J0.0337
N35940 G01 X0.485 Y0.5432
N35950 X0.429 Y0.6088 F76.4
N35960 X0.3385 Y0.7303
N35970 X0.2711 Y0.8432
N35980 X0.2069 Y0.9805
N35990 X0.1635 Y1.1046
N36000 X0.1327 Y1.2348
N36010 X0.1235 Y1.2737 F61.1
N36020 G03 X0.0747 Y1.3138 I-0.049 J-0.0099
N36030 G01 X0.0347 Y1.314
N36040 X-0.0334 Y1.3143 F76.4
N36050 X-0.0734 Y1.3145 F61.1
N36060 G03 X-0.1224 Y1.2752 I-0.0002 J-0.05
N36070 G01 X-0.131 Y1.2361
N36080 X-0.1387 Y1.2007 F76.4
N36090 X-0.1394 Y1.198
N36100 X-0.1794 Y1.0548
N36110 X-0.2269 Y0.9333
N36120 X-0.2993 Y0.7924
N36130 X-0.3682 Y0.6873
N36140 X-0.4632 Y0.5693
N36150 X-0.5556 Y0.4757
N36160 X-0.6724 Y0.3791
N36170 X-0.7817 Y0.306
N36180 X-0.9155 Y0.235
N36190 X-1.0373 Y0.1854
N36200 X-1.1794 Y0.1437
N36210 X-1.1827 Y0.1429
N36220 X-1.2337 Y0.1316
N36230 X-1.2728 Y0.123 F61.1
N36240 G03 X-1.3119 Y0.0776 I0.0108 J-0.0488
N36250 G01 X-1.3143 Y0.0376
N36260 X-1.3164 Y0.0012 F76.4
N36270 X-1.3141 Y-0.0387
N36280 X-1.3118 Y-0.0787 F61.1
N36290 G03 X-1.2728 Y-0.1245 I0.05 J0.003
N36300 G01 X-1.2338 Y-0.1333
N36310 X-1.1224 Y-0.1584 F76.4
N36320 X-0.9977 Y-0.2001
N36330 X-0.8596 Y-0.2624
N36340 X-0.7458 Y-0.3284
N36350 X-0.6231 Y-0.4173
N36360 X-0.5249 Y-0.5048
N36370 X-0.4226 Y-0.6165
N36380 X-0.3441 Y-0.722
N36390 X-0.2664 Y-0.852
N36400 X-0.2107 Y-0.9712
N36410 X-0.1607 Y-1.1142
N36420 X-0.1313 Y-1.2337
N36430 X-0.1301 Y-1.2421 F61.1
N36440 X-0.1249 Y-1.2731
N36450 G03 X-0.0758 Y-1.3138 I0.0492 J0.0093
N36460 G01 X-0.0358 Y-1.3139
N36470 X0.037 Y-1.314 F76.4
N36480 X0.077 Y-1.3141 F61.1
N36490 G03 X0.1265 Y-1.2716 I0.0001 J0.05
N36500 G01 X0.1335 Y-1.2322
N36510 X0.1408 Y-1.191 F76.4
N36520 X0.1762 Y-1.0643
N36530 X0.2315 Y-0.9232
N36540 X0.2916 Y-0.8063
N36550 X0.3741 Y-0.6792
N36560 X0.4565 Y-0.5767
N36570 X0.5629 Y-0.4689
N36580 X0.6643 Y-0.3851
N36590 X0.7903 Y-0.3009
N36600 X0.9064 Y-0.2392
N36610 X1.0468 Y-0.1821
N36620 X1.173 Y-0.1451
N36630 X1.2316 Y-0.1342
N36640 X1.2709 Y-0.1269 F61.1
N36650 G03 X1.3116 Y-0.0811 I-0.0091 J0.0492
N36660 G01 X1.314 Y-0.0412
N36670 X1.3164 Y-0.0012 F76.4
N36680 X1.3141 Y0.0393
N36690 X1.3117 Y0.0792 F61.1
N36700 G03 X1.2678 Y0.1259 I-0.0499 J-0.0029
N36710 G01 X1.2603 Y0.1268
N36720 X1.2282 Y0.1315
N36730 X1.132 Y0.1557 F76.4
N36740 X0.9884 Y0.2037
N36750 X0.8685 Y0.2579
N36760 X0.7374 Y0.3338
N36770 X0.6309 Y0.411
N36780 X0.6113 Y0.4284
N36790 X0.5815 Y0.4551 F61.1
N36800 G02 X0.5777 Y0.5259 I0.0332 J0.0372
N36810 G01 X0.6046 Y0.5555
N36820 X0.7625 Y0.7297 F76.4
N36830 X0.9204 Y0.904
N36840 X0.9473 Y0.9336 F61.1
N36850 G03 X0.9504 Y0.997 I-0.037 J0.0335
N36860 G01 X0.9265 Y1.0291
N36870 X0.8961 Y1.0698 F76.4
N36880 X0.8846 Y1.0841
N36890 X0.8808 Y1.0904
N36900 X0.8599 Y1.1185
N36910 X0.7957 Y1.2557
N36920 X0.7605 Y1.4031
N36930 X0.7591 Y1.4454
N36940 X0.7562 Y1.4767
N36950 X0.7576 Y1.4941
N36960 X0.7557 Y1.5545
N36970 X0.7677 Y1.6182
N36980 X0.7701 Y1.6475
N36990 X0.7785 Y1.6753
N37000 X0.7852 Y1.7104
N37010 X0.7994 Y1.7508
N37020 X0.8126 Y1.7886 F61.1
N37030 X0.7756 Y1.8037
N37040 X0.6166 Y1.8689 F76.4
N37050 X0.3775 Y1.9315
N37060 X0.1325 Y1.9635
N37070 X-0.1147 Y1.9647
N37080 X-0.2342 Y1.9532
N37090 X-0.36 Y1.9348
N37100 X-0.5997 Y1.8744
N37110 X-0.7742 Y1.8041
N37120 X-0.8113 Y1.7892 F61.1
N37130 X-0.7988 Y1.7512
N37140 X-0.7977 Y1.7477 F76.4
N37150 X-0.7938 Y1.7369
N37160 X-0.7929 Y1.733
N37170 X-0.7744 Y1.6767
N37180 X-0.7661 Y1.6152
N37190 X-0.7624 Y1.5986
N37200 X-0.7621 Y1.5855
N37210 X-0.7542 Y1.5265
N37220 X-0.7598 Y1.4461
N37230 X-0.7596 Y1.4349
N37240 X-0.7618 Y1.4181
N37250 X-0.7647 Y1.3754
N37260 X-0.7924 Y1.2763
N37270 X-0.7954 Y1.2641
N37280 X-0.7964 Y1.2619
N37290 X-0.8055 Y1.2295
N37300 X-0.8621 Y1.1193
N37310 X-0.864 Y1.1152
N37320 X-0.8648 Y1.1141
N37330 X-0.8747 Y1.0947
N37340 X-0.9131 Y1.047
N37350 X-0.924 Y1.0319
N37360 X-0.9314 Y1.0242
N37370 X-0.9697 Y0.9767
N37380 X-1.009 Y0.9442
N37390 X-1.0139 Y0.9391
N37400 X-1.0229 Y0.9327
N37410 X-1.0864 Y0.8802
N37420 X-1.1255 Y0.8594
N37430 X-1.1353 Y0.8524
N37440 X-1.1673 Y0.8372
N37450 X-1.2203 Y0.8091
N37460 X-1.3656 Y0.7665
N37470 X-1.4327 Y0.7609
N37480 X-1.4353 Y0.7605
N37490 X-1.4383
