% 
O08022
(POSTED USING AFL HAAS GANTRY POST FOR CATIA)
(1.0 DIA X 2.00 END MILL 4 FLT)
(T12: 1/2 DIA X 0.9  BALL MILL 2 FLT)
G40G80G90
G49 G00 G53 Z3.66
G53 X0 M84
N100 T2 M6 (1.0 DIA X 2.00 END MILL 4 FLT)
N110 G53 G0 Z3.66 S9549 M3
N120 G0G54G90X0.5039Y7.4194F382. M8
N130 G43 H2
N140 M8
N150 (End of generation of : Tool Change.3)
N160 (OPERATION NAME : Roughing.2)
N170 (Start generation of : Roughing.2)
N180 G00 X0.5039 Y7.4194 Z0.25
N190 G00 Z-0.2757
N200 G01 Z-0.2857 F382.
N210 X0.
N220 Y0.04 F382.
N230 Y0. F306.
N240 X-0.04
N250 X-13.46 F382.
N260 X-13.5 F306.
N270 Y0.04
N280 Y14.96 F382.
N290 Y15. F306.
N300 X-13.46
N310 X-0.04 F382.
N320 X0. F306.
N330 Y14.96
N340 Y7.4594 F382.
N350 Y7.4194 F306.
N360 X-0.0146 Y7.384
N370 X-0.0429 Y7.3557
N380 X-0.325 Y7.0737 F382.
N390 X-0.6071 Y6.7916
N400 X-0.6354 Y6.7633 F306.
N410 X-0.65 Y6.728
N420 Y6.688
N430 Y0.74 F382.
N440 Y0.7 F306.
N450 G02 X-0.7 Y0.65 I-0.05 J0.
N460 G01 X-0.74
N470 X-12.76 F382.
N480 X-12.8 F306.
N490 G02 X-12.85 Y0.7 I0. J0.05
N500 G01 Y0.74
N510 Y14.26 F382.
N520 Y14.3 F306.
N530 G02 X-12.8 Y14.35 I0.05 J0.
N540 G01 X-12.76
N550 X-0.74 F382.
N560 X-0.7 F306.
N570 G02 X-0.65 Y14.3 I0. J-0.05
N580 G01 Y14.26
N590 Y7.4594 F382.
N600 Y7.4194 F306.
N610 X-0.6646 Y7.384
N620 X-0.6929 Y7.3557
N630 X-0.975 Y7.0737 F382.
N640 X-1.2571 Y6.7916
N650 X-1.2854 Y6.7633 F306.
N660 X-1.3 Y6.728
N670 Y6.688
N680 Y1.39 F382.
N690 Y1.35 F306.
N700 G02 X-1.35 Y1.3 I-0.05 J0.
N710 G01 X-1.39
N720 X-12.11 F382.
N730 X-12.15 F306.
N740 G02 X-12.2 Y1.35 I0. J0.05
N750 G01 Y1.39
N760 Y13.61 F382.
N770 Y13.65 F306.
N780 G02 X-12.15 Y13.7 I0.05 J0.
N790 G01 X-12.11
N800 X-1.39 F382.
N810 X-1.35 F306.
N820 G02 X-1.3 Y13.65 I0. J-0.05
N830 G01 Y13.61
N840 Y7.4594 F382.
N850 Y7.4194 F306.
N860 X-1.3146 Y7.384
N870 X-1.3429 Y7.3557
N880 X-1.625 Y7.0737 F382.
N890 X-1.9071 Y6.7916
N900 X-1.9354 Y6.7633 F306.
N910 X-1.95 Y6.728
N920 Y6.688
N930 Y2.04 F382.
N940 Y2. F306.
N950 G02 X-2. Y1.95 I-0.05 J0.
N960 G01 X-2.04
N970 X-11.46 F382.
N980 X-11.5 F306.
N990 G02 X-11.55 Y2. I0. J0.05
N1000 G01 Y2.04
N1010 Y12.96 F382.
N1020 Y13. F306.
N1030 G02 X-11.5 Y13.05 I0.05 J0.
N1040 G01 X-11.46
N1050 X-2.04 F382.
N1060 X-2. F306.
N1070 G02 X-1.95 Y13. I0. J-0.05
N1080 G01 Y12.96
N1090 Y7.4594 F382.
N1100 Y7.4194 F306.
N1110 X-1.9646 Y7.384
N1120 X-1.9929 Y7.3557
N1130 X-2.275 Y7.0737 F382.
N1140 X-2.5571 Y6.7916
N1150 X-2.5854 Y6.7633 F306.
N1160 X-2.6 Y6.728
N1170 Y6.688
N1180 Y2.69 F382.
N1190 Y2.65 F306.
N1200 G02 X-2.65 Y2.6 I-0.05 J0.
N1210 G01 X-2.69
N1220 X-10.81 F382.
N1230 X-10.85 F306.
N1240 G02 X-10.9 Y2.65 I0. J0.05
N1250 G01 Y2.69
N1260 Y12.31 F382.
N1270 Y12.35 F306.
N1280 G02 X-10.85 Y12.4 I0.05 J0.
N1290 G01 X-10.81
N1300 X-2.69 F382.
N1310 X-2.65 F306.
N1320 G02 X-2.6 Y12.35 I0. J-0.05
N1330 G01 Y12.31
N1340 Y7.4594 F382.
N1350 Y7.4194 F306.
N1360 X-2.6146 Y7.384
N1370 X-2.6429 Y7.3557
N1380 X-2.925 Y7.0737 F382.
N1390 X-3.2071 Y6.7916
N1400 X-3.2354 Y6.7633 F306.
N1410 X-3.25 Y6.728
N1420 Y6.688
N1430 Y3.34 F382.
N1440 Y3.3 F306.
N1450 G02 X-3.3 Y3.25 I-0.05 J0.
N1460 G01 X-3.34
N1470 X-10.16 F382.
N1480 X-10.2 F306.
N1490 G02 X-10.25 Y3.3 I0. J0.05
N1500 G01 Y3.34
N1510 Y11.66 F382.
N1520 Y11.7 F306.
N1530 G02 X-10.2 Y11.75 I0.05 J0.
N1540 G01 X-10.16
N1550 X-3.34 F382.
N1560 X-3.3 F306.
N1570 G02 X-3.25 Y11.7 I0. J-0.05
N1580 G01 Y11.66
N1590 Y7.4594 F382.
N1600 Y7.4194 F306.
N1610 X-3.2646 Y7.384
N1620 X-3.2929 Y7.3557
N1630 X-3.575 Y7.0737 F382.
N1640 X-3.8571 Y6.7916
N1650 X-3.8854 Y6.7633 F306.
N1660 X-3.9 Y6.728
N1670 Y6.688
N1680 Y3.99 F382.
N1690 Y3.95 F306.
N1700 G02 X-3.95 Y3.9 I-0.05 J0.
N1710 G01 X-3.99
N1720 X-9.51 F382.
N1730 X-9.55 F306.
N1740 G02 X-9.6 Y3.95 I0. J0.05
N1750 G01 Y3.99
N1760 Y11.01 F382.
N1770 Y11.05 F306.
N1780 G02 X-9.55 Y11.1 I0.05 J0.
N1790 G01 X-9.51
N1800 X-3.99 F382.
N1810 X-3.95 F306.
N1820 G02 X-3.9 Y11.05 I0. J-0.05
N1830 G01 Y11.01
N1840 Y7.4594 F382.
N1850 Y7.4194 F306.
N1860 X-3.9146 Y7.384
N1870 X-3.9429 Y7.3557
N1880 X-4.225 Y7.0737 F382.
N1890 X-4.5071 Y6.7916
N1900 X-4.5354 Y6.7633 F306.
N1910 X-4.55 Y6.728
N1920 Y6.688
N1930 Y4.64 F382.
N1940 Y4.6 F306.
N1950 G02 X-4.6 Y4.55 I-0.05 J0.
N1960 G01 X-4.64
N1970 X-8.86 F382.
N1980 X-8.9 F306.
N1990 G02 X-8.95 Y4.6 I0. J0.05
N2000 G01 Y4.64
N2010 Y10.36 F382.
N2020 Y10.4 F306.
N2030 G02 X-8.9 Y10.45 I0.05 J0.
N2040 G01 X-8.86
N2050 X-4.64 F382.
N2060 X-4.6 F306.
N2070 G02 X-4.55 Y10.4 I0. J-0.05
N2080 G01 Y10.36
N2090 Y7.4594 F382.
N2100 Y7.4194 F306.
N2110 X-4.5646 Y7.384
N2120 X-4.5929 Y7.3557
N2130 X-4.875 Y7.0737 F382.
N2140 X-5.1571 Y6.7916
N2150 X-5.1854 Y6.7633 F306.
N2160 X-5.2 Y6.728
N2170 Y6.688
N2180 Y5.29 F382.
N2190 Y5.25 F306.
N2200 G02 X-5.25 Y5.2 I-0.05 J0.
N2210 G01 X-5.29
N2220 X-8.21 F382.
N2230 X-8.25 F306.
N2240 G02 X-8.3 Y5.25 I0. J0.05
N2250 G01 Y5.29
N2260 Y9.71 F382.
N2270 Y9.75 F306.
N2280 G02 X-8.25 Y9.8 I0.05 J0.
N2290 G01 X-8.21
N2300 X-5.29 F382.
N2310 X-5.25 F306.
N2320 G02 X-5.2 Y9.75 I0. J-0.05
N2330 G01 Y9.71
N2340 Y7.4594 F382.
N2350 Y7.4194 F306.
N2360 X-5.2146 Y7.384
N2370 X-5.2429 Y7.3557
N2380 X-5.525 Y7.0737 F382.
N2390 X-5.8071 Y6.7916
N2400 X-5.8354 Y6.7633 F306.
N2410 X-5.85 Y6.728
N2420 Y6.688
N2430 Y5.94 F382.
N2440 Y5.9 F306.
N2450 G02 X-5.9 Y5.85 I-0.05 J0.
N2460 G01 X-5.94
N2470 X-7.56 F382.
N2480 X-7.6 F306.
N2490 G02 X-7.65 Y5.9 I0. J0.05
N2500 G01 Y5.94
N2510 Y9.06 F382.
N2520 Y9.1 F306.
N2530 G02 X-7.6 Y9.15 I0.05 J0.
N2540 G01 X-7.56
N2550 X-5.94 F382.
N2560 X-5.9 F306.
N2570 G02 X-5.85 Y9.1 I0. J-0.05
N2580 G01 Y9.06
N2590 Y7.4594 F382.
N2600 Y7.4194 F306.
N2610 X-5.8646 Y7.384
N2620 X-5.8929 Y7.3557
N2630 X-6.175 Y7.0737 F382.
N2640 X-6.4571 Y6.7916
N2650 X-6.4854 Y6.7633 F306.
N2660 X-6.5 Y6.728
N2670 Y6.688
N2680 Y6.59 F382.
N2690 Y6.55 F306.
N2700 G02 X-6.55 Y6.5 I-0.05 J0.
N2710 G01 X-6.59
N2720 X-6.91 F382.
N2730 X-6.95 F306.
N2740 G02 X-7. Y6.55 I0. J0.05
N2750 G01 Y6.59
N2760 Y8.41 F382.
N2770 Y8.45 F306.
N2780 G02 X-6.95 Y8.5 I0.05 J0.
N2790 G01 X-6.91
N2800 X-6.59 F382.
N2810 X-6.55 F306.
N2820 G02 X-6.5 Y8.45 I0. J-0.05
N2830 G01 Y8.41
N2840 Y6.728 F382.
N2850 Z-0.2757 F382.
N2860 G00 Z0.25
N2870 G00 X0.5039 Y7.4194
N2880 G00 Z-0.5614
N2890 G01 Z-0.5714 F382.
N2900 X0.
N2910 Y0.04 F382.
N2920 Y0. F306.
N2930 X-0.04
N2940 X-13.46 F382.
N2950 X-13.5 F306.
N2960 Y0.04
N2970 Y14.96 F382.
N2980 Y15. F306.
N2990 X-13.46
N3000 X-0.04 F382.
N3010 X0. F306.
N3020 Y14.96
N3030 Y7.4594 F382.
N3040 Y7.4194 F306.
N3050 X-0.0146 Y7.384
N3060 X-0.0429 Y7.3557
N3070 X-0.325 Y7.0737 F382.
N3080 X-0.6071 Y6.7916
N3090 X-0.6354 Y6.7633 F306.
N3100 X-0.65 Y6.728
N3110 Y6.688
N3120 Y0.74 F382.
N3130 Y0.7 F306.
N3140 G02 X-0.7 Y0.65 I-0.05 J0.
N3150 G01 X-0.74
N3160 X-12.76 F382.
N3170 X-12.8 F306.
N3180 G02 X-12.85 Y0.7 I0. J0.05
N3190 G01 Y0.74
N3200 Y14.26 F382.
N3210 Y14.3 F306.
N3220 G02 X-12.8 Y14.35 I0.05 J0.
N3230 G01 X-12.76
N3240 X-0.74 F382.
N3250 X-0.7 F306.
N3260 G02 X-0.65 Y14.3 I0. J-0.05
N3270 G01 Y14.26
N3280 Y7.4594 F382.
N3290 Y7.4194 F306.
N3300 X-0.6646 Y7.384
N3310 X-0.6929 Y7.3557
N3320 X-0.975 Y7.0737 F382.
N3330 X-1.2571 Y6.7916
N3340 X-1.2854 Y6.7633 F306.
N3350 X-1.3 Y6.728
N3360 Y6.688
N3370 Y1.39 F382.
N3380 Y1.35 F306.
N3390 G02 X-1.35 Y1.3 I-0.05 J0.
N3400 G01 X-1.39
N3410 X-12.11 F382.
N3420 X-12.15 F306.
N3430 G02 X-12.2 Y1.35 I0. J0.05
N3440 G01 Y1.39
N3450 Y13.61 F382.
N3460 Y13.65 F306.
N3470 G02 X-12.15 Y13.7 I0.05 J0.
N3480 G01 X-12.11
N3490 X-1.39 F382.
N3500 X-1.35 F306.
N3510 G02 X-1.3 Y13.65 I0. J-0.05
N3520 G01 Y13.61
N3530 Y7.4594 F382.
N3540 Y7.4194 F306.
N3550 X-1.3146 Y7.384
N3560 X-1.3429 Y7.3557
N3570 X-1.625 Y7.0737 F382.
N3580 X-1.9071 Y6.7916
N3590 X-1.9354 Y6.7633 F306.
N3600 X-1.95 Y6.728
N3610 Y6.688
N3620 Y2.04 F382.
N3630 Y2. F306.
N3640 G02 X-2. Y1.95 I-0.05 J0.
N3650 G01 X-2.04
N3660 X-11.46 F382.
N3670 X-11.5 F306.
N3680 G02 X-11.55 Y2. I0. J0.05
N3690 G01 Y2.04
N3700 Y12.96 F382.
N3710 Y13. F306.
N3720 G02 X-11.5 Y13.05 I0.05 J0.
N3730 G01 X-11.46
N3740 X-2.04 F382.
N3750 X-2. F306.
N3760 G02 X-1.95 Y13. I0. J-0.05
N3770 G01 Y12.96
N3780 Y7.4594 F382.
N3790 Y7.4194 F306.
N3800 X-1.9646 Y7.384
N3810 X-1.9929 Y7.3557
N3820 X-2.275 Y7.0737 F382.
N3830 X-2.5571 Y6.7916
N3840 X-2.5854 Y6.7633 F306.
N3850 X-2.6 Y6.728
N3860 Y6.688
N3870 Y2.69 F382.
N3880 Y2.65 F306.
N3890 G02 X-2.65 Y2.6 I-0.05 J0.
N3900 G01 X-2.69
N3910 X-10.81 F382.
N3920 X-10.85 F306.
N3930 G02 X-10.9 Y2.65 I0. J0.05
N3940 G01 Y2.69
N3950 Y12.31 F382.
N3960 Y12.35 F306.
N3970 G02 X-10.85 Y12.4 I0.05 J0.
N3980 G01 X-10.81
N3990 X-2.69 F382.
N4000 X-2.65 F306.
N4010 G02 X-2.6 Y12.35 I0. J-0.05
N4020 G01 Y12.31
N4030 Y7.4594 F382.
N4040 Y7.4194 F306.
N4050 X-2.6146 Y7.384
N4060 X-2.6429 Y7.3557
N4070 X-2.925 Y7.0737 F382.
N4080 X-3.2071 Y6.7916
N4090 X-3.2354 Y6.7633 F306.
N4100 X-3.25 Y6.728
N4110 Y6.688
N4120 Y3.34 F382.
N4130 Y3.3 F306.
N4140 G02 X-3.3 Y3.25 I-0.05 J0.
N4150 G01 X-3.34
N4160 X-10.16 F382.
N4170 X-10.2 F306.
N4180 G02 X-10.25 Y3.3 I0. J0.05
N4190 G01 Y3.34
N4200 Y11.66 F382.
N4210 Y11.7 F306.
N4220 G02 X-10.2 Y11.75 I0.05 J0.
N4230 G01 X-10.16
N4240 X-3.34 F382.
N4250 X-3.3 F306.
N4260 G02 X-3.25 Y11.7 I0. J-0.05
N4270 G01 Y11.66
N4280 Y7.4594 F382.
N4290 Y7.4194 F306.
N4300 X-3.2646 Y7.384
N4310 X-3.2929 Y7.3557
N4320 X-3.575 Y7.0737 F382.
N4330 X-3.8571 Y6.7916
N4340 X-3.8854 Y6.7633 F306.
N4350 X-3.9 Y6.728
N4360 Y6.688
N4370 Y3.99 F382.
N4380 Y3.95 F306.
N4390 G02 X-3.95 Y3.9 I-0.05 J0.
N4400 G01 X-3.99
N4410 X-9.51 F382.
N4420 X-9.55 F306.
N4430 G02 X-9.6 Y3.95 I0. J0.05
N4440 G01 Y3.99
N4450 Y11.01 F382.
N4460 Y11.05 F306.
N4470 G02 X-9.55 Y11.1 I0.05 J0.
N4480 G01 X-9.51
N4490 X-3.99 F382.
N4500 X-3.95 F306.
N4510 G02 X-3.9 Y11.05 I0. J-0.05
N4520 G01 Y11.01
N4530 Y7.4594 F382.
N4540 Y7.4194 F306.
N4550 X-3.9146 Y7.384
N4560 X-3.9429 Y7.3557
N4570 X-4.225 Y7.0737 F382.
N4580 X-4.5071 Y6.7916
N4590 X-4.5354 Y6.7633 F306.
N4600 X-4.55 Y6.728
N4610 Y6.688
N4620 Y4.64 F382.
N4630 Y4.6 F306.
N4640 G02 X-4.6 Y4.55 I-0.05 J0.
N4650 G01 X-4.64
N4660 X-8.86 F382.
N4670 X-8.9 F306.
N4680 G02 X-8.95 Y4.6 I0. J0.05
N4690 G01 Y4.64
N4700 Y10.36 F382.
N4710 Y10.4 F306.
N4720 G02 X-8.9 Y10.45 I0.05 J0.
N4730 G01 X-8.86
N4740 X-4.64 F382.
N4750 X-4.6 F306.
N4760 G02 X-4.55 Y10.4 I0. J-0.05
N4770 G01 Y10.36
N4780 Y7.4594 F382.
N4790 Y7.4194 F306.
N4800 X-4.5646 Y7.384
N4810 X-4.5929 Y7.3557
N4820 X-4.875 Y7.0737 F382.
N4830 X-5.1571 Y6.7916
N4840 X-5.1854 Y6.7633 F306.
N4850 X-5.2 Y6.728
N4860 Y6.688
N4870 Y5.29 F382.
N4880 Y5.25 F306.
N4890 G02 X-5.25 Y5.2 I-0.05 J0.
N4900 G01 X-5.29
N4910 X-8.21 F382.
N4920 X-8.25 F306.
N4930 G02 X-8.3 Y5.25 I0. J0.05
N4940 G01 Y5.29
N4950 Y9.71 F382.
N4960 Y9.75 F306.
N4970 G02 X-8.25 Y9.8 I0.05 J0.
N4980 G01 X-8.21
N4990 X-5.29 F382.
N5000 X-5.25 F306.
N5010 G02 X-5.2 Y9.75 I0. J-0.05
N5020 G01 Y9.71
N5030 Y7.4594 F382.
N5040 Y7.4194 F306.
N5050 X-5.2146 Y7.384
N5060 X-5.2429 Y7.3557
N5070 X-5.525 Y7.0737 F382.
N5080 X-5.8071 Y6.7916
N5090 X-5.8354 Y6.7633 F306.
N5100 X-5.85 Y6.728
N5110 Y6.688
N5120 Y5.94 F382.
N5130 Y5.9 F306.
N5140 G02 X-5.9 Y5.85 I-0.05 J0.
N5150 G01 X-5.94
N5160 X-7.56 F382.
N5170 X-7.6 F306.
N5180 G02 X-7.65 Y5.9 I0. J0.05
N5190 G01 Y5.94
N5200 Y9.06 F382.
N5210 Y9.1 F306.
N5220 G02 X-7.6 Y9.15 I0.05 J0.
N5230 G01 X-7.56
N5240 X-5.94 F382.
N5250 X-5.9 F306.
N5260 G02 X-5.85 Y9.1 I0. J-0.05
N5270 G01 Y9.06
N5280 Y7.4594 F382.
N5290 Y7.4194 F306.
N5300 X-5.8646 Y7.384
N5310 X-5.8929 Y7.3557
N5320 X-6.175 Y7.0737 F382.
N5330 X-6.4571 Y6.7916
N5340 X-6.4854 Y6.7633 F306.
N5350 X-6.5 Y6.728
N5360 Y6.688
N5370 Y6.59 F382.
N5380 Y6.55 F306.
N5390 G02 X-6.55 Y6.5 I-0.05 J0.
N5400 G01 X-6.59
N5410 X-6.91 F382.
N5420 X-6.95 F306.
N5430 G02 X-7. Y6.55 I0. J0.05
N5440 G01 Y6.59
N5450 Y8.41 F382.
N5460 Y8.45 F306.
N5470 G02 X-6.95 Y8.5 I0.05 J0.
N5480 G01 X-6.91
N5490 X-6.59 F382.
N5500 X-6.55 F306.
N5510 G02 X-6.5 Y8.45 I0. J-0.05
N5520 G01 Y8.41
N5530 Y6.728 F382.
N5540 Z-0.5614 F382.
N5550 G00 Z0.25
N5560 G00 X0.5039 Y7.4194
N5570 G00 Z-0.8471
N5580 G01 Z-0.8571 F382.
N5590 X0.
N5600 Y0.04 F382.
N5610 Y0. F306.
N5620 X-0.04
N5630 X-13.46 F382.
N5640 X-13.5 F306.
N5650 Y0.04
N5660 Y14.96 F382.
N5670 Y15. F306.
N5680 X-13.46
N5690 X-0.04 F382.
N5700 X0. F306.
N5710 Y14.96
N5720 Y7.4594 F382.
N5730 Y7.4194 F306.
N5740 X-0.0146 Y7.384
N5750 X-0.0429 Y7.3557
N5760 X-0.325 Y7.0737 F382.
N5770 X-0.6071 Y6.7916
N5780 X-0.6354 Y6.7633 F306.
N5790 X-0.65 Y6.728
N5800 Y6.688
N5810 Y0.74 F382.
N5820 Y0.7 F306.
N5830 G02 X-0.7 Y0.65 I-0.05 J0.
N5840 G01 X-0.74
N5850 X-12.76 F382.
N5860 X-12.8 F306.
N5870 G02 X-12.85 Y0.7 I0. J0.05
N5880 G01 Y0.74
N5890 Y14.26 F382.
N5900 Y14.3 F306.
N5910 G02 X-12.8 Y14.35 I0.05 J0.
N5920 G01 X-12.76
N5930 X-0.74 F382.
N5940 X-0.7 F306.
N5950 G02 X-0.65 Y14.3 I0. J-0.05
N5960 G01 Y14.26
N5970 Y7.4594 F382.
N5980 Y7.4194 F306.
N5990 X-0.6646 Y7.384
N6000 X-0.6929 Y7.3557
N6010 X-0.975 Y7.0737 F382.
N6020 X-1.2571 Y6.7916
N6030 X-1.2854 Y6.7633 F306.
N6040 X-1.3 Y6.728
N6050 Y6.688
N6060 Y1.39 F382.
N6070 Y1.35 F306.
N6080 G02 X-1.35 Y1.3 I-0.05 J0.
N6090 G01 X-1.39
N6100 X-12.11 F382.
N6110 X-12.15 F306.
N6120 G02 X-12.2 Y1.35 I0. J0.05
N6130 G01 Y1.39
N6140 Y13.61 F382.
N6150 Y13.65 F306.
N6160 G02 X-12.15 Y13.7 I0.05 J0.
N6170 G01 X-12.11
N6180 X-1.39 F382.
N6190 X-1.35 F306.
N6200 G02 X-1.3 Y13.65 I0. J-0.05
N6210 G01 Y13.61
N6220 Y7.4594 F382.
N6230 Y7.4194 F306.
N6240 X-1.3146 Y7.384
N6250 X-1.3429 Y7.3557
N6260 X-1.625 Y7.0737 F382.
N6270 X-1.9071 Y6.7916
N6280 X-1.9354 Y6.7633 F306.
N6290 X-1.95 Y6.728
N6300 Y6.688
N6310 Y2.04 F382.
N6320 Y2. F306.
N6330 G02 X-2. Y1.95 I-0.05 J0.
N6340 G01 X-2.04
N6350 X-11.46 F382.
N6360 X-11.5 F306.
N6370 G02 X-11.55 Y2. I0. J0.05
N6380 G01 Y2.04
N6390 Y12.96 F382.
N6400 Y13. F306.
N6410 G02 X-11.5 Y13.05 I0.05 J0.
N6420 G01 X-11.46
N6430 X-2.04 F382.
N6440 X-2. F306.
N6450 G02 X-1.95 Y13. I0. J-0.05
N6460 G01 Y12.96
N6470 Y7.4594 F382.
N6480 Y7.4194 F306.
N6490 X-1.9646 Y7.384
N6500 X-1.9929 Y7.3557
N6510 X-2.275 Y7.0737 F382.
N6520 X-2.5571 Y6.7916
N6530 X-2.5854 Y6.7633 F306.
N6540 X-2.6 Y6.728
N6550 Y6.688
N6560 Y2.69 F382.
N6570 Y2.65 F306.
N6580 G02 X-2.65 Y2.6 I-0.05 J0.
N6590 G01 X-2.69
N6600 X-10.81 F382.
N6610 X-10.85 F306.
N6620 G02 X-10.9 Y2.65 I0. J0.05
N6630 G01 Y2.69
N6640 Y12.31 F382.
N6650 Y12.35 F306.
N6660 G02 X-10.85 Y12.4 I0.05 J0.
N6670 G01 X-10.81
N6680 X-2.69 F382.
N6690 X-2.65 F306.
N6700 G02 X-2.6 Y12.35 I0. J-0.05
N6710 G01 Y12.31
N6720 Y7.4594 F382.
N6730 Y7.4194 F306.
N6740 X-2.6146 Y7.384
N6750 X-2.6429 Y7.3557
N6760 X-2.925 Y7.0737 F382.
N6770 X-3.2071 Y6.7916
N6780 X-3.2354 Y6.7633 F306.
N6790 X-3.25 Y6.728
N6800 Y6.688
N6810 Y3.34 F382.
N6820 Y3.3 F306.
N6830 G02 X-3.3 Y3.25 I-0.05 J0.
N6840 G01 X-3.34
N6850 X-10.16 F382.
N6860 X-10.2 F306.
N6870 G02 X-10.25 Y3.3 I0. J0.05
N6880 G01 Y3.34
N6890 Y11.66 F382.
N6900 Y11.7 F306.
N6910 G02 X-10.2 Y11.75 I0.05 J0.
N6920 G01 X-10.16
N6930 X-3.34 F382.
N6940 X-3.3 F306.
N6950 G02 X-3.25 Y11.7 I0. J-0.05
N6960 G01 Y11.66
N6970 Y7.4594 F382.
N6980 Y7.4194 F306.
N6990 X-3.2646 Y7.384
N7000 X-3.2929 Y7.3557
N7010 X-3.575 Y7.0737 F382.
N7020 X-3.8571 Y6.7916
N7030 X-3.8854 Y6.7633 F306.
N7040 X-3.9 Y6.728
N7050 Y6.688
N7060 Y3.99 F382.
N7070 Y3.95 F306.
N7080 G02 X-3.95 Y3.9 I-0.05 J0.
N7090 G01 X-3.99
N7100 X-9.51 F382.
N7110 X-9.55 F306.
N7120 G02 X-9.6 Y3.95 I0. J0.05
N7130 G01 Y3.99
N7140 Y11.01 F382.
N7150 Y11.05 F306.
N7160 G02 X-9.55 Y11.1 I0.05 J0.
N7170 G01 X-9.51
N7180 X-3.99 F382.
N7190 X-3.95 F306.
N7200 G02 X-3.9 Y11.05 I0. J-0.05
N7210 G01 Y11.01
N7220 Y7.4594 F382.
N7230 Y7.4194 F306.
N7240 X-3.9146 Y7.384
N7250 X-3.9429 Y7.3557
N7260 X-4.225 Y7.0737 F382.
N7270 X-4.5071 Y6.7916
N7280 X-4.5354 Y6.7633 F306.
N7290 X-4.55 Y6.728
N7300 Y6.688
N7310 Y4.64 F382.
N7320 Y4.6 F306.
N7330 G02 X-4.6 Y4.55 I-0.05 J0.
N7340 G01 X-4.64
N7350 X-8.86 F382.
N7360 X-8.9 F306.
N7370 G02 X-8.95 Y4.6 I0. J0.05
N7380 G01 Y4.64
N7390 Y10.36 F382.
N7400 Y10.4 F306.
N7410 G02 X-8.9 Y10.45 I0.05 J0.
N7420 G01 X-8.86
N7430 X-4.64 F382.
N7440 X-4.6 F306.
N7450 G02 X-4.55 Y10.4 I0. J-0.05
N7460 G01 Y10.36
N7470 Y7.4594 F382.
N7480 Y7.4194 F306.
N7490 X-4.5646 Y7.384
N7500 X-4.5929 Y7.3557
N7510 X-4.875 Y7.0737 F382.
N7520 X-5.1571 Y6.7916
N7530 X-5.1854 Y6.7633 F306.
N7540 X-5.2 Y6.728
N7550 Y6.688
N7560 Y5.29 F382.
N7570 Y5.25 F306.
N7580 G02 X-5.25 Y5.2 I-0.05 J0.
N7590 G01 X-5.29
N7600 X-8.21 F382.
N7610 X-8.25 F306.
N7620 G02 X-8.3 Y5.25 I0. J0.05
N7630 G01 Y5.29
N7640 Y9.71 F382.
N7650 Y9.75 F306.
N7660 G02 X-8.25 Y9.8 I0.05 J0.
N7670 G01 X-8.21
N7680 X-5.29 F382.
N7690 X-5.25 F306.
N7700 G02 X-5.2 Y9.75 I0. J-0.05
N7710 G01 Y9.71
N7720 Y7.4594 F382.
N7730 Y7.4194 F306.
N7740 X-5.2146 Y7.384
N7750 X-5.2429 Y7.3557
N7760 X-5.525 Y7.0737 F382.
N7770 X-5.8071 Y6.7916
N7780 X-5.8354 Y6.7633 F306.
N7790 X-5.85 Y6.728
N7800 Y6.688
N7810 Y5.94 F382.
N7820 Y5.9 F306.
N7830 G02 X-5.9 Y5.85 I-0.05 J0.
N7840 G01 X-5.94
N7850 X-7.56 F382.
N7860 X-7.6 F306.
N7870 G02 X-7.65 Y5.9 I0. J0.05
N7880 G01 Y5.94
N7890 Y9.06 F382.
N7900 Y9.1 F306.
N7910 G02 X-7.6 Y9.15 I0.05 J0.
N7920 G01 X-7.56
N7930 X-5.94 F382.
N7940 X-5.9 F306.
N7950 G02 X-5.85 Y9.1 I0. J-0.05
N7960 G01 Y9.06
N7970 Y7.4594 F382.
N7980 Y7.4194 F306.
N7990 X-5.8646 Y7.384
N8000 X-5.8929 Y7.3557
N8010 X-6.175 Y7.0737 F382.
N8020 X-6.4571 Y6.7916
N8030 X-6.4854 Y6.7633 F306.
N8040 X-6.5 Y6.728
N8050 Y6.688
N8060 Y6.59 F382.
N8070 Y6.55 F306.
N8080 G02 X-6.55 Y6.5 I-0.05 J0.
N8090 G01 X-6.59
N8100 X-6.91 F382.
N8110 X-6.95 F306.
N8120 G02 X-7. Y6.55 I0. J0.05
N8130 G01 Y6.59
N8140 Y8.41 F382.
N8150 Y8.45 F306.
N8160 G02 X-6.95 Y8.5 I0.05 J0.
N8170 G01 X-6.91
N8180 X-6.59 F382.
N8190 X-6.55 F306.
N8200 G02 X-6.5 Y8.45 I0. J-0.05
N8210 G01 Y8.41
N8220 Y6.728 F382.
N8230 Z-0.8471 F382.
N8240 G00 Z0.25
N8250 G00 X0.5039 Y7.465
N8260 G00 Z-1.1329
N8270 G01 Z-1.1429 F382.
N8280 X0.
N8290 Y0.04 F382.
N8300 Y0. F306.
N8310 X-0.04
N8320 X-13.46 F382.
N8330 X-13.5 F306.
N8340 Y0.04
N8350 Y3.5867 F382.
N8360 Y3.6267 F306.
N8370 X-13.4864 Y3.6255
N8380 X-13.4601 Y3.6262
N8390 X-12.5022 Y3.6507 F382.
N8400 X-11.341 Y3.6714
N8410 X-10.1743 Y3.6838
N8420 X-9.2019 Y3.6861
N8430 X-8.0995 Y3.678
N8440 X-7.1915 Y3.6602
N8450 X-6.3615 Y3.6318
N8460 X-5.828 Y3.5827
N8470 X-5.2458 Y3.5299
N8480 X-4.9657 Y3.509
N8490 X-4.8826 Y3.5142
N8500 X-4.7981 Y3.5336
N8510 X-4.7164 Y3.5682
N8520 X-4.6554 Y3.6062
N8530 X-4.5764 Y3.6774
N8540 X-4.5069 Y3.7781
N8550 X-4.4658 Y3.881
N8560 X-4.4489 Y3.9845
N8570 X-4.4501 Y4.0561
N8580 X-4.4679 Y4.1527
N8590 X-4.499 Y4.2347
N8600 X-4.5401 Y4.3055
N8610 X-4.582 Y4.3588
N8620 X-4.6783 Y4.4472
N8630 X-4.9247 Y4.6328
N8640 X-5.3168 Y4.8922
N8650 X-5.8216 Y5.1979
N8660 X-6.0716 Y5.3378
N8670 X-6.1784 Y5.3746
N8680 X-6.3049 Y5.3873
N8690 X-7.0052 Y5.3641
N8700 X-7.7833 Y5.3505
N8710 X-8.6787 Y5.3431
N8720 X-9.0948 Y5.3418
N8730 X-9.6072 Y5.3416
N8740 X-10.8373 Y5.3471
N8750 X-12.0166 Y5.3598
N8760 X-13.3783 Y5.3843
N8770 X-13.46 Y5.3867
N8780 X-13.499 Y5.3879 F306.
N8790 X-13.5 Y5.3878
N8800 Y5.4278
N8810 Y9.5746 F382.
N8820 Y9.6146 F306.
N8830 X-13.4854 Y9.6131
N8840 X-13.4601 Y9.6137
N8850 X-12.9271 Y9.6251 F382.
N8860 X-12.4403 Y9.6338
N8870 X-11.9373 Y9.6412
N8880 X-10.6546 Y9.6543
N8890 X-9.7706 Y9.6581
N8900 X-9.2622 Y9.6585
N8910 X-7.9438 Y9.6514
N8920 X-7.2091 Y9.6403
N8930 X-6.5212 Y9.6221
N8940 X-6.2755 Y9.6142
N8950 X-6.2282 Y9.6181
N8960 X-5.9993 Y9.7013
N8970 X-5.4288 Y10.0375
N8980 X-4.9681 Y10.3401
N8990 X-4.6304 Y10.5925
N9000 X-4.583 Y10.6398
N9010 X-4.5377 Y10.6977
N9020 X-4.4954 Y10.7725
N9030 X-4.4661 Y10.8523
N9040 X-4.4502 Y10.9398
N9050 X-4.4501 Y11.0262
N9060 X-4.4684 Y11.1254
N9070 X-4.5119 Y11.2309
N9080 X-4.5769 Y11.323
N9090 X-4.6538 Y11.3927
N9100 X-4.7171 Y11.4323
N9110 X-4.7995 Y11.4667
N9120 X-4.8832 Y11.486
N9130 X-4.9999 Y11.4895
N9140 X-5.7723 Y11.423
N9150 X-6.0171 Y11.4044
N9160 X-6.323 Y11.3698
N9170 X-6.8997 Y11.3494
N9180 X-7.5931 Y11.3322
N9190 X-8.3796 Y11.3202
N9200 X-9.0633 Y11.3157
N9210 X-9.9442 Y11.3164
N9220 X-10.762 Y11.3225
N9230 X-11.4803 Y11.3317
N9240 X-12.0026 Y11.3418
N9250 X-12.617 Y11.3519
N9260 X-12.9789 Y11.3608
N9270 X-13.46 Y11.3736
N9280 X-13.4979 Y11.3746 F306.
N9290 X-13.5 Y11.3743
N9300 Y11.4143
N9310 Y14.96 F382.
N9320 Y15. F306.
N9330 X-13.46
N9340 X-0.04 F382.
N9350 X0. F306.
N9360 Y14.96
N9370 Y7.505 F382.
N9380 Y7.465 F306.
N9390 G02 X-0.05 Y7.415 I-0.05 J0.
N9400 G01 X-0.09
N9410 X-0.325 F382.
N9420 X-0.56
N9430 X-0.6 F306.
N9440 G03 X-0.65 Y7.365 I0. J-0.05
N9450 G01 Y7.325
N9460 Y0.74 F382.
N9470 Y0.7 F306.
N9480 G02 X-0.7 Y0.65 I-0.05 J0.
N9490 G01 X-0.74
N9500 X-12.76 F382.
N9510 X-12.8 F306.
N9520 G02 X-12.85 Y0.7 I0. J0.05
N9530 G01 Y0.74
N9540 Y2.9028 F382.
N9550 Y2.9428 F306.
N9560 G02 X-12.801 Y2.9928 I0.05 J0.
N9570 G01 X-12.761 Y2.9936
N9580 X-11.332 Y3.0215 F382.
N9590 X-10.1703 Y3.0338
N9600 X-9.2038 Y3.0361
N9610 X-8.1086 Y3.028
N9620 X-7.2093 Y3.0104
N9630 X-6.4046 Y2.9829
N9640 X-5.3051 Y2.8826
N9650 X-5.0176 Y2.861
N9660 X-5.0141 Y2.8609
N9670 X-4.9252 Y2.8604
N9680 X-4.9217 Y2.8605
N9690 X-4.842 Y2.8654
N9700 X-4.7369 Y2.8807
N9710 X-4.6524 Y2.9002
N9720 X-4.5449 Y2.935
N9730 X-4.4632 Y2.9695
N9740 X-4.4597 Y2.9712
N9750 X-4.3763 Y3.0144
N9760 X-4.3729 Y3.0164
N9770 X-4.3118 Y3.0544
N9780 X-4.2198 Y3.1237
N9790 X-4.1409 Y3.1949
N9800 G03 X-4.0416 Y3.308 I-0.4355 J0.4825
N9810 G01 X-3.9721 Y3.4086
N9820 G03 X-3.9032 Y3.5371 I-0.5348 J0.3695
N9830 G01 X-3.8622 Y3.64
N9840 X-3.8244 Y3.776
N9850 X-3.8074 Y3.8795
N9860 X-3.799 Y3.9954
N9870 X-3.8002 Y4.067
N9880 X-3.8109 Y4.174
N9890 X-3.8287 Y4.2705
N9900 X-3.8602 Y4.3832
N9910 X-3.8913 Y4.4653
N9920 X-3.9369 Y4.5611
N9930 X-3.9762 Y4.6288
N9940 X-3.9781 Y4.6318
N9950 X-4.0288 Y4.7066
N9960 X-4.0308 Y4.7094
N9970 X-4.0705 Y4.76
N9980 X-4.1426 Y4.8379
N9990 X-4.2372 Y4.9246
N10000 X-4.239 Y4.9262
N10010 X-4.2873 Y4.9664
N10020 X-4.2892 Y4.9679
N10030 X-4.5319 Y5.1507
N10040 X-4.5343 Y5.1524
N10050 X-4.957 Y5.4335
N10060 X-4.9587 Y5.4346
N10070 X-5.4838 Y5.7532
N10080 X-5.7542 Y5.905
N10090 X-5.8598 Y5.9523
N10100 X-5.9667 Y5.9891
N10110 G03 X-6.1136 Y6.0213 I-0.2117 J-0.6145
N10120 G01 X-6.2367 Y6.0337
N10130 X-6.24 Y6.0339
N10140 X-6.3264 Y6.0368
N10150 X-6.3297
N10160 X-7.0212 Y6.0139
N10170 X-7.7915 Y6.0005
N10180 X-9.0957 Y5.9918
N10190 X-10.8321 Y5.9971
N10200 X-12.0071 Y6.0097
N10210 X-12.7609 Y6.0233
N10220 X-12.8009 Y6.024 F306.
N10230 G02 X-12.85 Y6.074 I0.0009 J0.05
N10240 G01 Y6.114
N10250 Y8.8872 F382.
N10260 Y8.9272 F306.
N10270 G02 X-12.8006 Y8.9772 I0.05 J0.
N10280 G01 X-12.7606 Y8.9777
N10290 X-10.6501 Y9.0043 F382.
N10300 X-9.264 Y9.0085
N10310 X-7.9507 Y9.0014
N10320 X-7.2229 Y8.9904
N10330 X-6.2999 Y8.9646
N10340 X-6.2962
N10350 X-6.1736 Y8.9704
N10360 G03 X-6.0059 Y9.0073 I-0.0546 J0.6477
N10370 G01 X-5.7771 Y9.0905
N10380 X-5.6694 Y9.1413
N10390 X-5.1004 Y9.4766
N10400 X-5.0984 Y9.4778
N10410 X-4.6132 Y9.7956
N10420 X-4.6107 Y9.7973
N10430 X-4.2441 Y10.0697
N10440 X-4.2413 Y10.072
N10450 X-4.1711 Y10.1327
N10460 X-4.1685 Y10.1352
N10470 X-4.1258 Y10.1778
N10480 X-4.1238 Y10.18
N10490 X-4.0717 Y10.2387
N10500 X-4.0698 Y10.241
N10510 X-4.0263 Y10.2964
N10520 X-4.024 Y10.2995
N10530 X-3.9736 Y10.3748
N10540 X-3.9717 Y10.3781
N10550 X-3.9294 Y10.4529
N10560 X-3.9276 Y10.4565
N10570 X-3.8868 Y10.5445
N10580 X-3.8853 Y10.5483
N10590 X-3.856 Y10.6281
N10600 X-3.8265 Y10.7361
N10610 X-3.8107 Y10.8236
N10620 X-3.8002 Y10.9391
N10630 X-3.8001 Y11.0256
N10640 X-3.8109 Y11.144
N10650 X-3.8292 Y11.2433
N10660 X-3.8674 Y11.3731
N10670 X-3.9109 Y11.4786
N10680 G03 X-3.9808 Y11.6057 I-0.601 J-0.2477
N10690 G01 X-4.0458 Y11.6978
N10700 X-4.1405 Y11.8048
N10710 X-4.2174 Y11.8744
N10720 X-4.3093 Y11.9439
N10730 X-4.3727 Y11.9835
N10740 X-4.4665 Y12.032
N10750 X-4.5489 Y12.0664
N10760 X-4.6538 Y12.1002
N10770 X-4.7374 Y12.1194
N10780 X-4.8637 Y12.1357
N10790 X-4.9775 Y12.1391
N10800 X-4.9804
N10810 X-5.0557 Y12.137
N10820 X-5.0585 Y12.1368
N10830 X-6.0652 Y12.0526
N10840 X-6.3682 Y12.0188
N10850 X-6.919 Y11.9991
N10860 X-7.6059 Y11.9821
N10870 X-8.3865 Y11.9702
N10880 X-9.065 Y11.9657
N10890 X-9.9413 Y11.9664
N10900 X-10.7552 Y11.9724
N10910 X-11.4697 Y11.9816
N10920 X-12.761 Y12.0059
N10930 X-12.8009 Y12.0067 F306.
N10940 G02 X-12.85 Y12.0567 I0.0009 J0.0499
N10950 G01 Y12.0967
N10960 Y14.26 F382.
N10970 Y14.3 F306.
N10980 G02 X-12.8 Y14.35 I0.05 J0.
N10990 G01 X-12.76
N11000 X-0.74 F382.
N11010 X-0.7 F306.
N11020 G02 X-0.65 Y14.3 I0. J-0.05
N11030 G01 Y14.26
N11040 Y7.465 F382.
N11050 G02 X-0.7 Y7.415 I-0.05 J0. F306.
N11060 G01 X-0.74
N11070 X-0.975 F382.
N11080 X-1.21
N11090 X-1.25 F306.
N11100 G03 X-1.3 Y7.365 I0. J-0.05
N11110 G01 Y1.39 F382.
N11120 Y1.35 F306.
N11130 G02 X-1.35 Y1.3 I-0.05 J0.
N11140 G01 X-1.39
N11150 X-12.11 F382.
N11160 X-12.15 F306.
N11170 G02 X-12.2 Y1.35 I0. J0.05
N11180 G01 Y1.39
N11190 Y2.2654 F382.
N11200 Y2.3054 F306.
N11210 G02 X-12.151 Y2.3554 I0.05 J0.
N11220 G01 X-12.111 Y2.3562
N11230 X-11.3225 Y2.3715 F382.
N11240 X-10.1662 Y2.3838
N11250 X-9.2056 Y2.3861
N11260 X-8.1177 Y2.3781
N11270 X-7.2271 Y2.3606
N11280 X-6.4474 Y2.334
N11290 X-5.3647 Y2.2354
N11300 X-5.0685 Y2.213
N11310 X-5.0657 Y2.2129
N11320 X-4.9316 Y2.2104
N11330 X-4.9282 Y2.2105
N11340 X-4.8011 Y2.2167
N11350 G03 X-4.5912 Y2.2473 I-0.0815 J1.2975
N11360 G01 X-4.5067 Y2.2667
N11370 G03 X-4.2917 Y2.3363 I-0.2914 J1.2669
N11380 G01 X-4.2123 Y2.3699
N11390 X-4.2095 Y2.3712
N11400 X-4.0795 Y2.4362
N11410 X-4.0762 Y2.438
N11420 X-3.9679 Y2.5028
N11430 G03 X-3.7843 Y2.6412 I-0.6875 J1.1034
N11440 G01 X-3.7054 Y2.7124
N11450 G03 X-3.5068 Y2.9386 I-0.871 J0.965
N11460 G01 X-3.4373 Y3.0392
N11470 G03 X-3.2996 Y3.2961 I-1.0696 J0.7389
N11480 G01 X-3.2585 Y3.399
N11490 G03 X-3.1829 Y3.6709 I-1.2073 J0.482
N11500 G01 X-3.166 Y3.7744
N11510 G03 X-3.1491 Y4.0063 I-1.2829 J0.2101
N11520 G01 X-3.1503 Y4.0779
N11530 G03 X-3.1716 Y4.2919 I-1.2998 J-0.0218
N11540 G01 X-3.1894 Y4.3884
N11550 G03 X-3.2524 Y4.6138 I-1.2785 J-0.2357
N11560 G01 X-3.2836 Y4.6959
N11570 G03 X-3.3748 Y4.8875 I-1.2154 J-0.4612
N11580 G01 X-3.413 Y4.9532
N11590 X-3.4145 Y4.9557
N11600 X-3.4893 Y5.0691
N11610 X-3.4912 Y5.0719
N11620 X-3.5594 Y5.1615
N11630 G03 X-3.7032 Y5.3168 I-1.0226 J-0.8027
N11640 G01 X-3.7968 Y5.4027
N11650 X-3.7983 Y5.4041
N11660 X-3.8703 Y5.465
N11670 X-3.8725 Y5.4667
N11680 X-4.1391 Y5.6685
N11690 X-4.1415 Y5.6703
N11700 X-4.5959 Y5.974
N11710 X-4.5977 Y5.9751
N11720 X-5.1455 Y6.3082
N11730 X-5.4369 Y6.4723
N11740 G03 X-5.648 Y6.5668 I-0.6347 J-1.1346
N11750 G01 X-5.7549 Y6.6037
N11760 G03 X-6.0487 Y6.6681 I-0.4235 J-1.2291
N11770 G01 X-6.1697 Y6.6802
N11780 X-6.1724 Y6.6804
N11790 X-6.3019 Y6.6863
N11800 X-6.3058
N11810 X-7.0372 Y6.6637
N11820 X-7.799 Y6.6504
N11830 X-9.0967 Y6.6418
N11840 X-10.8274 Y6.647
N11850 X-12.1106 Y6.6619
N11860 X-12.1506 Y6.6624 F306.
N11870 G02 X-12.2 Y6.7124 I0.0006 J0.05
N11880 G01 Y6.7524
N11890 Y8.2454 F382.
N11900 Y8.2854 F306.
N11910 G02 X-12.1506 Y8.3353 I0.05 J0.
N11920 G01 X-12.1106 Y8.3359
N11930 X-10.6453 Y8.3543 F382.
N11940 X-9.265 Y8.3585
N11950 X-7.9575 Y8.3514
N11960 X-7.2372 Y8.3406
N11970 X-6.3207 Y8.3149
N11980 X-6.3174
N11990 X-6.1198 Y8.3226
N12000 X-6.1175 Y8.3228
N12010 G03 X-5.7836 Y8.3964 I-0.1107 J1.2953
N12020 G01 X-5.5548 Y8.4797
N12030 G03 X-5.3394 Y8.5813 I-0.4445 J1.2216
N12040 G01 X-4.7717 Y8.9158
N12050 X-4.7697 Y8.917
N12060 X-4.2589 Y9.2506
N12070 X-4.2565 Y9.2523
N12080 X-3.8584 Y9.5465
N12090 X-3.856 Y9.5485
N12100 X-3.7478 Y9.6395
N12110 X-3.7452 Y9.6418
N12120 X-3.6682 Y9.7162
N12130 X-3.6659 Y9.7186
N12140 X-3.587 Y9.8056
N12150 X-3.585 Y9.8079
N12160 X-3.5166 Y9.8931
N12170 X-3.5144 Y9.896
N12180 X-3.435 Y10.0111
N12190 X-3.433 Y10.0142
N12200 X-3.3649 Y10.1307
N12210 X-3.363 Y10.1342
N12220 X-3.2981 Y10.269
N12230 X-3.2966 Y10.2727
N12240 X-3.2457 Y10.4043
N12250 G03 X-3.187 Y10.6199 I-1.2204 J0.448
N12260 G01 X-3.1711 Y10.7074
N12270 G03 X-3.1502 Y10.9385 I-1.2791 J0.2324
N12280 G01 X-3.1501 Y11.0249
N12290 G03 X-3.1716 Y11.2619 I-1.3 J0.0013
N12300 G01 X-3.1899 Y11.3612
N12310 G03 X-3.2665 Y11.6208 I-1.2785 J-0.2358
N12320 G01 X-3.31 Y11.7263
N12330 G03 X-3.4497 Y11.9804 I-1.2018 J-0.4954
N12340 G01 X-3.5147 Y12.0726
N12350 G03 X-3.7041 Y12.2865 I-1.0622 J-0.7496
N12360 G01 X-3.781 Y12.3561
N12370 G03 X-3.9649 Y12.4952 I-0.8728 J-0.9634
N12380 G01 X-4.0282 Y12.5347
N12390 G03 X-4.2158 Y12.6317 I-0.6889 J-1.1024
N12400 G01 X-4.2982 Y12.6662
N12410 G03 X-4.5081 Y12.7336 I-0.5013 J-1.1995
N12420 G01 X-4.5917 Y12.7529
N12430 G03 X-4.8441 Y12.7854 I-0.2915 J-1.2669
N12440 G01 X-4.9561 Y12.7887
N12450 X-4.9585
N12460 X-5.0718 Y12.7868
N12470 X-5.0751 Y12.7866
N12480 X-6.1184 Y12.7004
N12490 X-6.4131 Y12.6678
N12500 X-6.9384 Y12.6488
N12510 X-7.6186 Y12.632
N12520 X-8.3933 Y12.6202
N12530 X-9.0668 Y12.6157
N12540 X-9.9385 Y12.6164
N12550 X-10.7485 Y12.6224
N12560 X-11.4593 Y12.6316
N12570 X-12.111 Y12.6438
N12580 X-12.1509 Y12.6446 F306.
N12590 G02 X-12.2 Y12.6946 I0.0009 J0.0499
N12600 G01 Y12.7346
N12610 Y13.61 F382.
N12620 Y13.65 F306.
N12630 G02 X-12.15 Y13.7 I0.05 J0.
N12640 G01 X-12.11
N12650 X-1.39 F382.
N12660 X-1.35 F306.
N12670 G02 X-1.3 Y13.65 I0. J-0.05
N12680 G01 Y13.61
N12690 Y7.505 F382.
N12700 Y7.465 F306.
N12710 G02 X-1.35 Y7.415 I-0.05 J0.
N12720 G01 X-1.39
N12730 X-1.625 F382.
N12740 X-1.86
N12750 X-1.9 F306.
N12760 G03 X-1.95 Y7.365 I0. J-0.05
N12770 G01 Y7.325
N12780 Y2.04 F382.
N12790 Y2. F306.
N12800 G02 X-2. Y1.95 I-0.05 J0.
N12810 G01 X-2.04
N12820 X-3.4504 F382.
N12830 X-3.4634 Y1.9483
N12840 X-3.7292 Y1.8763
N12850 X-3.7678 Y1.8658 F306.
N12860 G02 X-3.8266 Y1.8937 I-0.0131 J0.0483
N12870 G03 X-3.8755 Y1.9233 I-0.0457 J-0.0203
N12880 G01 X-3.9154 Y1.9207
N12890 X-11.2816 Y1.4444 F382.
N12900 X-11.3215 Y1.4418 F306.
N12910 G02 X-11.3746 Y1.4885 I-0.0032 J0.0499
N12920 X-11.3279 Y1.5416 I0.0499 J0.0032
N12930 G01 X-11.288 Y1.5442
N12940 X-3.5367 Y2.0454 F382.
N12950 X-3.4967 Y2.048 F306.
N12960 X-3.468 Y2.0594
N12970 X-3.4372 Y2.085
N12980 X-3.3503 Y2.1574 F382.
N12990 X-3.3488 Y2.1587
N13000 X-3.2698 Y2.2299
N13010 G03 X-2.972 Y2.5691 I-1.3066 J1.4475
N13020 G01 X-2.9025 Y2.6698
N13030 G03 X-2.6959 Y3.0551 I-1.6044 J1.1083
N13040 G01 X-2.6548 Y3.158
N13050 G03 X-2.5415 Y3.5659 I-1.811 J0.723
N13060 G01 X-2.5245 Y3.6694
N13070 G03 X-2.4992 Y4.0172 I-1.9244 J0.3151
N13080 G01 X-2.5004 Y4.0888
N13090 G03 X-2.5324 Y4.4097 I-1.9497 J-0.0327
N13100 G01 X-2.5502 Y4.5062
N13110 G03 X-2.6447 Y4.8444 I-1.9177 J-0.3535
N13120 G01 X-2.6759 Y4.9265
N13130 G03 X-2.8127 Y5.2139 I-1.8231 J-0.6918
N13140 G01 X-2.8499 Y5.2779
N13150 X-2.8512 Y5.2801
N13160 X-2.9453 Y5.4249
N13170 X-2.9472 Y5.4276
N13180 X-3.0486 Y5.5635
N13190 G03 X-3.2638 Y5.7959 I-1.5334 J-1.2047
N13200 G01 X-3.3566 Y5.881
N13210 X-3.449 Y5.96
N13220 X-3.4512 Y5.9617
N13230 X-3.7449 Y6.1854
N13240 X-3.7474 Y6.1872
N13250 X-4.2336 Y6.5136
N13260 X-4.2355 Y6.5148
N13270 X-4.8067 Y6.8629
N13280 X-5.1197 Y7.0396
N13290 G03 X-5.4363 Y7.1814 I-0.9519 J-1.7019
N13300 G01 X-5.5431 Y7.2182
N13310 G03 X-5.9839 Y7.3149 I-0.6353 J-1.8436
N13320 G01 X-6.1033 Y7.3268
N13330 X-6.1057 Y7.327
N13340 X-6.2694 Y7.3355
N13350 X-6.2734
N13360 X-7.0526 Y7.3136
N13370 X-7.8066 Y7.3004
N13380 X-9.0976 Y7.2918
N13390 X-10.8224 Y7.297
N13400 X-11.4606 Y7.3044
N13410 X-11.5006 Y7.3049 F306.
N13420 G02 X-11.55 Y7.3549 I0.0006 J0.05
N13430 G01 Y7.3949
N13440 Y7.6035 F382.
N13450 Y7.6435 F306.
N13460 G02 X-11.5006 Y7.6935 I0.05 J0.
N13470 G01 X-11.4606 Y7.694
N13480 X-10.6405 Y7.7043 F382.
N13490 X-9.266 Y7.7084
N13500 X-7.9644 Y7.7014
N13510 X-7.2515 Y7.6907
N13520 X-6.3413 Y7.6652
N13530 X-6.3382 Y7.6653
N13540 X-6.0631 Y7.6751
N13550 X-6.0606 Y7.6753
N13560 G03 X-5.5614 Y7.7856 I-0.1676 J1.9428
N13570 G01 X-5.3325 Y7.8689
N13580 G03 X-5.0095 Y8.0213 I-0.6668 J1.8324
N13590 G01 X-4.4429 Y8.3551
N13600 X-4.441 Y8.3562
N13610 X-3.9053 Y8.7052
N13620 X-3.9029 Y8.7068
N13630 X-3.4738 Y9.0225
N13640 X-3.4716 Y9.0243
N13650 X-3.3312 Y9.1406
N13660 X-3.3287 Y9.1427
N13670 X-3.2185 Y9.2469
N13680 X-3.2161 Y9.2493
N13690 X-3.107 Y9.3673
N13700 X-3.105 Y9.3696
N13710 X-3.0116 Y9.4838
N13720 X-3.0095 Y9.4866
N13730 X-2.9016 Y9.6396
N13740 X-2.8996 Y9.6427
N13750 X-2.8053 Y9.8001
N13760 X-2.8034 Y9.8036
N13770 X-2.7138 Y9.9845
N13780 X-2.7121 Y9.9881
N13790 X-2.6352 Y10.1811
N13800 G03 X-2.5475 Y10.5037 I-1.8309 J0.6712
N13810 G01 X-2.5316 Y10.5912
N13820 G03 X-2.5002 Y10.9379 I-1.9186 J0.3486
N13830 G01 X-2.5001 Y11.0243
N13840 G03 X-2.5324 Y11.3797 I-1.95 J0.0019
N13850 G01 X-2.5507 Y11.479
N13860 G03 X-2.6655 Y11.8686 I-1.9177 J-0.3536
N13870 G01 X-2.709 Y11.974
N13880 G03 X-2.9186 Y12.3552 I-1.8029 J-0.7431
N13890 G01 X-2.9837 Y12.4474
N13900 G03 X-3.2677 Y12.7682 I-1.5932 J-1.1244
N13910 G01 X-3.3446 Y12.8379
N13920 X-3.3462 Y12.8392
N13930 X-3.4375 Y12.9153
N13940 X-3.4682 Y12.9408 F306.
N13950 X-3.4966 Y12.9523
N13960 X-3.5365 Y12.9552
N13970 X-11.4048 Y13.5319 F382.
N13980 X-11.4446 Y13.5348 F306.
N13990 G02 X-11.4909 Y13.5884 I0.0036 J0.0499
N14000 X-11.4373 Y13.6346 I0.0499 J-0.0037
N14010 G01 X-11.3974 Y13.6317
N14020 X-3.9145 Y13.0832 F382.
N14030 X-3.8746 Y13.0803 F306.
N14040 G03 X-3.826 Y13.1081 I0.0037 J0.0498
N14050 G02 X-3.7681 Y13.1344 I0.0449 J-0.022
N14060 G01 X-3.7294 Y13.1239
N14070 X-3.4634 Y13.0517 F382.
N14080 X-3.4503 Y13.05
N14090 X-2.04
N14100 X-2. F306.
N14110 G02 X-1.95 Y13. I0. J-0.05
N14120 G01 Y12.96
N14130 Y7.465 F382.
N14140 G02 X-2. Y7.415 I-0.05 J0. F306.
N14150 G01 X-2.04
N14160 X-2.275 F382.
N14170 X-2.51
N14180 X-2.55 F306.
N14190 G03 X-2.6 Y7.365 I0. J-0.05
N14200 G01 Y7.325
N14210 Y6.1894 F382.
N14220 X-2.5973 Y6.1731
N14230 X-2.5896 Y6.1509
N14240 X-2.5766 Y6.1131 F306.
N14250 G02 X-2.6077 Y6.0496 I-0.0473 J-0.0163
N14260 X-2.6712 Y6.0806 I-0.0162 J0.0472
N14270 G01 X-2.6842 Y6.1184
N14280 X-2.6902 Y6.1359 F382.
N14290 X-2.7025 Y6.1554
N14300 X-2.8233 Y6.2737
N14310 X-2.9163 Y6.3592
N14320 X-3.0251 Y6.4527
N14330 X-3.0273 Y6.4545
N14340 X-3.3493 Y6.7012
N14350 X-3.3518 Y6.7029
N14360 X-3.8701 Y7.0525
N14370 X-3.872 Y7.0537
N14380 X-4.4674 Y7.4174
N14390 X-4.5032 Y7.4378
N14400 X-4.5379 Y7.4576 F306.
N14410 G02 X-4.5386 Y7.5442 I0.0246 J0.0435
N14420 G01 X-4.5042 Y7.5645
N14430 X-4.1142 Y7.7943 F382.
N14440 X-4.1123 Y7.7955
N14450 X-3.5523 Y8.1594
N14460 X-3.55 Y8.161
N14470 X-3.0903 Y8.4977
N14480 X-3.0882 Y8.4994
N14490 X-2.9184 Y8.6385
N14500 X-2.916 Y8.6406
N14510 X-2.7738 Y8.7728
N14520 X-2.7716 Y8.775
N14530 X-2.7011 Y8.8492
N14540 X-2.6902 Y8.8673
N14550 X-2.6849 Y8.8825
N14560 X-2.6717 Y8.9203 F306.
N14570 G02 X-2.6081 Y8.9511 I0.0472 J-0.0164
N14580 X-2.5773 Y8.8875 I-0.0164 J-0.0472
N14590 G01 X-2.5904 Y8.8497
N14600 X-2.5972 Y8.83 F382.
N14610 X-2.6 Y8.8136
N14620 Y7.505
N14630 Y7.465 F306.
N14640 G02 X-2.652 Y7.415 I-0.05 J0.
N14650 G01 X-2.692 Y7.4167
N14660 X-3.276 Y7.4403 F382.
N14670 X-3.289 Y7.4446 F306.
N14680 X-3.3413 Y7.4799
N14690 G02 X-3.3409 Y7.5216 I0.014 J0.0207
N14700 G01 X-3.2886 Y7.5555
N14710 G02 X-3.25 Y7.5346 I0.0136 J-0.0209
N14720 G01 Y7.4653
N14730 G02 X-3.276 Y7.4403 I-0.025 J0.
N14740 G01 Z-1.1329 F382.
N14750 G00 Z0.25
N14760 G00 X-6.2679 Y15.5039
N14770 G00 Z-1.4186
N14780 G01 Z-1.4286 F382.
N14790 Y15.
N14800 X-0.04 F382.
N14810 X0. F306.
N14820 Y14.96
N14830 Y11.6669 F382.
N14840 Y11.6269 F306.
N14850 X-0.0346 Y11.6469
N14860 X-0.0818 Y11.6741 F382.
N14870 X-0.1964 Y11.7092
N14880 X-0.282 Y11.7179
N14890 X-0.4554 Y11.7326
N14900 X-0.6559 Y11.7773
N14910 X-0.8478 Y11.8508
N14920 X-1.027 Y11.9514
N14930 X-1.1896 Y12.077
N14940 X-1.3322 Y12.225
N14950 X-1.3902 Y12.3001
N14960 X-1.5985 Y12.605
N14970 X-1.6908 Y12.6928
N14980 X-1.7632 Y12.738
N14990 X-1.8497 Y12.7731
N15000 X-1.9655 Y12.7929
N15010 X-2.0573 Y12.7915
N15020 X-2.1001 Y12.7846
N15030 X-2.2058 Y12.7501
N15040 X-2.3507 Y12.6673
N15050 X-2.4159 Y12.6088
N15060 X-2.4679 Y12.5433
N15070 X-2.5026 Y12.4791
N15080 X-2.5216 Y12.4439 F306.
N15090 X-2.5504 Y12.4716
N15100 X-2.5655 Y12.4861 F382.
N15110 X-2.6211 Y12.5271
N15120 X-2.692 Y12.5647
N15130 X-2.7773 Y12.5928
N15140 X-3.0603 Y12.6294
N15150 X-3.6083 Y12.6704
N15160 X-3.779 Y12.6629
N15170 X-3.9981 Y12.6785
N15180 X-4.7911 Y12.637
N15190 X-5.1983 Y12.6306
N15200 X-5.4854 Y12.603
N15210 X-5.705 Y12.5994
N15220 X-6.2173 Y12.5555
N15230 X-6.348 Y12.548
N15240 X-6.8463 Y12.493
N15250 X-7.2718 Y12.4559
N15260 X-7.3603 Y12.4365
N15270 X-7.4459 Y12.4009
N15280 X-7.5527 Y12.3291
N15290 X-7.6721 Y12.2165
N15300 X-7.7159 Y12.1718
N15310 X-7.8111 Y12.0764
N15320 X-7.9738 Y11.9509
N15330 X-8.153 Y11.8504
N15340 X-8.3449 Y11.777
N15350 X-8.5455 Y11.7324
N15360 X-8.7505 Y11.7175
N15370 X-8.9554 Y11.7326
N15380 X-9.1559 Y11.7773
N15390 X-9.3478 Y11.8508
N15400 X-9.527 Y11.9514
N15410 X-9.6896 Y12.077
N15420 X-9.7314 Y12.1163
N15430 X-9.8953 Y12.2672
N15440 X-9.9551 Y12.3093
N15450 X-10.0261 Y12.3471
N15460 X-10.1033 Y12.3749
N15470 X-10.2308 Y12.3931
N15480 X-11.0609 Y12.4225
N15490 X-11.6545 Y12.4502
N15500 X-12.5915 Y12.4951
N15510 X-12.6609 Y12.5019
N15520 X-13.3854 Y12.5449
N15530 X-13.4601 Y12.5491
N15540 X-13.5 Y12.5514 F306.
N15550 Y12.5914
N15560 Y14.96 F382.
N15570 Y15. F306.
N15580 X-13.46
N15590 X-6.3079 F382.
N15600 X-6.2679 F306.
N15610 X-6.2325 Y14.9854
N15620 X-6.2043 Y14.9571
N15630 X-5.9222 Y14.675 F382.
N15640 X-5.6401 Y14.3929
N15650 X-5.6118 Y14.3646 F306.
N15660 X-5.5765 Y14.35
N15670 X-5.5365
N15680 X-0.74 F382.
N15690 X-0.7 F306.
N15700 G02 X-0.65 Y14.3 I0. J-0.05
N15710 G01 Y14.26
N15720 Y12.6234 F382.
N15730 Y12.5834 F306.
N15740 G02 X-0.7306 Y12.5438 I-0.05 J0.
N15750 G01 X-0.7502 Y12.5589
N15760 X-0.7608 Y12.5698
N15770 X-0.8363 Y12.6471 F382.
N15780 X-1.0619 Y12.9717
N15790 X-1.1504 Y13.0758
N15800 X-1.2427 Y13.1636
N15810 X-1.3463 Y13.2439
N15820 X-1.4187 Y13.2892
N15830 X-1.5191 Y13.3405
N15840 X-1.6057 Y13.3755
N15850 X-1.7399 Y13.4137
N15860 X-1.8557 Y13.4336
N15870 X-1.9752 Y13.4428
N15880 X-2.0634 Y13.4415
N15890 X-2.067 Y13.4413
N15900 X-2.1612 Y13.433
N15910 X-2.1648 Y13.4326
N15920 X-2.204 Y13.4262
N15930 X-2.2078 Y13.4255
N15940 X-2.298 Y13.4036
N15950 X-2.3017 Y13.4026
N15960 X-2.4074 Y13.3681
N15970 X-2.5285 Y13.3144
N15980 X-2.6195 Y13.2623
N15990 X-2.6542 Y13.2424 F306.
N16000 X-2.6857 Y13.2363
N16010 X-2.7253 Y13.2414
N16020 X-2.975 Y13.2737 F382.
N16030 X-2.9776 Y13.274
N16040 X-3.5568 Y13.3183
N16050 X-3.5598 Y13.3185
N16060 X-3.6369 Y13.3197
N16070 X-3.6398 Y13.3196
N16080 X-3.7659 Y13.3141
N16090 X-3.9489 Y13.3266
N16100 X-3.9519 Y13.3267
N16110 X-4.032 Y13.3275
N16120 X-4.0351 Y13.3274
N16130 X-4.8123 Y13.2868
N16140 X-5.2056 Y13.2806
N16150 X-5.2093 Y13.2804
N16160 X-5.519 Y13.2528
N16170 X-5.7131 Y13.2493
N16180 X-5.7164 Y13.2492
N16190 X-6.2629 Y13.204
N16200 X-6.3831 Y13.1971
N16210 X-6.3857 Y13.1969
N16220 X-6.9097 Y13.14
N16230 X-7.3252 Y13.1037
N16240 X-7.3284 Y13.1033
N16250 X-7.411 Y13.0907
N16260 X-7.4141 Y13.0901
N16270 X-7.4995 Y13.0714
N16280 X-7.61 Y13.0366
N16290 X-7.6955 Y13.0011
N16300 X-7.8084 Y12.9404
N16310 X-7.9153 Y12.8686
N16320 X-7.9987 Y12.802
N16330 X-8.1171 Y12.6903
N16340 X-8.2379 Y12.5689
N16350 X-8.3289 Y12.4979
N16360 X-8.4247 Y12.4433
N16370 X-8.5274 Y12.4032
N16380 X-8.6349 Y12.3785
N16390 X-8.7448 Y12.3696
N16400 X-8.8548 Y12.3769
N16410 X-8.9626 Y12.4002
N16420 X-9.0659 Y12.4388
N16430 X-9.1623 Y12.4921
N16440 X-9.2825 Y12.5868
N16450 X-9.4526 Y12.7432
N16460 X-9.4551 Y12.7453
N16470 X-9.5211 Y12.7986
N16480 X-9.5237 Y12.8005
N16490 X-9.5783 Y12.839
N16500 X-9.5809 Y12.8407
N16510 X-9.65 Y12.8832
N16520 X-9.6527 Y12.8847
N16530 X-9.7178 Y12.9193
N16540 X-9.721 Y12.9209
N16550 X-9.8061 Y12.9586
N16560 X-9.8094 Y12.9599
N16570 X-9.8832 Y12.9865
N16580 X-10.0115 Y13.0184
N16590 X-10.1363 Y13.0362
N16600 X-10.1389 Y13.0365
N16610 X-10.2078 Y13.0426
N16620 X-10.2104 Y13.0428
N16630 X-11.0339 Y13.0719
N16640 X-12.5428 Y13.1435
N16650 X-12.622 Y13.1507
N16660 X-12.763 Y13.1591
N16670 X-12.803 Y13.1615 F306.
N16680 G02 X-12.85 Y13.2114 I0.003 J0.0499
N16690 G01 Y13.2514
N16700 Y14.26 F382.
N16710 Y14.3 F306.
N16720 G02 X-12.8 Y14.35 I0.05 J0.
N16730 G01 X-12.76
N16740 X-6.2679 F382.
N16750 X-6.2325 Y14.3354 F306.
N16760 X-6.2043 Y14.3071
N16770 X-6.0172 Y14.12 F382.
N16780 X-5.8301 Y13.9329
N16790 X-5.8018 Y13.9046 F306.
N16800 X-5.7665 Y13.89
N16810 X-5.7265
N16820 X-2.6429 F382.
N16830 X-2.6029 F306.
N16840 X-2.5681 Y13.8759
N16850 G03 X-2.5318 Y13.8618 I0.0348 J0.0359
N16860 G01 X-2.4918 Y13.863
N16870 X-1.7199 Y13.886 F382.
N16880 X-1.6799 Y13.8872 F306.
N16890 G02 X-1.6284 Y13.8387 I0.0015 J-0.05
N16900 X-1.6769 Y13.7872 I-0.05 J-0.0015
N16910 G01 X-1.7169 Y13.786
N16920 X-2.6614 Y13.7579 F382.
N16930 X-2.6829 Y13.7523
N16940 X-2.7132 Y13.7366
N16950 X-2.7487 Y13.7183 F306.
N16960 X-2.7796 Y13.7123
N16970 X-2.8193 Y13.7174
N16980 X-2.9141 Y13.7297 F382.
N16990 X-2.9167 Y13.73
N17000 X-3.1029 Y13.7444
N17010 X-3.1083 Y13.7446
N17020 X-6.5385 Y13.6423
N17030 X-6.5424 Y13.642
N17040 X-6.954 Y13.5979
N17050 X-7.3542 Y13.562
N17060 X-7.3941 Y13.5585 F306.
N17070 G02 X-7.4444 Y13.586 I-0.0055 J0.0497
N17080 G03 X-7.4908 Y13.6139 I-0.0449 J-0.0221
N17090 G01 X-7.5307 Y13.6127
N17100 X-7.938 Y13.6006 F382.
N17110 X-7.9561 Y13.5966
N17120 G03 X-8.171 Y13.4799 I0.5102 J-1.1957
N17130 G01 X-8.2778 Y13.4081
N17140 G03 X-8.4447 Y13.2748 I0.7251 J-1.079
N17150 G01 X-8.5623 Y13.1639
N17160 X-8.6666 Y13.0596
N17170 X-8.6861 Y13.0437
N17180 X-8.7235 Y13.0256
N17190 X-8.7396 Y13.0222
N17200 X-8.7488 Y13.0226 F306.
N17210 X-8.7793 Y13.0269
N17220 X-8.8032 Y13.037
N17230 X-8.8347 Y13.0616
N17240 X-8.8584 Y13.0801 F382.
N17250 X-9.011 Y13.2201
N17260 X-9.013 Y13.2219
N17270 X-9.1111 Y13.3029
N17280 X-9.1136 Y13.3049
N17290 X-9.202 Y13.369
N17300 X-9.2047 Y13.3708
N17310 X-9.3076 Y13.4357
N17320 X-9.3102 Y13.4372
N17330 X-9.4102 Y13.4919
N17340 X-9.4134 Y13.4935
N17350 X-9.5403 Y13.5518
N17360 X-9.5436 Y13.5531
N17370 X-9.6627 Y13.5979
N17380 X-9.6759 Y13.6009
N17390 X-11.817 Y13.7899
N17400 X-11.8569 Y13.7934 F306.
N17410 G02 X-11.9023 Y13.8476 I0.0044 J0.0498
N17420 X-11.8481 Y13.893 I0.0498 J-0.0044
N17430 G01 X-11.8082 Y13.8895
N17440 X-9.6599 Y13.7002 F382.
N17450 X-9.6555 Y13.7
N17460 X-7.9649
N17470 X-7.9581 Y13.7005
N17480 X-7.5596 Y13.7556
N17490 X-7.52 Y13.7611 F306.
N17500 G03 X-7.479 Y13.8253 I-0.0068 J0.0495
N17510 G02 X-7.4312 Y13.89 I0.0478 J0.0147
N17520 G01 X-7.3912
N17530 X-5.7665 F382.
N17540 Z-1.4186 F382.
N17550 G00 Z0.25
N17560 G00 X-8.838 Y15.5039
N17570 G00 Z-1.7043
N17580 G01 Z-1.7143 F382.
N17590 Y15.
N17600 X-6.6968 F382.
N17610 X-6.6568 F306.
N17620 X-6.6952 Y14.9891
N17630 X-6.9452 Y14.9181 F382.
N17640 X-7.0777 Y14.8768
N17650 X-7.1929 Y14.8289
N17660 X-7.2465 Y14.7937
N17670 X-7.305 Y14.742
N17680 X-7.3604 Y14.6735
N17690 X-7.3998 Y14.6045
N17700 X-7.4267 Y14.5334
N17710 X-7.4465 Y14.4238
N17720 X-7.4405 Y14.2392
N17730 X-7.3736 Y13.594
N17740 X-7.3426 Y13.122
N17750 X-7.351 Y12.9706
N17760 X-7.3884 Y12.7686
N17770 X-7.4548 Y12.5741
N17780 X-7.5488 Y12.3914
N17790 X-7.6684 Y12.2243
N17800 X-7.8111 Y12.0764
N17810 X-7.9738 Y11.9509
N17820 X-8.153 Y11.8504
N17830 X-8.3449 Y11.777
N17840 X-8.5455 Y11.7324
N17850 X-8.7505 Y11.7175
N17860 X-8.9554 Y11.7326
N17870 X-9.1559 Y11.7773
N17880 X-9.3478 Y11.8508
N17890 X-9.527 Y11.9514
N17900 X-9.6896 Y12.077
N17910 X-9.8322 Y12.225
N17920 X-9.933 Y12.3631
N17930 X-9.968 Y12.4225
N17940 X-10.0176 Y12.5179
N17950 X-10.1112 Y12.7433
N17960 X-10.1684 Y12.9449
N17970 X-10.2123 Y13.2051
N17980 X-10.2206 Y13.3586
N17990 X-10.2128 Y13.5552
N18000 X-10.1713 Y13.8509
N18010 X-10.1309 Y14.0663
N18020 X-10.1275 Y14.1562
N18030 X-10.1542 Y14.3012
N18040 X-10.1889 Y14.3807
N18050 X-10.2337 Y14.4499
N18060 X-10.284 Y14.506
N18070 X-10.3725 Y14.5731
N18080 X-10.4942 Y14.6256
N18090 X-10.5894 Y14.6425
N18100 X-10.6749 Y14.6498
N18110 X-11.1889 Y14.7239
N18120 X-11.3815 Y14.7476
N18130 X-11.5804 Y14.7843
N18140 X-11.8387 Y14.8171
N18150 X-12.1027 Y14.8811
N18160 X-12.5256 Y14.9386
N18170 X-12.6711 Y14.9678
N18180 X-12.887 Y14.9949
N18190 X-12.9252 Y14.9997 F306.
N18200 X-12.9267 Y15.
N18210 X-12.8867
N18220 X-8.878 F382.
N18230 X-8.838 F306.
N18240 X-8.8027 Y14.9854
N18250 X-8.7744 Y14.9571
N18260 X-8.4923 Y14.675 F382.
N18270 X-8.2103 Y14.3929
N18280 X-8.182 Y14.3646 F306.
N18290 X-8.1466 Y14.35
N18300 X-8.1428
N18310 G02 X-8.0929 Y14.3016 I0. J-0.05
N18320 G01 X-8.0916 Y14.2617
N18330 X-8.0902 Y14.2205 F382.
N18340 X-8.09 Y14.2171
N18350 X-8.0215 Y13.5402
N18360 X-7.9941 Y13.1232
N18370 X-7.9974 Y13.0528
N18380 X-8.0179 Y12.939
N18390 X-8.0528 Y12.8344
N18400 X-8.1025 Y12.736
N18410 X-8.1661 Y12.6458
N18420 X-8.242 Y12.5659
N18430 X-8.3289 Y12.4979
N18440 X-8.4247 Y12.4433
N18450 X-8.5274 Y12.4032
N18460 X-8.6349 Y12.3785
N18470 X-8.7448 Y12.3696
N18480 X-8.8548 Y12.3769
N18490 X-8.9626 Y12.4002
N18500 X-9.0659 Y12.4388
N18510 X-9.1624 Y12.4922
N18520 X-9.2502 Y12.5589
N18530 X-9.3298 Y12.6404
N18540 X-9.3866 Y12.7171
N18550 X-9.4262 Y12.7895
N18560 X-9.4946 Y12.9533
N18570 X-9.5322 Y13.0842
N18580 X-9.5646 Y13.2728
N18590 X-9.5697 Y13.3598
N18600 X-9.5648 Y13.4932
N18610 X-9.5298 Y13.7446
N18620 X-9.4927 Y13.943
N18630 X-9.4922 Y13.9467
N18640 X-9.4815 Y14.0415
N18650 X-9.4813 Y14.0451
N18660 X-9.478 Y14.1314
N18670 X-9.4845 Y14.2515
N18680 X-9.4883 Y14.2741 F306.
N18690 X-9.4914 Y14.2909
N18700 G02 X-9.4422 Y14.35 I0.0492 J0.0091
N18710 G01 X-9.4022
N18720 X-8.878 F382.
N18730 X-8.838 F306.
N18740 G02 X-8.7883 Y14.305 I0. J-0.05
N18750 G01 X-8.7843 Y14.2652
N18760 X-8.7595 Y14.0167 F382.
N18770 X-8.7346 Y13.7681
N18780 X-8.7307 Y13.7283 F306.
N18790 G03 X-8.7086 Y13.6917 I0.0498 J0.005
N18800 G02 X-8.6864 Y13.655 I-0.0276 J-0.0417
N18810 G01 X-8.6824 Y13.6152
N18820 X-8.6694 Y13.487 F382.
N18830 X-8.646 Y13.1311
N18840 X-8.647 Y13.113
N18850 X-8.653 Y13.0954
N18860 X-8.6572 Y13.0831 F306.
N18870 X-8.671 Y13.0599
N18880 X-8.6925 Y13.0403
N18890 X-8.7203 Y13.027
N18900 X-8.7488 Y13.0226
N18910 X-8.7793 Y13.0269
N18920 X-8.8039 Y13.0376
N18930 X-8.8265 Y13.0559
N18940 X-8.8341 Y13.0636
N18950 X-8.8412 Y13.0755 F382.
N18960 X-8.8786 Y13.1652
N18970 X-8.8965 Y13.2255
N18980 X-8.917 Y13.3422
N18990 X-8.9166 Y13.4313
N19000 X-8.8909 Y13.6197
N19010 X-8.8883 Y13.6389 F306.
N19020 X-8.8879 Y13.6412
N19030 X-8.8845 Y13.6592
N19040 G02 X-8.8354 Y13.7 I0.0491 J-0.0092
N19050 G01 X-8.7954
N19060 X-8.7762 F382.
N19070 X-8.7362 F306.
N19080 X-8.7086 Y13.6917
N19090 Z-1.7043 F382.
N19100 G00 Z0.25
N19110 G00 X-8.7397 Y15.5039
N19120 G00 Z-1.99
N19130 G01 Z-2. F382.
N19140 Y15.
N19150 X-7.6328 F382.
N19160 X-7.5928 F306.
N19170 X-7.5939 Y14.9843
N19180 X-7.5896 Y14.9604
N19190 X-7.4429 Y14.1436 F382.
N19200 X-7.3787 Y13.6435
N19210 X-7.3659 Y13.4761
N19220 X-7.3426 Y13.122
N19230 X-7.351 Y12.9706
N19240 X-7.3884 Y12.7686
N19250 X-7.4548 Y12.5741
N19260 X-7.5488 Y12.3914
N19270 X-7.6684 Y12.2243
N19280 X-7.8111 Y12.0764
N19290 X-7.9738 Y11.9509
N19300 X-8.153 Y11.8504
N19310 X-8.3449 Y11.777
N19320 X-8.5455 Y11.7324
N19330 X-8.7505 Y11.7175
N19340 X-8.9554 Y11.7326
N19350 X-9.1559 Y11.7773
N19360 X-9.3478 Y11.8508
N19370 X-9.527 Y11.9514
N19380 X-9.6896 Y12.077
N19390 X-9.8322 Y12.225
N19400 X-9.933 Y12.3631
N19410 X-9.968 Y12.4225
N19420 X-10.0176 Y12.5179
N19430 X-10.1112 Y12.7433
N19440 X-10.1684 Y12.9449
N19450 X-10.2123 Y13.2051
N19460 X-10.2206 Y13.3586
N19470 X-10.2128 Y13.5552
N19480 X-10.1933 Y13.6938
N19490 X-10.1672 Y13.8286
N19500 X-10.1189 Y14.0012
N19510 X-10.044 Y14.2027
N19520 X-9.9399 Y14.4197
N19530 X-9.8053 Y14.6451
N19540 X-9.7196 Y14.7882
N19550 X-9.683 Y14.9155
N19560 X-9.6796 Y14.9601
N19570 X-9.6765 Y15. F306.
N19580 X-9.6365
N19590 X-8.7797 F382.
N19600 X-8.7397 F306.
N19610 G02 X-8.7007 Y14.9813 I0. J-0.05
N19620 G01 X-8.6757 Y14.95
N19630 X-8.4554 Y14.6747 F382.
N19640 X-8.2352 Y14.3994
N19650 X-8.2102 Y14.3681 F306.
N19660 X-8.1767 Y14.3497
N19670 G02 X-8.133 Y14.3088 I-0.0055 J-0.0497
N19680 G01 X-8.1259 Y14.2695
N19690 X-8.0858 Y14.0459 F382.
N19700 X-8.0258 Y13.5792
N19710 X-7.9941 Y13.1234
N19720 X-7.9974 Y13.0528
N19730 X-8.0179 Y12.939
N19740 X-8.0528 Y12.8344
N19750 X-8.1025 Y12.736
N19760 X-8.1661 Y12.6458
N19770 X-8.242 Y12.5659
N19780 X-8.3289 Y12.4979
N19790 X-8.4247 Y12.4433
N19800 X-8.5274 Y12.4032
N19810 X-8.6349 Y12.3785
N19820 X-8.7448 Y12.3696
N19830 X-8.8548 Y12.3769
N19840 X-8.9626 Y12.4002
N19850 X-9.0659 Y12.4388
N19860 X-9.1624 Y12.4922
N19870 X-9.2502 Y12.5589
N19880 X-9.3298 Y12.6404
N19890 X-9.3866 Y12.7171
N19900 X-9.4262 Y12.7895
N19910 X-9.4946 Y12.9533
N19920 X-9.5322 Y13.0842
N19930 X-9.5646 Y13.2728
N19940 X-9.5697 Y13.3598
N19950 X-9.5648 Y13.4932
N19960 X-9.5522 Y13.5852
N19970 X-9.5347 Y13.6758
N19980 X-9.501 Y13.797
N19990 X-9.4463 Y13.9451
N20000 X-9.3682 Y14.1086
N20010 X-9.2593 Y14.2913
N20020 X-9.2388 Y14.3257 F306.
N20030 G02 X-9.1959 Y14.35 I0.0429 J-0.0257
N20040 G01 X-9.1559
N20050 X-8.7797 F382.
N20060 X-8.7397 F306.
N20070 G02 X-8.6897 Y14.3 I0. J-0.05
N20080 G01 Y14.26
N20090 Y13.9746 F382.
N20100 Y13.6493
N20110 X-8.6893 Y13.6429
N20120 X-8.6732 Y13.5173
N20130 X-8.6462 Y13.1306
N20140 X-8.6472 Y13.1122
N20150 X-8.653 Y13.0954
N20160 X-8.6572 Y13.0831 F306.
N20170 X-8.671 Y13.0599
N20180 X-8.6925 Y13.0403
N20190 X-8.7203 Y13.027
N20200 X-8.7488 Y13.0226
N20210 X-8.7793 Y13.0269
N20220 X-8.8039 Y13.0376
N20230 X-8.8265 Y13.0559
N20240 X-8.8341 Y13.0636
N20250 X-8.8412 Y13.0755 F382.
N20260 X-8.8786 Y13.1652
N20270 X-8.8965 Y13.2255
N20280 X-8.917 Y13.3422
N20290 X-8.9166 Y13.4319
N20300 X-8.9023 Y13.5224
N20310 X-8.8828 Y13.594
N20320 X-8.8697 Y13.6298
N20330 X-8.856 Y13.6674 F306.
N20340 G02 X-8.8091 Y13.7 I0.0469 J-0.0174
N20350 G01 X-8.7407
N20360 G02 X-8.6911 Y13.6564 I0. J-0.05
N20370 G01 X-8.6893 Y13.6429
N20380 Z-1.99 F382.
N20390 G00 Z0.25
N20400 G00 X0.5039 Y13.5544
N20410 G00 Z-1.7043
N20420 G01 Z-1.7143 F382.
N20430 X0.
N20440 Y11.6669 F382.
N20450 Y11.6269 F306.
N20460 X-0.0346 Y11.6469
N20470 X-0.0818 Y11.6741 F382.
N20480 X-0.1964 Y11.7092
N20490 X-0.282 Y11.7179
N20500 X-0.4554 Y11.7326
N20510 X-0.6559 Y11.7773
N20520 X-0.8478 Y11.8508
N20530 X-1.027 Y11.9514
N20540 X-1.1896 Y12.077
N20550 X-1.3322 Y12.225
N20560 X-1.4517 Y12.3922
N20570 X-1.5456 Y12.5749
N20580 X-1.6119 Y12.7694
N20590 X-1.6491 Y12.9715
N20600 X-1.6565 Y13.1769
N20610 X-1.634 Y13.3811
N20620 X-1.582 Y13.5799
N20630 X-1.4949 Y13.7799
N20640 X-1.3638 Y14.0025
N20650 X-1.2675 Y14.1317
N20660 X-1.1642 Y14.2444
N20670 X-1.0461 Y14.3419
N20680 X-0.8977 Y14.4277
N20690 X-0.6391 Y14.5234
N20700 X-0.5353 Y14.5898
N20710 X-0.448 Y14.6812
N20720 X-0.387 Y14.7842
N20730 X-0.3498 Y14.9083
N20740 X-0.3459 Y14.9601
N20750 X-0.3429 Y15. F306.
N20760 X-0.3029
N20770 X-0.04 F382.
N20780 X0. F306.
N20790 Y14.96
N20800 Y13.5944 F382.
N20810 Y13.5544 F306.
N20820 X-0.0146 Y13.5191
N20830 X-0.0429 Y13.4908
N20840 X-0.325 Y13.2087 F382.
N20850 X-0.6071 Y12.9266
N20860 X-0.6354 Y12.8983 F306.
N20870 X-0.65 Y12.863
N20880 Y12.823
N20890 Y12.6234 F382.
N20900 Y12.5834 F306.
N20910 G02 X-0.7306 Y12.5438 I-0.05 J0.
N20920 G01 X-0.7502 Y12.5589
N20930 X-0.7608 Y12.5698
N20940 X-0.8273 Y12.6378 F382.
N20950 X-0.8921 Y12.727
N20960 X-0.9432 Y12.8248
N20970 X-0.9795 Y12.9289
N20980 X-1.0003 Y13.0372
N20990 X-1.0051 Y13.1474
N21000 X-0.9938 Y13.2571
N21010 X-0.9674 Y13.361
N21020 X-0.9165 Y13.48
N21030 X-0.8236 Y13.6389
N21040 X-0.7684 Y13.7137
N21050 X-0.7636 Y13.719
N21060 X-0.7368 Y13.7487 F306.
N21070 G02 X-0.65 Y13.7149 I0.0368 J-0.0338
N21080 G01 Y13.6749
N21090 Y12.863 F382.
N21100 Z-1.7043 F382.
N21110 G00 Z0.25
N21120 G00 X0.5039 Y13.5544
N21130 G00 Z-1.99
N21140 G01 Z-2. F382.
N21150 X0.
N21160 Y11.6669 F382.
N21170 Y11.6269 F306.
N21180 X-0.0346 Y11.6469
N21190 X-0.0818 Y11.6741 F382.
N21200 X-0.1964 Y11.7092
N21210 X-0.2619 Y11.7171
N21220 X-0.4554 Y11.7326
N21230 X-0.6559 Y11.7773
N21240 X-0.8478 Y11.8508
N21250 X-1.027 Y11.9514
N21260 X-1.1896 Y12.077
N21270 X-1.3322 Y12.225
N21280 X-1.4517 Y12.3922
N21290 X-1.5456 Y12.5749
N21300 X-1.6119 Y12.7694
N21310 X-1.6491 Y12.9715
N21320 X-1.6565 Y13.1769
N21330 X-1.634 Y13.3811
N21340 X-1.5741 Y13.598
N21350 X-1.4949 Y13.7799
N21360 X-1.3638 Y14.0025
N21370 X-1.2675 Y14.1317
N21380 X-1.1642 Y14.2444
N21390 X-1.0461 Y14.3419
N21400 X-0.8977 Y14.4277
N21410 X-0.6391 Y14.5234
N21420 X-0.5353 Y14.5898
N21430 X-0.448 Y14.6812
N21440 X-0.387 Y14.7842
N21450 X-0.3498 Y14.9083
N21460 X-0.3459 Y14.9601
N21470 X-0.3429 Y15. F306.
N21480 X-0.3029
N21490 X-0.04 F382.
N21500 X0. F306.
N21510 Y14.96
N21520 Y13.5944 F382.
N21530 Y13.5544 F306.
N21540 X-0.0146 Y13.5191
N21550 X-0.0429 Y13.4908
N21560 X-0.325 Y13.2087 F382.
N21570 X-0.6071 Y12.9266
N21580 X-0.6354 Y12.8983 F306.
N21590 X-0.65 Y12.863
N21600 Y12.823
N21610 Y12.6234 F382.
N21620 Y12.5834 F306.
N21630 G02 X-0.7306 Y12.5438 I-0.05 J0.
N21640 G01 X-0.7502 Y12.5589
N21650 X-0.7608 Y12.5698
N21660 X-0.8273 Y12.6378 F382.
N21670 X-0.8921 Y12.727
N21680 X-0.9432 Y12.8248
N21690 X-0.9795 Y12.9289
N21700 X-1.0003 Y13.0372
N21710 X-1.0051 Y13.1474
N21720 X-0.9943 Y13.2522
N21730 X-0.9612 Y13.3755
N21740 X-0.9165 Y13.48
N21750 X-0.8236 Y13.6389
N21760 X-0.7684 Y13.7137
N21770 X-0.7636 Y13.719
N21780 X-0.7368 Y13.7487 F306.
N21790 G02 X-0.65 Y13.7149 I0.0368 J-0.0338
N21800 G01 Y13.6749
N21810 Y12.863 F382.
N21820 Z-1.99 F382.
N21830 G00 Z0.25
N21840 G00 X-6.2679 Y-0.5039
N21850 G00 Z-1.4186
N21860 G01 Z-1.4286 F382.
N21870 Y0.
N21880 X-13.46 F382.
N21890 X-13.5 F306.
N21900 Y0.04
N21910 Y2.4005 F382.
N21920 Y2.4405 F306.
N21930 X-13.4676 Y2.438
N21940 X-13.4601 Y2.4385
N21950 X-12.7995 Y2.484 F382.
N21960 X-11.8054 Y2.5421
N21970 X-11.1545 Y2.5732
N21980 X-10.5581 Y2.595
N21990 X-10.228 Y2.6068
N22000 X-10.1493 Y2.6146
N22010 X-10.0653 Y2.6368
N22020 X-9.9913 Y2.6694
N22030 X-9.9265 Y2.709
N22040 X-9.8088 Y2.809
N22050 X-9.747 Y2.8645
N22060 X-9.6099 Y2.9893
N22070 X-9.4385 Y3.1026
N22080 X-9.2524 Y3.1898
N22090 X-9.0556 Y3.2489
N22100 X-8.8523 Y3.2788
N22110 X-8.6468 Y3.2787
N22120 X-8.4435 Y3.2487
N22130 X-8.2468 Y3.1895
N22140 X-8.0608 Y3.1022
N22150 X-7.8894 Y2.9888
N22160 X-7.7197 Y2.8339
N22170 X-7.5674 Y2.6813
N22180 X-7.5114 Y2.6377
N22190 X-7.4439 Y2.5973
N22200 X-7.3659 Y2.565
N22210 X-7.2454 Y2.5412
N22220 X-7.0292 Y2.5198
N22230 X-6.2819 Y2.4402
N22240 X-5.531 Y2.4057
N22250 X-4.7534 Y2.3573
N22260 X-4.0611 Y2.3371
N22270 X-3.446 Y2.345
N22280 X-3.0309 Y2.3735
N22290 X-2.8117 Y2.4003
N22300 X-2.7238 Y2.4231
N22310 X-2.6462 Y2.4581
N22320 X-2.5854 Y2.4978
N22330 X-2.55 Y2.5298
N22340 X-2.5202 Y2.5565 F306.
N22350 X-2.5014 Y2.5212
N22360 X-2.4651 Y2.4532 F382.
N22370 X-2.4132 Y2.3887
N22380 X-2.3509 Y2.3329
N22390 X-2.212 Y2.2527
N22400 X-2.1094 Y2.2176
N22410 X-2.0111 Y2.2053
N22420 X-1.9396 Y2.2084
N22430 X-1.8547 Y2.2258
N22440 X-1.7725 Y2.2576
N22450 X-1.6968 Y2.3032
N22460 X-1.6345 Y2.3557
N22470 X-1.5652 Y2.4361
N22480 X-1.3865 Y2.7045
N22490 X-1.263 Y2.8522
N22500 X-1.1099 Y2.9893
N22510 X-0.9385 Y3.1026
N22520 X-0.7524 Y3.1898
N22530 X-0.5556 Y3.2489
N22540 X-0.3523 Y3.2788
N22550 X-0.284 Y3.2821
N22560 X-0.1937 Y3.2915
N22570 X-0.0763 Y3.3282
N22580 X-0.0344 Y3.353
N22590 X0. Y3.3733 F306.
N22600 Y3.3333
N22610 Y0.04 F382.
N22620 Y0. F306.
N22630 X-0.04
N22640 X-6.2279 F382.
N22650 X-6.2679 F306.
N22660 X-6.3032 Y0.0146
N22670 X-6.3315 Y0.0429
N22680 X-6.6136 Y0.325 F382.
N22690 X-6.8956 Y0.6071
N22700 X-6.9239 Y0.6354 F306.
N22710 X-6.9593 Y0.65
N22720 X-12.76 F382.
N22730 X-12.8 F306.
N22740 G02 X-12.85 Y0.7 I0. J0.05
N22750 G01 Y0.74
N22760 Y1.7423 F382.
N22770 Y1.7823 F306.
N22780 G02 X-12.8029 Y1.8323 I0.05 J0.
N22790 G01 X-12.763 Y1.8346
N22800 X-11.7712 Y1.893 F382.
N22810 X-11.1275 Y1.9238
N22820 X-10.2064 Y1.9572
N22830 X-10.2039 Y1.9574
N22840 X-10.0857 Y1.9677
N22850 X-10.0812 Y1.9683
N22860 X-9.987 Y1.9853
N22870 X-9.9831 Y1.9862
N22880 X-9.8992 Y2.0084
N22890 X-9.8955 Y2.0096
N22900 X-9.8075 Y2.0403
N22910 X-9.8038 Y2.0417
N22920 X-9.7329 Y2.0729
N22930 X-9.7298 Y2.0744
N22940 X-9.6518 Y2.1152
N22950 X-9.6489 Y2.1168
N22960 X-9.587 Y2.1547
N22970 X-9.5838 Y2.1569
N22980 X-9.5088 Y2.2112
N22990 X-9.5057 Y2.2136
N23000 X-9.3889 Y2.3129
N23010 X-9.2138 Y2.4709
N23020 X-9.1243 Y2.5312
N23030 X-9.0247 Y2.5787
N23040 X-8.9193 Y2.6112
N23050 X-8.8104 Y2.628
N23060 X-8.7001 Y2.6287
N23070 X-8.5909 Y2.6134
N23080 X-8.485 Y2.5824
N23090 X-8.3849 Y2.5363
N23100 X-8.2951 Y2.4778
N23110 X-8.1699 Y2.3648
N23120 X-8.0298 Y2.2244
N23130 X-8.0275 Y2.2223
N23140 X-7.9666 Y2.1684
N23150 X-7.9642 Y2.1664
N23160 X-7.913 Y2.1266
N23170 X-7.9105 Y2.1248
N23180 X-7.8452 Y2.0801
N23190 X-7.8427 Y2.0784
N23200 X-7.781 Y2.0415
N23210 X-7.7777 Y2.0397
N23220 X-7.6921 Y1.9967
N23230 X-7.6887 Y1.9951
N23240 X-7.6141 Y1.9643
N23250 X-7.4917 Y1.9273
N23260 X-7.3736 Y1.904
N23270 X-7.3712 Y1.9036
N23280 X-7.3091 Y1.8944
N23290 X-7.307 Y1.8941
N23300 X-6.3531 Y1.7941
N23310 X-6.3502 Y1.7938
N23320 X-5.5665 Y1.7567
N23330 X-4.795 Y1.7086
N23340 X-4.0816 Y1.6874
N23350 X-4.0795
N23360 X-3.4397 Y1.6951
N23370 X-3.437 Y1.6952
N23380 X-2.9885 Y1.7249
N23390 X-2.9856 Y1.7252
N23400 X-2.7247 Y1.7578
N23410 X-2.685 Y1.7628 F306.
N23420 X-2.6526 Y1.7566
N23430 X-2.618 Y1.7366
N23440 X-2.5371 Y1.6899 F382.
N23450 X-2.4228 Y1.6379
N23460 X-2.3202 Y1.6027
N23470 X-2.1901 Y1.5726
N23480 X-2.0918 Y1.5603
N23490 X-1.9826 Y1.5559
N23500 X-1.9111 Y1.559
N23510 X-1.9071 Y1.5593
N23520 X-1.813 Y1.571
N23530 X-1.8091 Y1.5716
N23540 X-1.7242 Y1.589
N23550 X-1.62 Y1.6196
N23560 X-1.5378 Y1.6515
N23570 X-1.4373 Y1.7007
N23580 X-1.3616 Y1.7463
N23590 X-1.3583 Y1.7484
N23600 X-1.281 Y1.8038
N23610 X-1.2779 Y1.8062
N23620 X-1.2155 Y1.8588
N23630 X-1.2126 Y1.8615
N23640 X-1.1448 Y1.9285
N23650 X-1.1421 Y1.9314
N23660 X-1.0749 Y2.0094
N23670 X-1.073 Y2.0118
N23680 X-1.0242 Y2.076
N23690 X-1.0224 Y2.0785
N23700 X-0.8674 Y2.3113
N23710 X-0.7979 Y2.3951
N23720 X-0.7629 Y2.427
N23730 X-0.7333 Y2.454 F306.
N23740 G02 X-0.65 Y2.4167 I0.0333 J-0.0373
N23750 G01 Y2.3767
N23760 Y0.74 F382.
N23770 Y0.7 F306.
N23780 G02 X-0.7 Y0.65 I-0.05 J0.
N23790 G01 X-0.74
N23800 X-6.2679 F382.
N23810 X-6.3032 Y0.6646 F306.
N23820 X-6.3315 Y0.6929
N23830 X-6.5211 Y0.8825 F382.
N23840 X-6.7106 Y1.0721
N23850 X-6.7389 Y1.1004 F306.
N23860 X-6.7743 Y1.115
N23870 X-6.8143
N23880 X-7.3865 F382.
N23890 X-7.4265 F306.
N23900 G02 X-7.4751 Y1.177 I0. J0.05
N23910 G03 X-7.5168 Y1.2386 I-0.0485 J0.012
N23920 G01 X-7.5564 Y1.244
N23930 X-7.9604 Y1.2995 F382.
N23940 X-7.9672 Y1.3
N23950 X-9.6565
N23960 X-9.6609 Y1.2998
N23970 X-11.805 Y1.1104
N23980 X-11.8449 Y1.1069 F306.
N23990 G02 X-11.8991 Y1.1523 I-0.0044 J0.0498
N24000 X-11.8537 Y1.2065 I0.0498 J0.0044
N24010 G01 X-11.8138 Y1.21
N24020 X-9.6777 Y1.3987 F382.
N24030 X-9.6656 Y1.4013
N24040 X-9.5953 Y1.4259
N24050 X-9.5925 Y1.427
N24060 X-9.4738 Y1.4768
N24070 X-9.4705 Y1.4783
N24080 X-9.3529 Y1.538
N24090 X-9.35 Y1.5396
N24100 X-9.25 Y1.5989
N24110 X-9.2468 Y1.601
N24120 X-9.1299 Y1.6831
N24130 X-9.1267 Y1.6855
N24140 X-8.9691 Y1.8166
N24150 X-8.8187 Y1.9519
N24160 X-8.8082 Y1.9583
N24170 X-8.7951 Y1.9663 F306.
N24180 X-8.772 Y1.9751
N24190 X-8.7437 Y1.9772
N24200 X-8.7135 Y1.9707
N24210 X-8.7048 Y1.968
N24220 X-8.6906 Y1.959 F382.
N24230 X-8.619 Y1.8945
N24240 X-8.4913 Y1.7667
N24250 X-8.4894 Y1.7649
N24260 X-8.3988 Y1.683
N24270 X-8.3965 Y1.681
N24280 X-8.314 Y1.6151
N24290 X-8.3115 Y1.6132
N24300 X-8.2143 Y1.5451
N24310 X-8.2118 Y1.5434
N24320 X-8.1172 Y1.4852
N24330 X-8.1141 Y1.4835
N24340 X-7.9596 Y1.4043
N24350 X-7.9396 Y1.3994
N24360 X-7.5254 Y1.3868
N24370 X-7.4854 Y1.3856 F306.
N24380 G03 X-7.4402 Y1.4111 I0.0015 J0.0499
N24390 G02 X-7.3899 Y1.4363 I0.0436 J-0.0244
N24400 G01 X-7.3501 Y1.4321
N24410 X-6.6816 Y1.3612 F382.
N24420 X-6.6778 Y1.361
N24430 X-3.0983 Y1.2521
N24440 X-3.0936
N24450 X-2.9596 Y1.2608
N24460 X-2.9569 Y1.2611
N24470 X-2.8204 Y1.2774
N24480 X-2.7807 Y1.2822 F306.
N24490 X-2.7504 Y1.2763
N24500 X-2.7148 Y1.2582
N24510 X-2.6878 Y1.2444 F382.
N24520 X-2.6666 Y1.2389
N24530 X-1.7155 Y1.21
N24540 X-1.6755 Y1.2088 F306.
N24550 G02 X-1.6271 Y1.1572 I-0.0016 J-0.05
N24560 X-1.6786 Y1.1088 I-0.05 J0.0016
N24570 G01 X-1.7186 Y1.11
N24580 X-2.5266 Y1.1346 F382.
N24590 X-2.5666 Y1.1358 F306.
N24600 X-2.5987 Y1.1254
N24610 X-2.6292 Y1.115
N24620 X-2.6692
N24630 X-6.7743 F382.
N24640 Z-1.4186 F382.
N24650 G00 Z0.25
N24660 G00 X-8.8378 Y-0.5039
N24670 G00 Z-1.7043
N24680 G01 Z-1.7143 F382.
N24690 Y0.
N24700 X-12.8767 F382.
N24710 X-12.9167 F306.
N24720 X-12.8772 Y0.0062
N24730 X-12.634 Y0.0447 F382.
N24740 X-11.8781 Y0.1789
N24750 X-11.3672 Y0.2522
N24760 X-10.8401 Y0.3247
N24770 X-10.5629 Y0.3631
N24780 X-10.4746 Y0.3835
N24790 X-10.3605 Y0.4378
N24800 X-10.2768 Y0.5051
N24810 X-10.2242 Y0.5673
N24820 X-10.1813 Y0.6384
N24830 X-10.1489 Y0.7235
N24840 X-10.1339 Y0.7938
N24850 X-10.1306 Y0.9065
N24860 X-10.1942 Y1.2944
N24870 X-10.2209 Y1.5916
N24880 X-10.2146 Y1.7743
N24890 X-10.1972 Y1.9187
N24900 X-10.1723 Y2.0444
N24910 X-10.1267 Y2.2094
N24920 X-10.0628 Y2.3841
N24930 X-9.982 Y2.5538
N24940 X-9.9018 Y2.6832
N24950 X-9.8955 Y2.6924
N24960 X-9.7696 Y2.8443
N24970 X-9.747 Y2.8645
N24980 X-9.6099 Y2.9893
N24990 X-9.4385 Y3.1026
N25000 X-9.2524 Y3.1898
N25010 X-9.0556 Y3.2489
N25020 X-8.8523 Y3.2788
N25030 X-8.6468 Y3.2787
N25040 X-8.4435 Y3.2487
N25050 X-8.2468 Y3.1895
N25060 X-8.0608 Y3.1022
N25070 X-7.8894 Y2.9888
N25080 X-7.7281 Y2.8416
N25090 X-7.605 Y2.6936
N25100 X-7.498 Y2.5182
N25110 X-7.4177 Y2.329
N25120 X-7.3658 Y2.1302
N25130 X-7.3445 Y1.9063
N25140 X-7.343 Y1.8546
N25150 X-7.3438 Y1.8157
N25160 X-7.3803 Y1.3406
N25170 X-7.4439 Y0.7084
N25180 X-7.4464 Y0.5918
N25190 X-7.4226 Y0.4628
N25200 X-7.3802 Y0.363
N25210 X-7.331 Y0.2915
N25220 X-7.2765 Y0.2347
N25230 X-7.2205 Y0.1918
N25240 X-7.1319 Y0.1453
N25250 X-7.0721 Y0.1249
N25260 X-6.9481 Y0.0821
N25270 X-6.6926 Y0.0108
N25280 X-6.6541 Y0. F306.
N25290 X-6.6941
N25300 X-8.7978 F382.
N25310 X-8.8378 F306.
N25320 G02 X-8.8749 Y0.0165 I0. J0.05
N25330 G01 X-8.9017 Y0.0463
N25340 X-9.1548 Y0.3276 F382.
N25350 X-9.4252 Y0.628
N25360 X-9.4348 Y0.6386 F306.
N25370 X-9.4561 Y0.6526
N25380 G02 X-9.49 Y0.7041 I0.0159 J0.0474
N25390 G01 X-9.4868 Y0.7439
N25400 X-9.4842 Y0.7751 F382.
N25410 X-9.4841 Y0.7778
N25420 X-9.4809 Y0.8878
N25430 X-9.4892 Y1.0115
N25440 X-9.5485 Y1.3735
N25450 X-9.5695 Y1.6049
N25460 X-9.5661 Y1.7208
N25470 X-9.5551 Y1.8138
N25480 X-9.5399 Y1.8918
N25490 X-9.508 Y2.0079
N25500 X-9.464 Y2.1289
N25510 X-9.4124 Y2.2381
N25520 X-9.3716 Y2.3048
N25530 X-9.3019 Y2.3899
N25540 X-9.214 Y2.4707
N25550 X-9.1243 Y2.5312
N25560 X-9.0247 Y2.5787
N25570 X-8.9193 Y2.6112
N25580 X-8.8104 Y2.628
N25590 X-8.7001 Y2.6287
N25600 X-8.5909 Y2.6134
N25610 X-8.485 Y2.5824
N25620 X-8.3849 Y2.5363
N25630 X-8.2951 Y2.4778
N25640 X-8.2031 Y2.3951
N25650 X-8.1387 Y2.3188
N25660 X-8.0806 Y2.225
N25670 X-8.0368 Y2.1238
N25680 X-8.0095 Y2.0224
N25690 X-7.9939 Y1.8695
N25700 X-8.0277 Y1.3987
N25710 X-8.0921 Y0.7388
N25720 X-8.0936 Y0.7233 F306.
N25730 X-8.0938 Y0.7195
N25740 X-8.0942 Y0.6989
N25750 G02 X-8.1442 Y0.65 I-0.05 J0.0011
N25760 G01 X-8.1842
N25770 X-8.7978 F382.
N25780 X-8.8378 F306.
N25790 G02 X-8.8877 Y0.7 I0. J0.05
N25800 G01 Y0.74
N25810 Y1.0284 F382.
N25820 Y1.3568
N25830 X-8.8884 Y1.3648
N25840 X-8.9028 Y1.4529
N25850 X-8.9182 Y1.6198
N25860 X-8.913 Y1.707
N25870 X-8.8893 Y1.8063
N25880 X-8.8646 Y1.8752
N25890 X-8.8445 Y1.9186
N25900 X-8.8149 Y1.9546
N25910 X-8.8078 Y1.9606
N25920 X-8.7958 Y1.9668 F306.
N25930 X-8.7708 Y1.9755
N25940 X-8.7437 Y1.9772
N25950 X-8.7135 Y1.9707
N25960 X-8.6883 Y1.9567
N25970 X-8.6668 Y1.9347
N25980 X-8.6531 Y1.9072
N25990 X-8.6474 Y1.8693
N26000 X-8.6476 Y1.8677
N26010 X-8.6754 Y1.4542 F382.
N26020 X-8.6822 Y1.385
N26030 X-8.686 Y1.3452 F306.
N26040 G02 X-8.7358 Y1.3 I-0.0498 J0.0048
N26050 G01 X-8.7758
N26060 X-8.7953 F382.
N26070 X-8.8353 F306.
N26080 G02 X-8.8846 Y1.3419 I0. J0.05
N26090 G01 X-8.8884 Y1.3648
N26100 Z-1.7043 F382.
N26110 G00 Z0.25
N26120 G00 X-8.7395 Y-0.5039
N26130 G00 Z-1.99
N26140 G01 Z-2. F382.
N26150 Y0.
N26160 X-9.6353 F382.
N26170 X-9.6753 F306.
N26180 X-9.68 Y0.0397
N26190 X-9.69 Y0.1232 F382.
N26200 X-9.7308 Y0.2361
N26210 X-9.9376 Y0.5762
N26220 X-10.0343 Y0.7746
N26230 X-10.1299 Y1.0329
N26240 X-10.1693 Y1.1811
N26250 X-10.2011 Y1.3719
N26260 X-10.2209 Y1.5916
N26270 X-10.2146 Y1.7743
N26280 X-10.1972 Y1.9187
N26290 X-10.1723 Y2.0444
N26300 X-10.1267 Y2.2094
N26310 X-10.0628 Y2.3841
N26320 X-9.982 Y2.5538
N26330 X-9.9018 Y2.6832
N26340 X-9.8955 Y2.6924
N26350 X-9.7696 Y2.8443
N26360 X-9.747 Y2.8645
N26370 X-9.6099 Y2.9893
N26380 X-9.4385 Y3.1026
N26390 X-9.2524 Y3.1898
N26400 X-9.0556 Y3.2489
N26410 X-8.8523 Y3.2788
N26420 X-8.6468 Y3.2787
N26430 X-8.4435 Y3.2487
N26440 X-8.2468 Y3.1895
N26450 X-8.0608 Y3.1022
N26460 X-7.8894 Y2.9888
N26470 X-7.7281 Y2.8416
N26480 X-7.605 Y2.6936
N26490 X-7.498 Y2.5182
N26500 X-7.4411 Y2.3841
N26510 X-7.4017 Y2.2674
N26520 X-7.3792 Y2.1813
N26530 X-7.3616 Y2.0862
N26540 X-7.3445 Y1.9063
N26550 X-7.343 Y1.8546
N26560 X-7.3438 Y1.8157
N26570 X-7.3803 Y1.3406
N26580 X-7.4447 Y0.8432
N26590 X-7.5326 Y0.3426
N26600 X-7.5823 Y0.1127
N26610 X-7.5905 Y0.0397
N26620 X-7.5944 Y0.0049 F306.
N26630 X-7.5938 Y0.
N26640 X-7.6338
N26650 X-8.6995 F382.
N26660 X-8.7395 F306.
N26670 G02 X-8.7823 Y0.0243 I0. J0.05
N26680 G01 X-8.8029 Y0.0586
N26690 X-8.9627 Y0.325 F382.
N26700 X-9.1226 Y0.5914
N26710 X-9.1432 Y0.6257 F306.
N26720 G03 X-9.186 Y0.65 I-0.0428 J-0.0257
N26730 G01 X-9.1936
N26740 G02 X-9.2364 Y0.674 I0. J0.05
N26750 G01 X-9.2572 Y0.7082
N26760 X-9.3647 Y0.8851 F382.
N26770 X-9.4342 Y1.0271
N26780 X-9.5084 Y1.2262
N26790 X-9.5323 Y1.3149
N26800 X-9.5555 Y1.4519
N26810 X-9.5695 Y1.6049
N26820 X-9.5661 Y1.7208
N26830 X-9.5551 Y1.8138
N26840 X-9.5399 Y1.8918
N26850 X-9.508 Y2.0079
N26860 X-9.464 Y2.1289
N26870 X-9.4124 Y2.2381
N26880 X-9.3716 Y2.3048
N26890 X-9.3019 Y2.3899
N26900 X-9.214 Y2.4707
N26910 X-9.1243 Y2.5312
N26920 X-9.0247 Y2.5787
N26930 X-8.9193 Y2.6112
N26940 X-8.8104 Y2.628
N26950 X-8.7001 Y2.6287
N26960 X-8.5909 Y2.6134
N26970 X-8.485 Y2.5824
N26980 X-8.3849 Y2.5363
N26990 X-8.2951 Y2.4778
N27000 X-8.2031 Y2.3951
N27010 X-8.1387 Y2.3188
N27020 X-8.0806 Y2.225
N27030 X-8.0501 Y2.1552
N27040 X-8.0258 Y2.0839
N27050 X-8.0071 Y2.0016
N27060 X-7.9939 Y1.8695
N27070 X-8.027 Y1.4087
N27080 X-8.0873 Y0.9423
N27090 X-8.1244 Y0.7308
N27100 X-8.1313 Y0.6914 F306.
N27110 G02 X-8.1806 Y0.65 I-0.0493 J0.0086
N27120 G01 X-8.2206
N27130 X-8.6995 F382.
N27140 X-8.7395 F306.
N27150 G02 X-8.7892 Y0.695 I0. J0.05
N27160 G01 X-8.7931 Y0.7348
N27170 X-8.8204 Y1.0079 F382.
N27180 X-8.8517 Y1.3208
N27190 X-8.8544 Y1.3325
N27200 X-8.8871 Y1.4205
N27210 X-8.9097 Y1.5317
N27220 X-8.9182 Y1.6199
N27230 X-8.913 Y1.707
N27240 X-8.8893 Y1.8063
N27250 X-8.8646 Y1.8752
N27260 X-8.8445 Y1.9186
N27270 X-8.8149 Y1.9546
N27280 X-8.8078 Y1.9606
N27290 X-8.7958 Y1.9668 F306.
N27300 X-8.7708 Y1.9755
N27310 X-8.7437 Y1.9772
N27320 X-8.7135 Y1.9707
N27330 X-8.6883 Y1.9567
N27340 X-8.6668 Y1.9347
N27350 X-8.6531 Y1.9074
N27360 X-8.6474 Y1.8701
N27370 X-8.6476 Y1.8678
N27380 X-8.6739 Y1.4751 F382.
N27390 X-8.6742 Y1.4723
N27400 X-8.6857 Y1.3833
N27410 X-8.6908 Y1.3436 F306.
N27420 G02 X-8.7404 Y1.3 I-0.0496 J0.0064
N27430 G01 X-8.8075
N27440 G02 X-8.8544 Y1.3325 I0. J0.05
N27450 G01 Z-1.99 F382.
N27460 G00 Z0.25
N27470 G00 X0.5039 Y1.4457
N27480 G00 Z-1.7043
N27490 G01 Z-1.7143 F382.
N27500 X0.
N27510 Y0.04 F382.
N27520 Y0. F306.
N27530 X-0.04
N27540 X-0.303 F382.
N27550 X-0.3429 F306.
N27560 X-0.3481 Y0.0397
N27570 X-0.3608 Y0.1378 F382.
N27580 X-0.4 Y0.2419
N27590 X-0.4665 Y0.342
N27600 X-0.5538 Y0.4245
N27610 X-0.657 Y0.4849
N27620 X-0.8711 Y0.5605
N27630 X-1.0268 Y0.6449
N27640 X-1.168 Y0.7591
N27650 X-1.2942 Y0.9009
N27660 X-1.4033 Y1.0584
N27670 X-1.4984 Y1.2269
N27680 X-1.5456 Y1.3249
N27690 X-1.6119 Y1.5194
N27700 X-1.6491 Y1.7215
N27710 X-1.6565 Y1.9269
N27720 X-1.634 Y2.1311
N27730 X-1.582 Y2.3299
N27740 X-1.5015 Y2.519
N27750 X-1.4069 Y2.674
N27760 X-1.3889 Y2.701
N27770 X-1.263 Y2.8522
N27780 X-1.1099 Y2.9893
N27790 X-0.9385 Y3.1026
N27800 X-0.7524 Y3.1898
N27810 X-0.5556 Y3.2489
N27820 X-0.3523 Y3.2788
N27830 X-0.284 Y3.2821
N27840 X-0.1937 Y3.2915
N27850 X-0.0763 Y3.3282
N27860 X-0.0344 Y3.353
N27870 X0. Y3.3733 F306.
N27880 Y3.3333
N27890 Y1.4857 F382.
N27900 Y1.4457 F306.
N27910 G02 X-0.0402 Y1.3967 I-0.05 J0.
N27920 G01 X-0.0794 Y1.3889
N27930 X-0.3335 Y1.338 F382.
N27940 X-0.5876 Y1.2872
N27950 X-0.6269 Y1.2794 F306.
N27960 X-0.6585 Y1.2583
N27970 G02 X-0.7373 Y1.2529 I-0.0415 J0.0279
N27980 G01 X-0.7639 Y1.2828
N27990 X-0.7793 Y1.3001 F382.
N28000 X-0.85 Y1.4011
N28010 X-0.9207 Y1.5258
N28020 X-0.941 Y1.5675
N28030 X-0.9795 Y1.6789
N28040 X-1.0003 Y1.7872
N28050 X-1.0051 Y1.8974
N28060 X-0.9938 Y2.0071
N28070 X-0.9666 Y2.114
N28080 X-0.9242 Y2.2157
N28090 X-0.8674 Y2.3103
N28100 X-0.7974 Y2.3955
N28110 X-0.7629 Y2.427
N28120 X-0.7333 Y2.454 F306.
N28130 G02 X-0.65 Y2.4167 I0.0333 J-0.0373
N28140 G01 Y2.3767
N28150 Y1.3262 F382.
N28160 Y1.2862 F306.
N28170 X-0.6585 Y1.2583
N28180 Z-1.7043 F382.
N28190 G00 Z0.25
N28200 G00 X0.5039 Y1.4457
N28210 G00 Z-1.99
N28220 G01 Z-2. F382.
N28230 X0.
N28240 Y0.04 F382.
N28250 Y0. F306.
N28260 X-0.04
N28270 X-0.303 F382.
N28280 X-0.3429 F306.
N28290 X-0.3481 Y0.0397
N28300 X-0.3608 Y0.1378 F382.
N28310 X-0.4 Y0.2419
N28320 X-0.4665 Y0.342
N28330 X-0.5538 Y0.4245
N28340 X-0.657 Y0.4849
N28350 X-0.8711 Y0.5605
N28360 X-1.0268 Y0.6449
N28370 X-1.168 Y0.7591
N28380 X-1.2942 Y0.9009
N28390 X-1.4033 Y1.0584
N28400 X-1.4984 Y1.2269
N28410 X-1.5508 Y1.3403
N28420 X-1.609 Y1.5109
N28430 X-1.6132 Y1.5269
N28440 X-1.6197 Y1.5622
N28450 X-1.6497 Y1.7434
N28460 X-1.6565 Y1.9269
N28470 X-1.634 Y2.1311
N28480 X-1.582 Y2.3299
N28490 X-1.5015 Y2.519
N28500 X-1.4069 Y2.674
N28510 X-1.3889 Y2.701
N28520 X-1.263 Y2.8522
N28530 X-1.1099 Y2.9893
N28540 X-0.9385 Y3.1026
N28550 X-0.7524 Y3.1898
N28560 X-0.5556 Y3.2489
N28570 X-0.3523 Y3.2788
N28580 X-0.2483 Y3.2838
N28590 X-0.1937 Y3.2915
N28600 X-0.0763 Y3.3282
N28610 X-0.0344 Y3.353
N28620 X0. Y3.3733 F306.
N28630 Y3.3333
N28640 Y1.4857 F382.
N28650 Y1.4457 F306.
N28660 G02 X-0.0402 Y1.3967 I-0.05 J0.
N28670 G01 X-0.0794 Y1.3889
N28680 X-0.3335 Y1.338 F382.
N28690 X-0.5876 Y1.2872
N28700 X-0.6269 Y1.2794 F306.
N28710 X-0.6585 Y1.2583
N28720 G02 X-0.7373 Y1.2529 I-0.0415 J0.0279
N28730 G01 X-0.7639 Y1.2828
N28740 X-0.7793 Y1.3001 F382.
N28750 X-0.85 Y1.4011
N28760 X-0.9179 Y1.5209
N28770 X-0.9449 Y1.5785
N28780 X-0.9789 Y1.6772
N28790 X-1.0009 Y1.8042
N28800 X-1.005 Y1.8977
N28810 X-0.9938 Y2.0071
N28820 X-0.9666 Y2.114
N28830 X-0.9242 Y2.2157
N28840 X-0.8674 Y2.3103
N28850 X-0.7974 Y2.3955
N28860 X-0.7629 Y2.427
N28870 X-0.7333 Y2.454 F306.
N28880 G02 X-0.65 Y2.4167 I0.0333 J-0.0373
N28890 G01 Y2.3767
N28900 Y1.3262 F382.
N28910 Y1.2862 F306.
N28920 X-0.6585 Y1.2583
N28930 Z-1.99 F382.
N28940 G00 Z0.25
N28950 G00 X0.5039 Y7.4205
N28960 G00 Z-1.4186
N28970 G01 Z-1.4286 F382.
N28980 X0.
N28990 Y5.0778 F382.
N29000 Y5.0378 F306.
N29010 X-0.0336 Y5.0595
N29020 X-0.0581 Y5.0753 F382.
N29030 X-0.1697 Y5.1156
N29040 X-0.2924 Y5.13
N29050 X-1.5175
N29060 X-1.5575 F306.
N29070 X-1.5597 Y5.1419
N29080 Y5.1698
N29090 Y9.83 F382.
N29100 Y9.8537 F306.
N29110 X-1.5587 Y9.87
N29120 X-1.5187
N29130 X-0.2936 F382.
N29140 X-0.1683 Y9.8849
N29150 X-0.0557 Y9.9256
N29160 X-0.0335 Y9.9401
N29170 X0. Y9.9621 F306.
N29180 Y9.9221
N29190 Y7.4605 F382.
N29200 Y7.4205 F306.
N29210 X-0.0146 Y7.3852
N29220 X-0.0429 Y7.3569
N29230 X-0.325 Y7.0748 F382.
N29240 X-0.6071 Y6.7927
N29250 X-0.6354 Y6.7644 F306.
N29260 X-0.65 Y6.7291
N29270 Y6.6891
N29280 Y5.87 F382.
N29290 Y5.83 F306.
N29300 G02 X-0.7 Y5.78 I-0.05 J0.
N29310 G01 X-0.74
N29320 X-0.8197 F382.
N29330 X-0.8597 F306.
N29340 G02 X-0.9097 Y5.83 I0. J0.05
N29350 G01 Y5.87
N29360 Y9.13 F382.
N29370 Y9.17 F306.
N29380 G02 X-0.8597 Y9.22 I0.05 J0.
N29390 G01 X-0.8197
N29400 X-0.74 F382.
N29410 X-0.7 F306.
N29420 G02 X-0.65 Y9.17 I0. J-0.05
N29430 G01 Y9.13
N29440 Y6.7291 F382.
N29450 Z-1.4186 F382.
N29460 G00 Z0.25
N29470 G00 X0.5039 Y7.4205
N29480 G00 Z-1.7043
N29490 G01 Z-1.7143 F382.
N29500 X0.
N29510 Y5.0778 F382.
N29520 Y5.0378 F306.
N29530 X-0.0336 Y5.0595
N29540 X-0.0581 Y5.0753 F382.
N29550 X-0.1697 Y5.1156
N29560 X-0.2924 Y5.13
N29570 X-1.0211
N29580 X-1.0611 F306.
N29590 X-1.0648 Y5.1503
N29600 Y5.1697
N29610 Y9.8304 F382.
N29620 Y9.8621 F306.
N29630 X-1.0623 Y9.87
N29640 X-1.0223
N29650 X-0.2936 F382.
N29660 X-0.1683 Y9.8849
N29670 X-0.0557 Y9.9256
N29680 X-0.0335 Y9.9401
N29690 X0. Y9.9621 F306.
N29700 Y9.9221
N29710 Y7.4605 F382.
N29720 Y7.4205 F306.
N29730 X-0.0146 Y7.3852
N29740 X-0.0429 Y7.3569
N29750 X-0.26 Y7.1398 F382.
N29760 X-0.4771 Y6.9227
N29770 X-0.5054 Y6.8944 F306.
N29780 X-0.52 Y6.8591
N29790 Y6.8191
N29800 Y5.69 F382.
N29810 Y5.65 F306.
N29820 X-0.5448
N29830 Y5.69
N29840 Y9.31 F382.
N29850 Y9.35 F306.
N29860 X-0.52
N29870 Y9.31
N29880 Y6.8591 F382.
N29890 Z-1.7043 F382.
N29900 G00 Z0.25
N29910 G00 X0.5039 Y7.4999
N29920 G00 Z-1.99
N29930 G01 Z-2. F382.
N29940 X0.
N29950 Y5.0778 F382.
N29960 Y5.0378 F306.
N29970 X-0.0336 Y5.0595
N29980 X-0.0581 Y5.0753 F382.
N29990 X-0.1697 Y5.1156
N30000 X-0.2924 Y5.13
N30010 X-0.5567
N30020 X-0.5967 F306.
N30030 X-0.5999 Y5.1477
N30040 Y5.1697
N30050 Y9.8302 F382.
N30060 Y9.8595 F306.
N30070 X-0.5979 Y9.87
N30080 X-0.5579
N30090 X-0.2936 F382.
N30100 X-0.2578 Y9.8743
N30110 X-0.2224 Y9.8747
N30120 X-0.1683 Y9.8849
N30130 X-0.0557 Y9.9256
N30140 X-0.0335 Y9.9401
N30150 X0. Y9.9621 F306.
N30160 Y9.9221
N30170 Y7.4999 F382.
N30180 Z-1.99 F382.
N30190 G00 Z0.25
N30200 G00 X-11.1416 Y5.5204
N30210 G00 Z-1.1289
N30220 G01 Z-1.1389 F382.
N30230 X-11.5921 Y5.5324 Z-1.1547
N30240 X-12.4394 Y5.5686 Z-1.1843
N30250 X-13.1341 Y5.6089 Z-1.2086
N30260 X-13.273 Y5.6169 Z-1.2131
N30270 X-13.4601 Y5.6291 Z-1.2191
N30280 X-13.5 Y5.6317 Z-1.2204
N30290 Y5.6717 Z-1.2217
N30300 Y9.0018 Z-1.338
N30310 Y9.3286 Z-1.3485
N30320 Y9.3686 Z-1.3498
N30330 X-13.4601 Y9.3709 Z-1.3511
N30340 X-12.4351 Y9.4317 Z-1.3869
N30350 X-11.6178 Y9.4662 Z-1.4155
N30360 X-11.5572 Y9.4688 Z-1.4176
N30370 X-11.2867 Y9.4766 Z-1.4272
N30380 X-11.2467 Y9.4777 Z-1.4286
N30390 X-10.8165 Y9.4901 F382.
N30400 X-9.9663 Y9.5039
N30410 X-9.0819 Y9.5056
N30420 X-8.3555 Y9.4959
N30430 X-7.7436 Y9.4775
N30440 X-7.0805 Y9.4424
N30450 X-6.5353 Y9.3947
N30460 X-6.2824 Y9.3692
N30470 X-6.1768 Y9.3827
N30480 X-6.0527 Y9.426
N30490 X-5.3463 Y9.7205
N30500 X-5.1154 Y9.8143
N30510 X-4.6197 Y10.0138
N30520 X-4.0652 Y10.2412
N30530 X-4.0234 Y10.2537
N30540 X-3.7278 Y10.3873
N30550 X-3.6937 Y10.3976
N30560 X-3.4451 Y10.5257
N30570 X-3.2172 Y10.6581
N30580 X-2.9169 Y10.9183
N30590 X-2.8508 Y10.9983
N30600 X-2.8253 Y11.0292 F306.
N30610 X-2.8239 Y11.0216
N30620 X-2.8261 Y10.9894
N30630 X-2.8684 Y10.3726 F382.
N30640 X-2.8947 Y9.7339
N30650 X-2.9109 Y9.1919
N30660 X-2.9248 Y8.3336
N30670 X-2.9287 Y7.3344
N30680 X-2.9215 Y6.405
N30690 X-2.917 Y5.903
N30700 X-2.9008 Y5.4026
N30710 X-2.9002 Y5.2254
N30720 X-2.8872 Y5.0245
N30730 X-2.8854 Y4.8631
N30740 X-2.8314 Y4.0704
N30750 X-2.8283 Y4.0324
N30760 X-2.825 Y3.9925 F306.
N30770 X-2.8547 Y4.0192
N30780 X-2.873 Y4.0357 F382.
N30790 X-2.956 Y4.1386
N30800 X-3.1386 Y4.282
N30810 X-3.1682 Y4.3125
N30820 X-3.4676 Y4.5032
N30830 X-3.6942 Y4.603
N30840 X-3.8179 Y4.6661
N30850 X-4.025 Y4.7471
N30860 X-4.1345 Y4.7979
N30870 X-4.7046 Y5.0238
N30880 X-5.7037 Y5.4272
N30890 X-6.1201 Y5.6011
N30900 X-6.1709 Y5.6161
N30910 X-6.3056 Y5.6301
N30920 X-6.8203 Y5.5775
N30930 X-7.5285 Y5.5318
N30940 X-8.117 Y5.51
N30950 X-8.7432 Y5.4975
N30960 X-9.5432 Y5.4936
N30970 X-10.5299 Y5.504
N30980 X-11.5921 Y5.5324
N30990 X-12.4394 Y5.5686
N31000 X-13.273 Y5.6169
N31010 X-13.4601 Y5.6291
N31020 X-13.5 Y5.6317 F306.
N31030 Y5.6717
N31040 Y9.3286 F382.
N31050 Y9.3686 F306.
N31060 X-13.4601 Y9.3709
N31070 X-12.4351 Y9.4317 F382.
N31080 X-11.5572 Y9.4688
N31090 X-11.2867 Y9.4766
N31100 X-11.2467 Y9.4777 F306.
N31110 X-11.211 Y9.4641
N31120 X-11.1819 Y9.4367
N31130 X-10.8901 Y9.1612 F382.
N31140 X-10.5983 Y8.8857
N31150 X-10.5692 Y8.8582 F306.
N31160 X-10.5341 Y8.8446
N31170 X-10.4941 Y8.8452
N31180 X-9.9608 Y8.8539 F382.
N31190 X-9.086 Y8.8556
N31200 X-8.37 Y8.846
N31210 X-7.7711 Y8.828
N31220 X-7.1269 Y8.7939
N31230 X-6.5965 Y8.7476
N31240 X-6.3475 Y8.7225
N31250 G03 X-6.2003 Y8.7244 I0.0651 J0.6467
N31260 G01 X-6.0947 Y8.7379
N31270 X-5.9625 Y8.769
N31280 X-5.8404 Y8.8117
N31290 X-5.8377 Y8.8127
N31300 X-5.0991 Y9.1193
N31310 X-3.8416 Y9.6294
N31320 X-3.7558 Y9.6615
N31330 X-3.7527 Y9.6628
N31340 X-3.6537 Y9.7075
N31350 X-3.6173 Y9.724 F306.
N31360 G02 X-3.5467 Y9.6769 I0.0206 J-0.0456
N31370 G01 X-3.5479 Y9.6369
N31380 X-3.5606 Y9.2118 F382.
N31390 X-3.5747 Y8.3446
N31400 X-3.5787 Y7.3375
N31410 X-3.567 Y5.898
N31420 X-3.5518 Y5.3742
N31430 X-3.5506 Y5.3342 F306.
N31440 G02 X-3.6188 Y5.2862 I-0.05 J-0.0015
N31450 G01 X-3.656 Y5.3007
N31460 X-3.7673 Y5.3442 F382.
N31470 X-3.8586 Y5.3865
N31480 X-3.8611 Y5.3876
N31490 X-5.4565 Y6.0283
N31500 X-5.8665 Y6.1996
N31510 X-5.8701 Y6.201
N31520 X-5.9883 Y6.2399
N31530 X-6.1034 Y6.2626
N31540 X-6.2381 Y6.2766
N31550 X-6.3718 Y6.2768
N31560 X-6.8734 Y6.2254
N31570 X-7.5608 Y6.1811
N31580 X-8.1351 Y6.1598
N31590 X-8.7509 Y6.1475
N31600 X-9.541 Y6.1437
N31610 X-10.5174 Y6.1539
N31620 X-11.5691 Y6.182
N31630 X-12.4064 Y6.2177
N31640 X-12.763 Y6.2384
N31650 X-12.8029 Y6.2407 F306.
N31660 G02 X-12.85 Y6.2907 I0.0029 J0.05
N31670 G01 Y6.3307
N31680 Y8.6688 F382.
N31690 Y8.7088 F306.
N31700 G02 X-12.803 Y8.7587 I0.05 J0.
N31710 G01 X-12.763 Y8.7611
N31720 X-12.4025 Y8.7824 F382.
N31730 X-11.5344 Y8.8192
N31740 X-11.268 Y8.8269
N31750 X-11.2281 Y8.828 F306.
N31760 X-11.1923 Y8.8144
N31770 X-11.1632 Y8.7869
N31780 X-10.8714 Y8.5114 F382.
N31790 X-10.5795 Y8.2359
N31800 X-10.5505 Y8.2084 F306.
N31810 X-10.5154 Y8.1948
N31820 X-10.4754 Y8.1954
N31830 X-9.9552 Y8.2039 F382.
N31840 X-9.09 Y8.2056
N31850 X-8.3845 Y8.1962
N31860 X-7.7986 Y8.1786
N31870 X-7.1733 Y8.1455
N31880 X-6.6577 Y8.1004
N31890 X-6.4126 Y8.0758
N31900 G03 X-6.1182 Y8.0796 I0.1302 J1.2934
N31910 G01 X-6.0126 Y8.0931
N31920 G03 X-5.7482 Y8.1554 I-0.1642 J1.2896
N31930 G01 X-5.6281 Y8.1973
N31940 X-5.6255 Y8.1983
N31950 X-4.8525 Y8.5179
N31960 X-4.3249 Y8.7319
N31970 X-4.2878 Y8.747 F306.
N31980 G02 X-4.219 Y8.6998 I0.0188 J-0.0464
N31990 G01 X-4.2197 Y8.6598
N32000 X-4.2246 Y8.3556 F382.
N32010 X-4.2287 Y7.3405
N32020 X-4.2207 Y6.3467
N32030 X-4.2204 Y6.3067 F306.
N32040 G02 X-4.289 Y6.2599 I-0.0499 J-0.0004
N32050 G01 X-4.3261 Y6.2748
N32060 X-5.2097 Y6.6297 F382.
N32070 X-5.6135 Y6.7984
N32080 X-5.6167 Y6.7996
N32090 X-5.8052 Y6.8635
N32100 X-5.8073 Y6.8642
N32110 G03 X-6.0359 Y6.909 I-0.3636 J-1.2481
N32120 G01 X-6.1706 Y6.9231
N32130 G03 X-6.4379 Y6.9234 I-0.135 J-1.293
N32140 G01 X-6.9265 Y6.8734
N32150 X-7.5931 Y6.8304
N32160 X-8.1532 Y6.8095
N32170 X-8.7586 Y6.7975
N32180 X-9.5388 Y6.7937
N32190 X-10.5049 Y6.8038
N32200 X-11.5462 Y6.8316
N32210 X-12.1122 Y6.8558
N32220 X-12.1521 Y6.8575 F306.
N32230 G02 X-12.2 Y6.9074 I0.0021 J0.0499
N32240 G01 Y6.9474
N32250 Y8.0525 F382.
N32260 Y8.0925 F306.
N32270 G02 X-12.1521 Y8.1425 I0.05 J0.
N32280 G01 X-12.1122 Y8.1442
N32290 X-11.5117 Y8.1696 F382.
N32300 X-11.2493 Y8.1771
N32310 X-11.2094 Y8.1783 F306.
N32320 X-11.1736 Y8.1647
N32330 X-11.1445 Y8.1372
N32340 X-10.8555 Y7.8643 F382.
N32350 X-10.5665 Y7.5915
N32360 X-10.5374 Y7.564 F306.
N32370 X-10.5031 Y7.5504
N32380 X-10.4631
N32390 X-10.1701 Y7.5503 F382.
N32400 X-9.9497 Y7.5539
N32410 X-9.0941 Y7.5556
N32420 X-8.6535 Y7.5497
N32430 X-6.6226 Y7.5489
N32440 X-6.5826 F306.
N32450 G02 X-6.5326 Y7.4989 I0. J-0.05
N32460 X-6.5826 Y7.4489 I-0.05 J0.
N32470 G01 X-6.6226
N32480 X-8.6531 Y7.4497 F382.
N32490 X-9.5364 Y7.4437
N32500 X-10.1689 Y7.4503
N32510 X-11.1419 Y7.4505
N32520 X-11.1819 F306.
N32530 G02 X-11.2319 Y7.5005 I0. J0.05
N32540 X-11.1819 Y7.5505 I0.05 J0.
N32550 G01 X-11.1419
N32560 X-10.5031 Y7.5504 F382.
N32570 Z-1.4186 F382.
N32580 G00 Z0.25
N32590 G00 X-5.3317 Y7.6174
N32600 G00 Z-1.1289
N32610 G01 Z-1.1389 F382.
N32620 X-5.2396 Y7.6552 Z-1.1405
N32630 X-4.9463 Y7.7758 Z-1.1478
N32640 X-4.9447 Y7.7764
N32650 X-4.9131 Y7.7775 Z-1.1485
N32660 X-4.8871 Y7.7595 Z-1.1493
N32670 X-4.8771 Y7.7294 Z-1.15
N32680 X-4.8772 Y7.6894 Z-1.1509
N32690 X-4.8775 Y7.5735 Z-1.1536
N32700 X-4.8781 Y7.3112 Z-1.1593
N32710 X-4.8782 Y7.2712 Z-1.1602
N32720 X-4.8884 Y7.2406 Z-1.1609
N32730 X-4.9152 Y7.2227 Z-1.1616
N32740 X-4.9474 Y7.2248 Z-1.1623
N32750 X-4.9843 Y7.2402 Z-1.1632
N32760 X-5.1294 Y7.3007 Z-1.1667
N32770 X-5.3608 Y7.3972 Z-1.1706
N32780 X-5.3635 Y7.3983
N32790 X-5.4805 Y7.4393 Z-1.1726
N32800 X-5.5183 Y7.4526 Z-1.1732
N32810 X-5.5427 Y7.4707 Z-1.1737
N32820 X-5.552 Y7.4997 Z-1.1741
N32830 X-5.5429 Y7.5288 Z-1.1746
N32840 X-5.5185 Y7.5471 Z-1.1751
N32850 X-5.4808 Y7.5603 Z-1.1757
N32860 X-5.4145 Y7.5834 Z-1.1768
N32870 X-5.2396 Y7.6552 Z-1.1798
N32880 X-4.9463 Y7.7758 Z-1.1871
N32890 X-4.9447 Y7.7764
N32900 X-4.9131 Y7.7775 Z-1.1878
N32910 X-4.8871 Y7.7595 Z-1.1885
N32920 X-4.8771 Y7.7294 Z-1.1893
N32930 X-4.8772 Y7.6894 Z-1.1902
N32940 X-4.8775 Y7.5735 Z-1.1929
N32950 X-4.8781 Y7.3112 Z-1.1986
N32960 X-4.8782 Y7.2712 Z-1.1995
N32970 X-4.8884 Y7.2406 Z-1.2002
N32980 X-4.9152 Y7.2227 Z-1.2009
N32990 X-4.9474 Y7.2248 Z-1.2016
N33000 X-4.9843 Y7.2402 Z-1.2025
N33010 X-5.1294 Y7.3007 Z-1.206
N33020 X-5.3608 Y7.3972 Z-1.2099
N33030 X-5.3635 Y7.3983
N33040 X-5.4805 Y7.4393 Z-1.2119
N33050 X-5.5183 Y7.4526 Z-1.2125
N33060 X-5.5427 Y7.4707 Z-1.213
N33070 X-5.552 Y7.4997 Z-1.2134
N33080 X-5.5429 Y7.5288 Z-1.2139
N33090 X-5.5185 Y7.5471 Z-1.2144
N33100 X-5.4808 Y7.5603 Z-1.215
N33110 X-5.4145 Y7.5834 Z-1.2161
N33120 X-5.2396 Y7.6552 Z-1.2191
N33130 X-4.9463 Y7.7758 Z-1.2263
N33140 X-4.9447 Y7.7764 Z-1.2264
N33150 X-4.9131 Y7.7775 Z-1.2271
N33160 X-4.8871 Y7.7595 Z-1.2278
N33170 X-4.8771 Y7.7294 Z-1.2286
N33180 X-4.8772 Y7.6894 Z-1.2295
N33190 X-4.8775 Y7.5735 Z-1.2321
N33200 X-4.8781 Y7.3112 Z-1.2379
N33210 X-4.8782 Y7.2712 Z-1.2388
N33220 X-4.8884 Y7.2406 Z-1.2395
N33230 X-4.9152 Y7.2227 Z-1.2402
N33240 X-4.9474 Y7.2248 Z-1.2409
N33250 X-4.9843 Y7.2402 Z-1.2418
N33260 X-5.1294 Y7.3007 Z-1.2452
N33270 X-5.3608 Y7.3972 Z-1.2492
N33280 X-5.3635 Y7.3983
N33290 X-5.4805 Y7.4393 Z-1.2511
N33300 X-5.5183 Y7.4526 Z-1.2518
N33310 X-5.5427 Y7.4707 Z-1.2522
N33320 X-5.552 Y7.4997 Z-1.2527
N33330 X-5.5429 Y7.5288 Z-1.2532
N33340 X-5.5185 Y7.5471 Z-1.2537
N33350 X-5.4808 Y7.5603 Z-1.2543
N33360 X-5.4145 Y7.5834 Z-1.2554
N33370 X-5.2396 Y7.6552 Z-1.2583
N33380 X-4.9463 Y7.7758 Z-1.2656
N33390 X-4.9447 Y7.7764 Z-1.2657
N33400 X-4.9131 Y7.7775 Z-1.2664
N33410 X-4.8871 Y7.7595 Z-1.2671
N33420 X-4.8771 Y7.7294 Z-1.2678
N33430 X-4.8772 Y7.6894 Z-1.2688
N33440 X-4.8775 Y7.5735 Z-1.2714
N33450 X-4.8781 Y7.3112 Z-1.2772
N33460 X-4.8782 Y7.2712 Z-1.2781
N33470 X-4.8884 Y7.2406 Z-1.2788
N33480 X-4.9152 Y7.2227 Z-1.2795
N33490 X-4.9474 Y7.2248 Z-1.2802
N33500 X-4.9843 Y7.2402 Z-1.2811
N33510 X-5.1294 Y7.3007 Z-1.2845
N33520 X-5.3608 Y7.3972 Z-1.2884
N33530 X-5.3635 Y7.3983 Z-1.2885
N33540 X-5.4805 Y7.4393 Z-1.2904
N33550 X-5.5183 Y7.4526 Z-1.291
N33560 X-5.5427 Y7.4707 Z-1.2915
N33570 X-5.552 Y7.4997 Z-1.292
N33580 X-5.5429 Y7.5288 Z-1.2925
N33590 X-5.5185 Y7.5471 Z-1.293
N33600 X-5.4808 Y7.5603 Z-1.2936
N33610 X-5.4145 Y7.5834 Z-1.2947
N33620 X-5.2396 Y7.6552 Z-1.2976
N33630 X-4.9463 Y7.7758 Z-1.3049
N33640 X-4.9447 Y7.7764 Z-1.305
N33650 X-4.9131 Y7.7775 Z-1.3057
N33660 X-4.8871 Y7.7595 Z-1.3064
N33670 X-4.8771 Y7.7294 Z-1.3071
N33680 X-4.8772 Y7.6894 Z-1.3081
N33690 X-4.8775 Y7.5735 Z-1.3107
N33700 X-4.8781 Y7.3112 Z-1.3165
N33710 X-4.8782 Y7.2712 Z-1.3174
N33720 X-4.8884 Y7.2406 Z-1.3181
N33730 X-4.9152 Y7.2227 Z-1.3188
N33740 X-4.9474 Y7.2248 Z-1.3195
N33750 X-4.9843 Y7.2402 Z-1.3204
N33760 X-5.1294 Y7.3007 Z-1.3238
N33770 X-5.3608 Y7.3972 Z-1.3277
N33780 X-5.3635 Y7.3983 Z-1.3278
N33790 X-5.4805 Y7.4393 Z-1.3297
N33800 X-5.5183 Y7.4526 Z-1.3303
N33810 X-5.5427 Y7.4707 Z-1.3308
N33820 X-5.552 Y7.4997 Z-1.3313
N33830 X-5.5429 Y7.5288 Z-1.3318
N33840 X-5.5185 Y7.5471 Z-1.3322
N33850 X-5.4808 Y7.5603 Z-1.3329
N33860 X-5.4145 Y7.5834 Z-1.334
N33870 X-5.2396 Y7.6552 Z-1.3369
N33880 X-4.9463 Y7.7758 Z-1.3442
N33890 X-4.9447 Y7.7764
N33900 X-4.9131 Y7.7775 Z-1.345
N33910 X-4.8871 Y7.7595 Z-1.3457
N33920 X-4.8771 Y7.7294 Z-1.3464
N33930 X-4.8772 Y7.6894 Z-1.3473
N33940 X-4.8775 Y7.5735 Z-1.35
N33950 X-4.8781 Y7.3112 Z-1.3558
N33960 X-4.8782 Y7.2712 Z-1.3566
N33970 X-4.8884 Y7.2406 Z-1.3574
N33980 X-4.9152 Y7.2227 Z-1.3581
N33990 X-4.9474 Y7.2248 Z-1.3588
N34000 X-4.9843 Y7.2402 Z-1.3596
N34010 X-5.1294 Y7.3007 Z-1.3631
N34020 X-5.3608 Y7.3972 Z-1.367
N34030 X-5.3635 Y7.3983 Z-1.3671
N34040 X-5.4805 Y7.4393 Z-1.369
N34050 X-5.5183 Y7.4526 Z-1.3696
N34060 X-5.5427 Y7.4707 Z-1.3701
N34070 X-5.552 Y7.4997 Z-1.3706
N34080 X-5.5429 Y7.5288 Z-1.371
N34090 X-5.5185 Y7.5471 Z-1.3715
N34100 X-5.4808 Y7.5603 Z-1.3721
N34110 X-5.4145 Y7.5834 Z-1.3732
N34120 X-5.2398 Y7.6552 Z-1.3762
N34130 X-4.9463 Y7.7758 Z-1.3835
N34140 X-4.9447 Y7.7764
N34150 X-4.9131 Y7.7775 Z-1.3843
N34160 X-4.8871 Y7.7595 Z-1.385
N34170 X-4.8771 Y7.7294 Z-1.3857
N34180 X-4.8772 Y7.6894 Z-1.3866
N34190 X-4.8775 Y7.574 Z-1.3893
N34200 X-4.8781 Y7.3112 Z-1.3951
N34210 X-4.8782 Y7.2712 Z-1.3959
N34220 X-4.8884 Y7.2406 Z-1.3967
N34230 X-4.9152 Y7.2227 Z-1.3974
N34240 X-4.9474 Y7.2248 Z-1.3981
N34250 X-4.9843 Y7.2402 Z-1.399
N34260 X-5.1283 Y7.3002 Z-1.4024
N34270 X-5.3608 Y7.3972 Z-1.4066
N34280 X-5.3635 Y7.3983
N34290 X-5.4805 Y7.4393 Z-1.4087
N34300 X-5.5183 Y7.4526 Z-1.4094
N34310 X-5.5427 Y7.4707 Z-1.4099
N34320 X-5.552 Y7.4997 Z-1.4104
N34330 X-5.5429 Y7.5288 Z-1.4109
N34340 X-5.5185 Y7.5471 Z-1.4114
N34350 X-5.4808 Y7.5603 Z-1.412
N34360 X-5.4145 Y7.5834 Z-1.4132
N34370 X-5.2881 Y7.6353 Z-1.4155
N34380 X-4.9463 Y7.7758 Z-1.4285
N34390 X-4.9447 Y7.7764 Z-1.4286
N34400 G02 X-4.8771 Y7.7294 I0.0176 J-0.0468 F306.
N34410 G01 X-4.8772 Y7.6894
N34420 X-4.8781 Y7.3112 F382.
N34430 X-4.8782 Y7.2712 F306.
N34440 G02 X-4.9474 Y7.2248 I-0.05 J-0.0002
N34450 G01 X-4.9843 Y7.2402
N34460 X-5.3608 Y7.3972 F382.
N34470 X-5.3635 Y7.3983
N34480 X-5.4805 Y7.4393
N34490 X-5.5183 Y7.4526 F306.
N34500 G02 X-5.5185 Y7.5471 I0.0163 J0.0473
N34510 G01 X-5.4808 Y7.5603
N34520 X-5.4145 Y7.5834 F382.
N34530 X-4.9463 Y7.7758
N34540 X-4.9447 Y7.7764
N34550 Z-1.4186 F382.
N34560 G00 Z0.25
N34570 G00 X-4.4694 Y8.5313
N34580 G00 Z-1.4146
N34590 G01 Z-1.4246 F382.
N34600 X-4.4516 Y8.4722 Z-1.4268
N34610 X-4.4099 Y8.2788 Z-1.4338
N34620 X-4.3965 Y8.2168 Z-1.436
N34630 X-4.364 Y7.9969 Z-1.4439
N34640 X-4.3575 Y7.9113 Z-1.4469
N34650 X-4.3391 Y7.6667 Z-1.4555
N34660 X-4.3393 Y7.5405 Z-1.46
N34670 X-4.3397 Y7.3223 Z-1.4677
N34680 X-4.3496 Y7.1693 Z-1.4731
N34690 X-4.3542 Y7.0971 Z-1.4756
N34700 X-4.3773 Y6.8964 Z-1.4827
N34710 X-4.3945 Y6.8008 Z-1.4862
N34720 X-4.4248 Y6.6331 Z-1.4922
N34730 X-4.4785 Y6.4392 Z-1.4993
N34740 X-4.4849 Y6.4161 Z-1.5001
N34750 X-4.5705 Y6.2073 Z-1.508
N34760 X-4.6326 Y6.1014 Z-1.5124
N34770 X-4.6375 Y6.093 Z-1.5127
N34780 X-4.676 Y6.0413 Z-1.5149
N34790 X-4.8095 Y5.9189 Z-1.5212
N34800 X-4.9191 Y5.8653 Z-1.5255
N34810 X-4.9454 Y5.8524 Z-1.5265
N34820 X-5.0676 Y5.8206 Z-1.5309
N34830 X-5.2601 Y5.8005 Z-1.5377
N34840 X-5.2848 Y5.8013 Z-1.5385
N34850 X-5.5179 Y5.809 Z-1.5468
N34860 X-5.6551 Y5.8278 Z-1.5516
N34870 X-5.8095 Y5.8489 Z-1.5571
N34880 X-6.0204 Y5.8943 Z-1.5647
N34890 X-6.2097 Y5.935 Z-1.5715
N34900 X-6.2951 Y5.9422 Z-1.5745
N34910 X-6.3896 Y5.9334 Z-1.5778
N34920 X-6.833 Y5.8415 Z-1.5937
N34930 X-7.3016 Y5.7777 Z-1.6102
N34940 X-7.7781 Y5.7346 Z-1.6269
N34950 X-8.3726 Y5.7019 Z-1.6477
N34960 X-8.9781 Y5.6858 Z-1.6688
N34970 X-9.5303 Y5.6831 Z-1.6881
N34980 X-9.5421 Y5.683 Z-1.6885
N34990 X-9.9015 Y5.6875 Z-1.7012
N35000 X-10.0557 Y5.6894 Z-1.7066
N35010 X-10.2327 Y5.695 Z-1.7129
N35020 X-10.2727 Y5.6963 Z-1.7143
N35030 X-10.8369 Y5.7142 F382.
N35040 X-11.4797 Y5.7483
N35050 X-11.9827 Y5.7841
N35060 X-12.6098 Y5.841
N35070 X-13.1945 Y5.9075
N35080 X-13.4603 Y5.9382
N35090 X-13.5 Y5.9428 F306.
N35100 Y5.9828
N35110 Y9.0172 F382.
N35120 Y9.0572 F306.
N35130 X-13.499 Y9.0571
N35140 X-13.4602 Y9.0614
N35150 X-12.3927 Y9.1803 F382.
N35160 X-11.6946 Y9.2373
N35170 X-11.184 Y9.269
N35180 X-10.4333 Y9.3009
N35190 X-9.7913 Y9.3149
N35200 X-9.147 Y9.3162
N35210 X-8.4436 Y9.3007
N35220 X-7.8738 Y9.272
N35230 X-7.3451 Y9.227
N35240 X-6.9186 Y9.1722
N35250 X-6.5706 Y9.1085
N35260 X-6.3457 Y9.0612
N35270 X-6.1333 Y9.0816
N35280 X-5.7904 Y9.1544
N35290 X-5.4933 Y9.1932
N35300 X-5.2462 Y9.199
N35310 X-5.0377 Y9.1759
N35320 X-4.875 Y9.1186
N35330 X-4.771 Y9.0535
N35340 X-4.7102 Y9.0062
N35350 X-4.5736 Y8.8084
N35360 X-4.5033 Y8.6442
N35370 X-4.4516 Y8.4722
N35380 X-4.3965 Y8.2168
N35390 X-4.364 Y7.9969
N35400 X-4.3391 Y7.6667
N35410 X-4.3397 Y7.3223
N35420 X-4.3542 Y7.0971
N35430 X-4.3773 Y6.8964
N35440 X-4.4248 Y6.6331
N35450 X-4.4849 Y6.4161
N35460 X-4.5705 Y6.2073
N35470 X-4.6375 Y6.093
N35480 X-4.676 Y6.0413
N35490 X-4.8095 Y5.9189
N35500 X-4.9454 Y5.8524
N35510 X-5.0676 Y5.8206
N35520 X-5.2601 Y5.8005
N35530 X-5.5179 Y5.809
N35540 X-5.8095 Y5.8489
N35550 X-6.2097 Y5.935
N35560 X-6.2951 Y5.9422
N35570 X-6.3896 Y5.9334
N35580 X-6.833 Y5.8415
N35590 X-7.3016 Y5.7777
N35600 X-7.7781 Y5.7346
N35610 X-8.3726 Y5.7019
N35620 X-8.9781 Y5.6858
N35630 X-9.5421 Y5.683
N35640 X-10.0557 Y5.6894
N35650 X-10.2327 Y5.695
N35660 X-10.2727 Y5.6963 F306.
N35670 G02 X-10.321 Y5.7478 I0.0016 J0.0499
N35680 G01 X-10.3198 Y5.7878
N35690 X-10.3123 Y6.0227 F382.
N35700 X-10.3049 Y6.2576
N35710 X-10.3036 Y6.2976 F306.
N35720 G03 X-10.3519 Y6.3491 I-0.0499 J0.0016
N35730 G01 X-10.3919 Y6.3504
N35740 X-10.8088 Y6.3636 F382.
N35750 X-11.439 Y6.397
N35760 X-11.9298 Y6.432
N35770 X-12.5431 Y6.4876
N35780 X-12.7659 Y6.513
N35790 X-12.8057 Y6.5175 F306.
N35800 G02 X-12.85 Y6.5672 I0.0057 J0.0497
N35810 G01 Y6.6072
N35820 Y8.3906 F382.
N35830 Y8.4306 F306.
N35840 G02 X-12.8055 Y8.4803 I0.05 J0.
N35850 G01 X-12.7658 Y8.4847
N35860 X-12.331 Y8.5331 F382.
N35870 X-11.6485 Y8.5889
N35880 X-11.1506 Y8.6198
N35890 X-10.4129 Y8.6512
N35900 X-9.7841 Y8.6649
N35910 X-9.1542 Y8.6662
N35920 X-8.4678 Y8.6511
N35930 X-7.9186 Y8.6235
N35940 X-7.4152 Y8.5806
N35950 X-7.02 Y8.5299
N35960 X-6.6967 Y8.4708
N35970 X-6.4794 Y8.4251
N35980 G03 X-6.2836 Y8.4142 I0.1337 J0.6361
N35990 G01 X-6.074 Y8.4343
N36000 X-6.0712 Y8.4347
N36010 X-5.9983 Y8.4459
N36020 X-5.9955 Y8.4464
N36030 X-5.6836 Y8.5126
N36040 X-5.4474 Y8.5437
N36050 X-5.2795 Y8.548
N36060 X-5.2388 Y8.5439
N36070 X-5.199 Y8.5398 F306.
N36080 G02 X-5.1634 Y8.5185 I-0.0055 J-0.0497
N36090 G01 X-5.1498 Y8.4988
N36100 X-5.1432 Y8.4841
N36110 X-5.1169 Y8.4258 F382.
N36120 X-5.0824 Y8.3127
N36130 X-5.0369 Y8.103
N36140 X-5.0108 Y7.9275
N36150 X-4.9894 Y7.6457
N36160 X-4.9896 Y7.3461
N36170 X-5.0017 Y7.1564
N36180 X-5.0204 Y6.9937
N36190 X-5.0586 Y6.7812
N36200 X-5.0997 Y6.6312
N36210 X-5.1429 Y6.5276
N36220 X-5.1583 Y6.4907 F306.
N36230 G02 X-5.1992 Y6.4604 I-0.0461 J0.0194
N36240 G01 X-5.239 Y6.4562
N36250 X-5.2781 Y6.4521 F382.
N36260 X-5.459 Y6.4574
N36270 X-5.6941 Y6.4892
N36280 X-6.0699 Y6.5698
N36290 X-6.073 Y6.5704
N36300 X-6.1553 Y6.5826
N36310 X-6.1585 Y6.583
N36320 X-6.2407 Y6.5899
N36330 X-6.3549 Y6.5894
N36340 X-6.4465 Y6.5809
N36350 X-6.4493 Y6.5806
N36360 X-6.5215 Y6.5698
N36370 X-6.5242 Y6.5693
N36380 X-6.9404 Y6.4831
N36390 X-7.3737 Y6.4239
N36400 X-7.8244 Y6.3831
N36410 X-8.3984 Y6.3514
N36420 X-8.9878 Y6.3357
N36430 X-9.5392 Y6.333
N36440 X-10.0408 Y6.3392
N36450 X-10.2121 Y6.3447
N36460 X-10.2521 Y6.3459 F306.
N36470 G02 X-10.3004 Y6.3975 I0.0016 J0.05
N36480 G01 X-10.2991 Y6.4374
N36490 X-10.2917 Y6.6724 F382.
N36500 X-10.2842 Y6.9073
N36510 X-10.283 Y6.9473 F306.
N36520 G03 X-10.3313 Y6.9988 I-0.0499 J0.0015
N36530 G01 X-10.3713 Y7.0001
N36540 X-10.7808 Y7.013 F382.
N36550 X-11.3982 Y7.0458
N36560 X-11.8768 Y7.0799
N36570 X-12.1147 Y7.1014
N36580 X-12.1545 Y7.105 F306.
N36590 G02 X-12.2 Y7.1548 I0.0045 J0.0498
N36600 G01 Y7.1948
N36610 Y7.8056 F382.
N36620 Y7.8456 F306.
N36630 G02 X-12.1541 Y7.8954 I0.05 J0.
N36640 G01 X-12.1142 Y7.8987
N36650 X-11.6024 Y7.9405 F382.
N36660 X-11.1172 Y7.9706
N36670 X-10.3925 Y8.0015
N36680 X-9.7768 Y8.0149
N36690 X-9.1613 Y8.0162
N36700 X-8.492 Y8.0015
N36710 X-7.9634 Y7.9749
N36720 X-7.4852 Y7.9343
N36730 X-7.1213 Y7.8876
N36740 X-6.8227 Y7.833
N36750 X-6.6131 Y7.789
N36760 G03 X-6.2214 Y7.7672 I0.2674 J1.2722
N36770 G01 X-6.0137 Y7.7871
N36780 X-6.0114 Y7.7874
N36790 X-5.9018 Y7.8031
N36800 X-5.8988 Y7.8036
N36810 X-5.7521 Y7.8338
N36820 X-5.7129 Y7.8419 F306.
N36830 G02 X-5.6527 Y7.7968 I0.0103 J-0.0489
N36840 G01 X-5.6497 Y7.7569
N36850 X-5.6396 Y7.6242 F382.
N36860 Y7.3695
N36870 X-5.648 Y7.243
N36880 X-5.6507 Y7.2031 F306.
N36890 G02 X-5.7111 Y7.1576 I-0.0499 J0.0034
N36900 G01 X-5.7502 Y7.166
N36910 X-5.9315 Y7.2049 F382.
N36920 X-5.934 Y7.2054
N36930 X-6.0573 Y7.2252
N36940 X-6.0604 Y7.2256
N36950 X-6.1867 Y7.2376
N36960 G03 X-6.4147 Y7.2366 I-0.1084 J-1.2954
N36970 G01 X-6.5045 Y7.2283
N36980 X-6.5068 Y7.2281
N36990 X-6.6152 Y7.213
N37000 X-6.6183 Y7.2125
N37010 X-7.048 Y7.1246
N37020 X-7.4459 Y7.0701
N37030 X-7.8707 Y7.0315
N37040 X-8.4242 Y7.001
N37050 X-8.9975 Y6.9857
N37060 X-9.5363 Y6.983
N37070 X-10.026 Y6.9891
N37080 X-10.1915 Y6.9943
N37090 X-10.2314 Y6.9956 F306.
N37100 G02 X-10.2798 Y7.0474 I0.0015 J0.05
N37110 G01 X-10.2783 Y7.0874
N37120 X-10.2627 Y7.5022 F382.
N37130 G02 X-10.2138 Y7.5503 I0.05 J-0.0019 F306.
N37140 G01 X-10.1738 Y7.5511
N37150 X-9.7719 Y7.5599 F382.
N37160 X-9.1664 Y7.5612
N37170 X-8.6956 Y7.5508
N37180 X-8.6556 Y7.55 F306.
N37190 G02 X-8.6554 Y7.45 I-0.0011 J-0.05
N37200 G01 X-8.6954 Y7.4489
N37210 X-9.0041 Y7.4407 F382.
N37220 X-9.5342 Y7.4381
N37230 X-10.0155 Y7.444
N37240 X-10.1743 Y7.449
N37250 X-10.2143 Y7.4503 F306.
N37260 G02 X-10.2627 Y7.5022 I0.0016 J0.05
N37270 G01 Z-1.7043 F382.
N37280 G00 Z0.25
N37290 G00 X-14.0039 Y7.5417
N37300 G00 Z-1.99
N37310 G01 Z-2. F382.
N37320 X-13.5
N37330 Y8.6311 F382.
N37340 Y8.6711 F306.
N37350 X-13.4755 Y8.6695
N37360 X-13.4602 Y8.6716
N37370 X-13.3818 Y8.6821 F382.
N37380 X-12.842 Y8.7942
N37390 X-12.2437 Y8.8931
N37400 X-11.7041 Y8.9628
N37410 X-11.1694 Y9.0157
N37420 X-10.6043 Y9.056
N37430 X-10.0484 Y9.0808
N37440 X-9.5138 Y9.0908
N37450 X-8.9283 Y9.085
N37460 X-8.4118 Y9.0631
N37470 X-7.8303 Y9.0141
N37480 X-7.3824 Y8.9519
N37490 X-7.1001 Y8.8969
N37500 X-6.8819 Y8.8429
N37510 X-6.588 Y8.7471
N37520 X-6.404 Y8.6825
N37530 X-6.2977 Y8.6705
N37540 X-6.113 Y8.6677
N37550 X-5.9248 Y8.6455
N37560 X-5.8536 Y8.6284
N37570 X-5.7465 Y8.5907
N37580 X-5.6216 Y8.5211
N37590 X-5.5359 Y8.447
N37600 X-5.4689 Y8.3658
N37610 X-5.4178 Y8.2842
N37620 X-5.343 Y8.1176
N37630 X-5.292 Y7.9492
N37640 X-5.254 Y7.7215
N37650 X-5.2418 Y7.5032
N37660 X-5.2549 Y7.2702
N37670 X-5.3001 Y7.0163
N37680 X-5.3622 Y6.8318
N37690 X-5.4506 Y6.6598
N37700 X-5.5118 Y6.5794
N37710 X-5.5589 Y6.5307
N37720 X-5.6214 Y6.4791
N37730 X-5.741 Y6.411
N37740 X-5.8463 Y6.3741
N37750 X-6.0123 Y6.3407
N37760 X-6.1069 Y6.3327
N37770 X-6.35 Y6.3269
N37780 X-6.4428 Y6.3089
N37790 X-6.7767 Y6.1876
N37800 X-7.1052 Y6.1018
N37810 X-7.3835 Y6.048
N37820 X-7.8324 Y5.9857
N37830 X-8.3802 Y5.9389
N37840 X-8.9323 Y5.9149
N37850 X-9.5157 Y5.9093
N37860 X-10.05 Y5.9193
N37870 X-10.7974 Y5.9561
N37880 X-11.3867 Y6.004
N37890 X-11.959 Y6.068
N37900 X-12.4731 Y6.1419
N37910 X-12.8411 Y6.2057
N37920 X-13.3906 Y6.3199
N37930 X-13.4602 Y6.3271
N37940 X-13.5 Y6.3311 F306.
N37950 Y6.3711
N37960 Y7.5017 F382.
N37970 Y7.5417 F306.
N37980 G02 X-13.4813 Y7.5807 I0.05 J0.
N37990 G01 X-13.45 Y7.6057
N38000 X-13.1735 Y7.8269 F382.
N38010 X-12.897 Y8.048
N38020 X-12.8658 Y8.073 F306.
N38030 X-12.8485 Y8.1
N38040 G02 X-12.8102 Y8.1369 I0.0485 J-0.012
N38050 G01 X-12.771 Y8.1451
N38060 X-12.7238 Y8.1549 F382.
N38070 X-12.1499 Y8.2497
N38080 X-11.6311 Y8.3168
N38090 X-11.115 Y8.3679
N38100 X-10.5674 Y8.4069
N38110 X-10.0285 Y8.431
N38120 X-9.5116 Y8.4407
N38130 X-8.946 Y8.4351
N38140 X-8.4539 Y8.4143
N38150 X-7.9037 Y8.368
N38160 X-7.4907 Y8.3107
N38170 X-7.2417 Y8.2623
N38180 X-7.0637 Y8.2183
N38190 X-6.797 Y8.1315
N38200 X-6.6193 Y8.0692
N38210 G03 X-6.4771 Y8.0366 I0.2153 J0.6133
N38220 G01 X-6.3089 Y8.0207
N38230 X-6.305 Y8.0205
N38240 X-6.1599 Y8.0183
N38250 X-6.0575 Y8.0066
N38260 X-6.0467 Y8.0053 F306.
N38270 X-6.0187 Y7.9974
N38280 G02 X-5.9897 Y7.9708 I-0.0166 J-0.0472
N38290 G01 X-5.9733 Y7.9343
N38300 X-5.955 Y7.8938 F382.
N38310 X-5.9276 Y7.8054
N38320 X-5.9017 Y7.6537
N38330 X-5.893 Y7.5075
N38340 X-5.9014 Y7.3503
N38350 X-5.9306 Y7.1833
N38360 X-5.9609 Y7.0908
N38370 X-5.9749 Y7.0626
N38380 X-5.9928 Y7.0269 F306.
N38390 G02 X-6.0274 Y7.0007 I-0.0444 J0.0228
N38400 G01 X-6.0666 Y6.9928
N38410 X-6.0994 Y6.9862 F382.
N38420 X-6.3656 Y6.9767
N38430 X-6.4735 Y6.965
N38440 X-6.5663 Y6.9471
N38450 X-6.5701 Y6.9462
N38460 X-6.661 Y6.921
N38470 X-6.6648 Y6.9198
N38480 X-6.9669 Y6.81
N38490 X-7.2468 Y6.7366
N38500 X-7.4887 Y6.6897
N38510 X-7.9035 Y6.6321
N38520 X-8.421 Y6.5878
N38530 X-8.9487 Y6.5648
N38540 X-9.512 Y6.5593
N38550 X-10.0272 Y6.569
N38560 X-10.7543 Y6.6048
N38570 X-11.3235 Y6.651
N38580 X-11.8759 Y6.7127
N38590 X-12.3706 Y6.7838
N38600 X-12.7186 Y6.8441
N38610 X-12.771 Y6.855
N38620 X-12.8102 Y6.8631 F306.
N38630 G02 X-12.85 Y6.9121 I0.0102 J0.049
N38640 G01 Y6.9521
N38650 Y7.5017 F382.
N38660 Y7.5417 F306.
N38670 G02 X-12.8 Y7.5916 I0.05 J0.
N38680 G01 X-12.76
N38690 X-12.4749 F382.
N38700 X-12.1497
N38710 X-12.1416 Y7.5923
N38720 X-12.056 Y7.6064
N38730 X-11.5582 Y7.6708
N38740 X-11.0605 Y7.7201
N38750 X-10.5305 Y7.7579
N38760 X-10.0086 Y7.7812
N38770 X-9.5095 Y7.7906
N38780 X-8.9638 Y7.7853
N38790 X-8.496 Y7.7655
N38800 X-7.977 Y7.7218
N38810 X-7.5987 Y7.6695
N38820 X-7.383 Y7.6276
N38830 X-7.2451 Y7.5936
N38840 X-7.1177 Y7.5523
N38850 X-7.1022 Y7.5499
N38860 X-6.9788
N38870 X-6.9388 F306.
N38880 G02 X-6.8888 Y7.5 I0. J-0.05
N38890 X-6.9388 Y7.4499 I-0.05 J-0.0001
N38900 G01 X-6.9788
N38910 X-7.1005 F382.
N38920 X-7.1175 Y7.4469
N38930 X-7.1574 Y7.4324
N38940 X-7.389 Y7.3713
N38950 X-7.5941 Y7.3313
N38960 X-7.9746 Y7.2784
N38970 X-8.4618 Y7.2366
N38980 X-8.9651 Y7.2147
N38990 X-9.5084 Y7.2094
N39000 X-10.0043 Y7.2187
N39010 X-10.7112 Y7.2534
N39020 X-11.2604 Y7.298
N39030 X-11.7927 Y7.3575
N39040 X-12.1175 Y7.4041
N39050 X-12.1571 Y7.4098 F306.
N39060 G02 X-12.2 Y7.4593 I0.0071 J0.0495
N39070 G01 Y7.4993
N39080 Y7.5002 F382.
N39090 Y7.5402 F306.
N39100 G02 X-12.1582 Y7.5896 I0.05 J0.
N39110 G01 X-12.1416 Y7.5923
N39120 Z-1.99 F382.
N39130 G00 Z0.25
N39140 G00 X0.526 Y5.2149
N39150 G00 Z-1.4186
N39160 G01 Z-1.4286 F382.
N39170 X0. Y5.0378
N39180 X0.0464 Y5.0079 F382.
N39190 X0.1307 Y4.9197
N39200 X0.189 Y4.8206
N39210 X0.2259 Y4.7074
N39220 X0.2381 Y4.5975
N39230 Y3.8159
N39240 X0.2245 Y3.6945
N39250 X0.1824 Y3.5754
N39260 X0.1168 Y3.475
N39270 X0.0284 Y3.3901
N39280 X0. Y3.3733
N39290 Z-1.4186 F382.
N39300 G00 Z0.25
N39310 G00 X0.526 Y5.2149
N39320 G00 Z-1.7043
N39330 G01 Z-1.7143 F382.
N39340 X0. Y5.0378
N39350 X0.0464 Y5.0079 F382.
N39360 X0.1307 Y4.9197
N39370 X0.189 Y4.8206
N39380 X0.2259 Y4.7074
N39390 X0.2381 Y4.5975
N39400 Y3.8159
N39410 X0.2245 Y3.6945
N39420 X0.1824 Y3.5754
N39430 X0.1168 Y3.475
N39440 X0.0284 Y3.3901
N39450 X0. Y3.3733
N39460 Z-1.7043 F382.
N39470 G00 Z0.25
N39480 G00 X0.526 Y5.2149
N39490 G00 Z-1.99
N39500 G01 Z-2. F382.
N39510 X0. Y5.0378
N39520 X0.0464 Y5.0079 F382.
N39530 X0.1307 Y4.9197
N39540 X0.1819 Y4.8373
N39550 X0.1863 Y4.8251
N39560 X0.189 Y4.8206
N39570 X0.1977 Y4.794
N39580 X0.2225 Y4.7257
N39590 X0.2241 Y4.713
N39600 X0.2259 Y4.7074
N39610 X0.2381 Y4.5975
N39620 Y3.8159
N39630 X0.2245 Y3.6945
N39640 X0.1824 Y3.5754
N39650 X0.1168 Y3.475
N39660 X0.0284 Y3.3901
N39670 X0. Y3.3733
N39680 Z-1.99 F382.
N39690 G00 Z0.25
N39700 G00 X-2.8775 Y-0.6288
N39710 G00 Z-1.7043
N39720 G01 Z-1.7143 F382.
N39730 X-3.0309 Y-0.1529
N39740 X-3.0341 Y-0.1432 F382.
N39750 X-3.0463 Y-0.1051 F306.
N39760 X-3.0863 Y-0.1046
N39770 X-3.6041 Y-0.0978 F382.
N39780 X-4.7131 Y-0.0757
N39790 X-5.2913 Y-0.0665
N39800 X-5.4798 Y-0.0646
N39810 X-6.2332 Y-0.0824
N39820 X-6.3907 Y-0.0749
N39830 X-6.5556 Y-0.0275
N39840 X-6.6541 Y0.
N39850 Z-1.7043 F382.
N39860 G00 Z0.25
N39870 G00 X-12.8301 Y-0.5482
N39880 G00 Z-1.7043
N39890 G01 Z-1.7143 F382.
N39900 X-12.9167 Y0.
N39910 X-13.2875 Y-0.0586 F382.
N39920 X-13.4988 Y-0.085
N39930 X-13.5661 Y-0.076
N39940 Z-1.7043 F382.
N39950 G00 Z0.25
N39960 G00 X-14.0644 Y15.0055
N39970 G00 Z-1.7043
N39980 G01 Z-1.7143 F382.
N39990 X-13.5693 Y15.0755
N40000 X-13.5014 Y15.0851 F382.
N40010 X-13.0711 Y15.0309
N40020 X-12.9267 Y15.
N40030 Z-1.7043 F382.
N40040 G00 Z0.25
N40050 G00 X-6.8084 Y15.5339
N40060 G00 Z-1.7043
N40070 G01 Z-1.7143 F382.
N40080 X-6.6568 Y15.
N40090 X-6.3974 Y15.0737 F382.
N40100 X-6.2952 Y15.0844
N40110 X-6.1705 Y15.0808
