% 
OPart Operation.1
(POSTED USING AFL HAAS MILL POST FOR CATIA)
(T1: 1/8 DIA X 0.50  END MILL 2 FLT)
G40G80G90
N10 (04328)
N20 (Part Operation.1)
N30 (OPERATION NAME : Tool Change.2)
N40 (Start generation of : Tool Change.2)
N50 T1 M6 (T1: 1/8 DIA X 0.50  END MILL 2 FLT)
N60 S10695 M3
N70 G0G54G90X5.0807Y10.2637F11. M8
N80 G43 H1
N90 M8
N100 (End of generation of : Tool Change.2)
N110 (OPERATION NAME : Finish Profile of NA Pocket.1)
N120 (Start generation of : Finish Profile of NA Pocket.1)
N130 G00 X5.0807 Y10.2637 Z0.25
N140 G00 Z0.0001
N150 G00 Z0.25
N160 G00 X5.1144 Y10.1594
N170 G00 Z-0.0625
N180 G01 X5.119 Y10.1586 F10.7
N190 X5.1811 Y10.1515 F10.7
N200 X8.2639 Y9.7974
N210 G02 X8.2639 Y5.2026 I-0.2639 J-2.2974
N220 G01 X2.0983 Y4.4944
N230 G03 X1.2352 Y2.854 I0.128 J-1.1146
N240 X3.0774 Y2.6488 I0.9911 J0.5258
N250 G01 X3.6918 Y3.3641
N260 G02 X7.2757 Y3.3821 I1.7997 J-1.5459
N270 G03 X7.9756 Y3.0626 I0.705 J0.618
N280 X12.4375 Y7.5 I0.0244 J4.4374
N290 X7.9756 Y11.9374 I-4.4375 J0.
N300 X7.2757 Y11.6179 I0.0051 J-0.9375
N310 G02 X3.6918 Y11.6359 I-1.7842 J1.5638
N320 G01 X3.0774 Y12.3512
N330 G03 X1.2352 Y12.146 I-0.8511 J-0.731
N340 X2.0983 Y10.5056 I0.9911 J-0.5258
N350 G01 X5.1811 Y10.1515
N360 X5.2432 Y10.1444
N370 X5.2476 Y10.1441 F10.7
N380 G00 Z0.25
N390 G00 X5.3043 Y10.238
N400 G00 Z0.0003
N410 G00 Z0.25
N420 G00 X5.0579 Y4.935
N430 G00 Z0.0001
N440 G00 Z0.25
N450 G00 X5.1144 Y4.841
N460 G00 Z-0.0625
N470 G01 X5.119 Y4.8414 F10.7
N480 X5.1811 Y4.8485 F10.7
N490 X8.2639 Y5.2026
N500 G03 X8.2639 Y9.7974 I-0.2639 J2.2974
N510 G01 X2.0983 Y10.5056
N520 G02 X1.2352 Y12.146 I0.128 J1.1146
N530 X3.0774 Y12.3512 I0.9911 J-0.5258
N540 G01 X3.6918 Y11.6359
N550 G03 X7.2757 Y11.6179 I1.7997 J1.5458
N560 G02 X7.9756 Y11.9374 I0.705 J-0.618
N570 X12.4375 Y7.5 I0.0244 J-4.4374
N580 X7.9756 Y3.0626 I-4.4375 J0.
N590 X7.2757 Y3.3821 I0.0051 J0.9374
N600 G03 X3.6918 Y3.3641 I-1.7842 J-1.5639
N610 G01 X3.0774 Y2.6488
N620 G02 X1.2352 Y2.854 I-0.8511 J0.731
N630 X2.0983 Y4.4944 I0.9911 J0.5258
N640 G01 X5.1811 Y4.8485
N650 X5.2432 Y4.8556
N660 X5.2475 Y4.8563 F10.7
N670 G00 Z0.25
N680 G00 X5.2814 Y4.9607
N690 G00 Z0.0003
N700 G00 Z0.25
N710 G00 X5.0807 Y10.2637
N720 G00 Z0.0001
N730 G00 Z0.25
N740 G00 X5.1144 Y10.1594
N750 G00 Z-0.125
N760 G01 X5.119 Y10.1586 F10.7
N770 X5.1811 Y10.1515 F10.7
N780 X8.2639 Y9.7974
N790 G02 X8.2639 Y5.2026 I-0.2639 J-2.2974
N800 G01 X2.0983 Y4.4944
N810 G03 X1.2352 Y2.854 I0.128 J-1.1146
N820 X3.0774 Y2.6488 I0.9911 J0.5258
N830 G01 X3.6918 Y3.3641
N840 G02 X7.2757 Y3.3821 I1.7997 J-1.5459
N850 G03 X7.9756 Y3.0626 I0.705 J0.618
N860 X12.4375 Y7.5 I0.0244 J4.4374
N870 X7.9756 Y11.9374 I-4.4375 J0.
N880 X7.2757 Y11.6179 I0.0051 J-0.9375
N890 G02 X3.6918 Y11.6359 I-1.7842 J1.5638
N900 G01 X3.0774 Y12.3512
N910 G03 X1.2352 Y12.146 I-0.8511 J-0.731
N920 X2.0983 Y10.5056 I0.9911 J-0.5258
N930 G01 X5.1811 Y10.1515
N940 X5.2432 Y10.1444
N950 X5.2476 Y10.1441 F10.7
N960 G00 Z0.25
N970 G00 X5.304 Y10.2377
N980 G00 Z0.0001
N990 G00 X5.3043 Y10.238 Z0.25
N1000 G00 X5.0579 Y4.935
N1010 G00 Z0.0001
N1020 G00 Z0.25
N1030 G00 X5.1144 Y4.841
N1040 G00 Z-0.125
N1050 G01 X5.119 Y4.8414 F10.7
N1060 X5.1811 Y4.8485 F10.7
N1070 X8.2639 Y5.2026
N1080 G03 X8.2639 Y9.7974 I-0.2639 J2.2974
N1090 G01 X2.0983 Y10.5056
N1100 G02 X1.2352 Y12.146 I0.128 J1.1146
N1110 X3.0774 Y12.3512 I0.9911 J-0.5258
N1120 G01 X3.6918 Y11.6359
N1130 G03 X7.2757 Y11.6179 I1.7997 J1.5458
N1140 G02 X7.9756 Y11.9374 I0.705 J-0.618
N1150 X12.4375 Y7.5 I0.0244 J-4.4374
N1160 X7.9756 Y3.0626 I-4.4375 J0.
N1170 X7.2757 Y3.3821 I0.0051 J0.9374
N1180 G03 X3.6918 Y3.3641 I-1.7842 J-1.5639
N1190 G01 X3.0774 Y2.6488
N1200 G02 X1.2352 Y2.854 I-0.8511 J0.731
N1210 X2.0983 Y4.4944 I0.9911 J0.5258
N1220 G01 X5.1811 Y4.8485
N1230 X5.2432 Y4.8556
N1240 X5.2475 Y4.8563 F10.7
N1250 G00 Z0.25
N1260 G00 X5.2813 Y4.9603
N1270 G00 Z0.0001
N1280 G00 X5.2814 Y4.9607 Z0.25 F10.7
N1290 (End of generation of : Finish Profile of NA Pocket.1)
G00G53G49Z0.
M30
%
